; generated by PrusaSlicer 2.3.0 on 2023-04-04 at 18:23:24 UTC

; 

; external perimeters extrusion width = 0.45mm
; perimeters extrusion width = 0.45mm
; infill extrusion width = 0.45mm
; solid infill extrusion width = 0.45mm
; top infill extrusion width = 0.40mm
; first layer extrusion width = 0.42mm

M201 X500 Y500 Z100 E5000 ; sets maximum accelerations, mm/sec^2
M203 X500 Y500 Z10 E60 ; sets maximum feedrates, mm/sec
M204 P500 R1000 T500 ; sets acceleration (P, T) and retract acceleration (R), mm/sec^2
M205 X8.00 Y8.00 Z0.40 E5.00 ; sets the jerk limits, mm/sec
M205 S0 T0 ; sets the minimum extruding and travel feed rate, mm/sec
M107
;TYPE:Custom
G90 ; use absolute coordinates
M83 ; extruder relative mode
M104 S210 ; set extruder temp
M140 S60 ; set bed temp
M190 S60 ; wait for bed temp
M109 S210 ; wait for extruder temp
G28 ; home all
G1 Z2 F240
G1 X2 Y10 F3000
G1 Z0.28 F240
G92 E0
G1 Y190 E15 F1500 ; intro line
G1 X2.3 F5000
G92 E0
G1 Y10 E15 F1200 ; intro line
G92 E0
G21 ; set units to millimeters
G90 ; use absolute coordinates
M83 ; use relative distances for extrusion
; Filament gcode
;LAYER_CHANGE
;Z:0.2
;HEIGHT:0.2
;BEFORE_LAYER_CHANGE
G92 E0
;0.2


G1 E-5.00000 F3600.000
G1 Z0.200 F9000.000
;AFTER_LAYER_CHANGE
;0.2
G1 X100.843 Y83.415
G1 E5.00000 F2400.000
;TYPE:Skirt
;WIDTH:0.42
G1 F1200.000
G1 X101.498 Y82.782 E0.02857
G1 X102.263 Y82.362 E0.02737
G1 X103.317 Y82.130 E0.03385
G1 X127.504 Y82.123 E0.75835
G1 X128.192 Y82.195 E0.02169
G1 X128.798 Y82.384 E0.01990
G1 X129.773 Y83.008 E0.03631
G1 X130.192 Y83.462 E0.01935
G1 X130.557 Y84.066 E0.02213
G1 X130.785 Y84.718 E0.02167
G1 X130.874 Y85.382 E0.02100
G1 X130.877 Y145.511 E1.88531
G1 X130.805 Y146.192 E0.02145
G1 X130.622 Y146.780 E0.01931
G1 X130.155 Y147.588 E0.02927
G1 X129.493 Y148.225 E0.02880
G1 X128.723 Y148.643 E0.02748
G1 X127.652 Y148.872 E0.03432
G1 X103.477 Y148.877 E0.75800
G1 X102.804 Y148.804 E0.02121
G1 X102.220 Y148.622 E0.01919
G1 X101.410 Y148.152 E0.02936
G1 X100.763 Y147.474 E0.02941
G1 X100.273 Y146.483 E0.03464
G1 X100.124 Y145.572 E0.02893
G1 X100.123 Y85.489 E1.88388
G1 X100.195 Y84.808 E0.02145
G1 X100.378 Y84.220 E0.01931
G1 X100.813 Y83.467 E0.02727
G1 E-3.50000 F3600.000
;WIPE_START
G1 F7200.000
G1 X101.498 Y82.782 E-0.46024
G1 X102.263 Y82.362 E-0.41461
G1 X103.317 Y82.130 E-0.51278
G1 X103.396 Y82.130 E-0.03738
;WIPE_END
G1 E-0.07500 F3600.000
G1 X111.763 Y96.690 F9000.000
G1 E5.00000 F2400.000
;TYPE:Perimeter
G1 F1200.000
G1 X112.664 Y95.892 E0.03773
G1 X113.730 Y95.332 E0.03773
G1 X114.898 Y95.044 E0.03773
G1 X116.102 Y95.044 E0.03773
G1 X117.270 Y95.332 E0.03773
G1 X118.336 Y95.892 E0.03773
G1 X119.237 Y96.690 E0.03773
G1 X119.922 Y97.682 E0.03780
G1 X120.351 Y98.840 E0.03874
G1 X120.492 Y100.000 E0.03664
G1 X120.347 Y101.195 E0.03773
G1 X119.920 Y102.320 E0.03773
G1 X119.237 Y103.310 E0.03773
G1 X118.336 Y104.108 E0.03773
G1 X117.650 Y104.468 E0.02428
G1 X117.270 Y104.668 E0.01345
G1 X116.102 Y104.956 E0.03773
G1 X114.898 Y104.956 E0.03773
G1 X114.146 Y104.770 E0.02428
G1 X113.730 Y104.668 E0.01345
G1 X112.664 Y104.108 E0.03773
G1 X111.763 Y103.310 E0.03773
G1 X111.080 Y102.320 E0.03773
G1 X110.653 Y101.195 E0.03773
G1 X110.508 Y100.000 E0.03773
G1 X110.653 Y98.805 E0.03773
G1 X111.080 Y97.680 E0.03773
G1 X111.729 Y96.739 E0.03585
G1 X112.040 Y96.953 F9000.000
;TYPE:External perimeter
G1 F1200.000
G1 X112.880 Y96.204 E0.03530
G1 X113.864 Y95.687 E0.03486
G1 X114.944 Y95.421 E0.03486
G1 X116.056 Y95.421 E0.03486
G1 X117.136 Y95.687 E0.03486
G1 X118.120 Y96.204 E0.03486
G1 X118.952 Y96.941 E0.03486
G1 X119.584 Y97.857 E0.03489
G1 X119.982 Y98.930 E0.03586
G1 X120.112 Y100.000 E0.03381
G1 X119.978 Y101.104 E0.03486
G1 X119.584 Y102.143 E0.03486
G1 X118.952 Y103.059 E0.03486
G1 X118.120 Y103.796 E0.03486
G1 X117.475 Y104.134 E0.02285
G1 X117.136 Y104.313 E0.01201
G1 X116.056 Y104.579 E0.03486
G1 X114.944 Y104.579 E0.03486
G1 X114.237 Y104.404 E0.02285
G1 X113.864 Y104.313 E0.01201
G1 X112.880 Y103.796 E0.03486
G1 X112.048 Y103.059 E0.03486
G1 X111.416 Y102.143 E0.03486
G1 X111.022 Y101.104 E0.03486
G1 X110.888 Y100.000 E0.03486
G1 X111.022 Y98.896 E0.03486
G1 X111.416 Y97.857 E0.03486
G1 X112.006 Y97.003 E0.03254
G1 X111.912 Y96.574 F9000.000
G1 E-3.50000 F3600.000
;WIPE_START
G1 F7200.000
G1 X112.880 Y96.204 E-0.56244
G1 X113.864 Y95.687 E-0.52815
G1 X114.548 Y95.519 E-0.33441
;WIPE_END
G1 E-0.07500 F3600.000
G1 X109.813 Y93.487 F9000.000
G1 E5.00000 F2400.000
;TYPE:Perimeter
G1 F1200.000
G1 X121.187 Y93.487 E0.35663
G1 X121.187 Y85.187 E0.26024
G1 X127.461 Y85.187 E0.19673
G1 X127.634 Y85.222 E0.00552
G1 X127.741 Y85.308 E0.00431
G1 X127.778 Y85.366 E0.00217
G1 X127.813 Y85.539 E0.00552
G1 X127.813 Y145.461 E1.87884
G1 X127.801 Y145.569 E0.00338
G1 X127.741 Y145.692 E0.00431
G1 X127.692 Y145.741 E0.00217
G1 X127.569 Y145.801 E0.00431
G1 X121.187 Y145.813 E0.20009
G1 X121.187 Y137.513 E0.26024
G1 X109.813 Y137.513 E0.35663
G1 X109.813 Y145.813 E0.26024
G1 X103.539 Y145.813 E0.19673
G1 X103.431 Y145.801 E0.00338
G1 X103.308 Y145.741 E0.00431
G1 X103.259 Y145.692 E0.00217
G1 X103.199 Y145.569 E0.00431
G1 X103.187 Y85.539 E1.88220
G1 X103.222 Y85.366 E0.00552
G1 X103.308 Y85.259 E0.00431
G1 X103.431 Y85.199 E0.00431
G1 X103.539 Y85.187 E0.00338
G1 X109.813 Y85.187 E0.19673
G1 X109.813 Y93.427 E0.25836
G1 X110.190 Y93.110 F9000.000
;TYPE:External perimeter
G1 F1200.000
G1 X120.810 Y93.110 E0.33298
G1 X120.810 Y84.810 E0.26024
G1 X127.483 Y84.810 E0.20921
G1 X127.653 Y84.829 E0.00538
G1 X127.799 Y84.880 E0.00483
G1 X127.929 Y84.962 E0.00483
G1 X128.038 Y85.071 E0.00483
G1 X128.120 Y85.201 E0.00483
G1 X128.171 Y85.347 E0.00483
G1 X128.190 Y85.517 E0.00538
G1 X128.190 Y145.483 E1.88017
G1 X128.171 Y145.653 E0.00538
G1 X128.120 Y145.799 E0.00483
G1 X128.038 Y145.929 E0.00483
G1 X127.929 Y146.038 E0.00483
G1 X127.799 Y146.120 E0.00483
G1 X127.653 Y146.171 E0.00483
G1 X127.483 Y146.190 E0.00538
G1 X120.810 Y146.190 E0.20921
G1 X120.810 Y137.890 E0.26024
G1 X110.190 Y137.890 E0.33298
G1 X110.190 Y146.190 E0.26024
G1 X103.517 Y146.190 E0.20921
G1 X103.347 Y146.171 E0.00538
G1 X103.201 Y146.120 E0.00483
G1 X103.071 Y146.038 E0.00483
G1 X102.962 Y145.929 E0.00483
G1 X102.880 Y145.799 E0.00483
G1 X102.829 Y145.653 E0.00483
G1 X102.810 Y145.483 E0.00538
G1 X102.810 Y85.517 E1.88017
G1 X102.829 Y85.347 E0.00538
G1 X102.880 Y85.201 E0.00483
G1 X102.962 Y85.071 E0.00483
G1 X103.071 Y84.962 E0.00483
G1 X103.201 Y84.880 E0.00483
G1 X103.347 Y84.829 E0.00483
G1 X103.517 Y84.810 E0.00538
G1 X110.190 Y84.810 E0.20921
G1 X110.190 Y93.050 E0.25836
G1 X110.280 Y93.500 F9000.000
G1 E-3.50000 F3600.000
;WIPE_START
G1 F7200.000
G1 X113.190 Y93.067 E-1.42500
;WIPE_END
G1 E-0.07500 F3600.000
G1 X126.799 Y85.300 F9000.000
G1 E5.00000 F2400.000
;TYPE:Solid infill
;WIDTH:0.421585
G1 F1200.000
G1 X127.530 Y86.032 E0.03257
G1 X127.530 Y86.567 E0.01686
G1 X126.433 Y85.470 E0.04886
G1 X125.897 Y85.470 E0.01686
G1 X127.530 Y87.103 E0.07271
G1 X127.530 Y87.638 E0.01686
G1 X125.362 Y85.470 E0.09655
G1 X124.826 Y85.470 E0.01686
G1 X127.530 Y88.174 E0.12040
G1 X127.530 Y88.709 E0.01686
G1 X124.291 Y85.470 E0.14424
G1 X123.755 Y85.470 E0.01686
G1 X127.530 Y89.245 E0.16809
G1 X127.530 Y89.780 E0.01686
G1 X123.220 Y85.470 E0.19193
G1 X122.684 Y85.470 E0.01686
G1 X127.530 Y90.316 E0.21578
G1 X127.530 Y90.851 E0.01686
G1 X122.149 Y85.470 E0.23963
G1 X121.613 Y85.470 E0.01686
G1 X127.530 Y91.387 E0.26347
G1 X127.530 Y91.922 E0.01686
G1 X121.470 Y85.862 E0.26985
G1 X121.470 Y86.398 E0.01686
G1 X127.530 Y92.458 E0.26985
G1 X127.530 Y92.993 E0.01686
G1 X121.470 Y86.933 E0.26985
G1 X121.470 Y87.469 E0.01686
G1 X127.530 Y93.529 E0.26985
G1 X127.530 Y94.064 E0.01686
G1 X121.470 Y88.004 E0.26985
G1 X121.470 Y88.540 E0.01686
G1 X127.530 Y94.600 E0.26985
G1 X127.530 Y95.135 E0.01686
G1 X121.470 Y89.075 E0.26985
G1 X121.470 Y89.611 E0.01686
G1 X127.530 Y95.671 E0.26985
G1 X127.530 Y96.206 E0.01686
G1 X121.470 Y90.146 E0.26985
G1 X121.470 Y90.682 E0.01686
G1 X127.530 Y96.742 E0.26985
G1 X127.530 Y97.277 E0.01686
G1 X121.470 Y91.217 E0.26985
G1 X121.470 Y91.753 E0.01686
G1 X127.530 Y97.813 E0.26985
G1 X127.530 Y98.348 E0.01686
G1 X121.470 Y92.288 E0.26985
G1 X121.470 Y92.824 E0.01686
G1 X127.530 Y98.884 E0.26985
G1 X127.530 Y99.420 E0.01686
G1 X121.470 Y93.359 E0.26985
G1 X121.470 Y93.770 E0.01293
G1 X121.345 Y93.770 E0.00393
G1 X127.530 Y99.955 E0.27541
G1 X127.530 Y100.491 E0.01686
G1 X120.809 Y93.770 E0.29926
G1 X120.274 Y93.770 E0.01686
G1 X127.530 Y101.026 E0.32310
G1 X127.530 Y101.562 E0.01686
G1 X119.738 Y93.770 E0.34695
G1 X119.203 Y93.770 E0.01686
G1 X127.530 Y102.097 E0.37079
G1 X127.530 Y102.633 E0.01686
G1 X118.667 Y93.770 E0.39464
G1 X118.132 Y93.770 E0.01686
G1 X127.530 Y103.168 E0.41849
G1 X127.530 Y103.704 E0.01686
G1 X117.596 Y93.770 E0.44233
G1 X117.061 Y93.770 E0.01686
G1 X127.530 Y104.239 E0.46618
G1 X127.530 Y104.775 E0.01686
G1 X116.525 Y93.770 E0.49002
G1 X115.990 Y93.770 E0.01686
G1 X117.258 Y95.038 E0.05647
G1 X116.547 Y94.863 E0.02305
G1 X115.454 Y93.770 E0.04867
G1 X114.919 Y93.770 E0.01686
G1 X115.910 Y94.761 E0.04415
G1 X115.375 Y94.761 E0.01686
G1 X114.383 Y93.770 E0.04415
G1 X113.848 Y93.770 E0.01686
G1 X114.844 Y94.766 E0.04437
G1 X114.415 Y94.872 E0.01393
G1 X113.312 Y93.770 E0.04909
G1 X112.777 Y93.770 E0.01686
G1 X113.985 Y94.978 E0.05380
G1 X113.629 Y95.066 E0.01155
G1 X113.569 Y95.097 E0.00213
G1 X112.241 Y93.770 E0.05911
G1 X111.706 Y93.770 E0.01686
G1 X113.218 Y95.282 E0.06732
G1 X112.866 Y95.466 E0.01249
G1 X111.170 Y93.770 E0.07553
G1 X110.635 Y93.770 E0.01686
G1 X112.515 Y95.650 E0.08373
G1 X112.229 Y95.899 E0.01195
G1 X109.930 Y93.600 E0.10238
G1 E-3.50000 F3600.000
;WIPE_START
G1 F7200.000
G1 X112.051 Y95.722 E-1.42500
;WIPE_END
G1 E-0.07500 F3600.000
G1 X109.700 Y85.873 F9000.000
G1 E5.00000 F2400.000
G1 F1200.000
G1 X109.296 Y85.470 E0.01796
G1 X108.761 Y85.470 E0.01686
G1 X109.530 Y86.239 E0.03425
G1 X109.530 Y86.775 E0.01686
G1 X108.225 Y85.470 E0.05810
G1 X107.690 Y85.470 E0.01686
G1 X109.530 Y87.310 E0.08194
G1 X109.530 Y87.846 E0.01686
G1 X107.154 Y85.470 E0.10579
G1 X106.619 Y85.470 E0.01686
G1 X109.530 Y88.381 E0.12964
G1 X109.530 Y88.917 E0.01686
G1 X106.083 Y85.470 E0.15348
G1 X105.548 Y85.470 E0.01686
G1 X109.530 Y89.452 E0.17733
G1 X109.530 Y89.988 E0.01686
G1 X105.012 Y85.470 E0.20117
G1 X104.477 Y85.470 E0.01686
G1 X109.530 Y90.523 E0.22502
G1 X109.530 Y91.059 E0.01686
G1 X103.941 Y85.470 E0.24886
G1 X103.511 Y85.475 E0.01356
G1 X103.486 Y85.489 E0.00091
G1 X103.475 Y85.540 E0.00162
G1 X109.530 Y91.594 E0.26960
G1 X109.530 Y92.130 E0.01686
G1 X103.470 Y86.070 E0.26985
G1 X103.470 Y86.605 E0.01686
G1 X109.530 Y92.665 E0.26984
G1 X109.530 Y93.201 E0.01686
G1 X103.470 Y87.141 E0.26984
G1 X103.470 Y87.677 E0.01686
G1 X111.945 Y96.151 E0.37735
G1 X111.661 Y96.403 E0.01194
G1 X103.470 Y88.212 E0.36471
G1 X103.471 Y88.748 E0.01686
G1 X111.417 Y96.694 E0.35383
G1 X111.198 Y97.011 E0.01212
G1 X103.471 Y89.283 E0.34409
G1 X103.471 Y89.819 E0.01686
G1 X110.979 Y97.328 E0.33434
G1 X110.827 Y97.548 E0.00842
G1 X110.782 Y97.666 E0.00399
G1 X103.471 Y90.355 E0.32557
G1 X103.471 Y90.890 E0.01686
G1 X110.635 Y98.055 E0.31901
G1 X110.488 Y98.443 E0.01307
G1 X103.471 Y91.426 E0.31245
G1 X103.471 Y91.961 E0.01686
G1 X110.362 Y98.853 E0.30685
G1 X110.304 Y99.330 E0.01515
G1 X103.471 Y92.497 E0.30426
G1 X103.471 Y93.033 E0.01686
G1 X110.246 Y99.808 E0.30168
G1 X110.223 Y100.000 E0.00610
G1 X110.267 Y100.364 E0.01155
G1 X103.471 Y93.568 E0.30260
G1 X103.472 Y94.104 E0.01686
G1 X110.341 Y100.974 E0.30589
G1 X110.376 Y101.263 E0.00918
G1 X110.548 Y101.716 E0.01526
G1 X103.302 Y94.470 E0.32266
G1 E-3.50000 F3600.000
;WIPE_START
G1 F7200.000
G1 X105.423 Y96.591 E-1.42500
;WIPE_END
G1 E-0.07500 F3600.000
G1 X127.700 Y105.480 F9000.000
G1 E5.00000 F2400.000
G1 F1200.000
G1 X120.413 Y98.193 E0.32448
G1 X120.628 Y98.773 E0.01948
G1 X120.652 Y98.967 E0.00616
G1 X127.530 Y105.846 E0.30629
G1 X127.530 Y106.381 E0.01686
G1 X120.726 Y99.577 E0.30299
G1 X120.777 Y100.000 E0.01343
G1 X120.759 Y100.146 E0.00463
G1 X127.530 Y106.917 E0.30149
G1 X127.530 Y107.452 E0.01686
G1 X120.701 Y100.623 E0.30407
G1 X120.643 Y101.101 E0.01515
G1 X127.530 Y107.988 E0.30666
G1 X127.530 Y108.523 E0.01686
G1 X120.526 Y101.519 E0.31186
G1 X120.379 Y101.908 E0.01307
G1 X127.530 Y109.059 E0.31842
G1 X127.530 Y109.594 E0.01686
G1 X120.232 Y102.296 E0.32498
G1 X120.173 Y102.452 E0.00526
G1 X120.042 Y102.642 E0.00724
G1 X127.530 Y110.130 E0.33344
G1 X127.530 Y110.665 E0.01686
G1 X119.823 Y102.958 E0.34317
G1 X119.605 Y103.275 E0.01212
G1 X127.530 Y111.201 E0.35291
G1 X127.530 Y111.736 E0.01686
G1 X119.367 Y103.573 E0.36350
G1 X119.083 Y103.825 E0.01194
G1 X127.530 Y112.272 E0.37614
G1 X127.530 Y112.807 E0.01686
G1 X118.799 Y104.076 E0.38879
G1 X118.515 Y104.328 E0.01194
G1 X127.530 Y113.343 E0.40143
G1 X127.530 Y113.878 E0.01686
G1 X118.168 Y104.516 E0.41689
G1 X117.817 Y104.700 E0.01249
G1 X127.530 Y114.414 E0.43253
G1 X127.530 Y114.949 E0.01686
G1 X117.465 Y104.885 E0.44816
G1 X117.371 Y104.934 E0.00335
G1 X117.057 Y105.012 E0.01020
G1 X127.530 Y115.485 E0.46636
G1 X127.530 Y116.020 E0.01686
G1 X116.627 Y105.117 E0.48549
G1 X116.198 Y105.223 E0.01393
G1 X127.530 Y116.556 E0.50462
G1 X127.530 Y117.091 E0.01686
G1 X115.677 Y105.239 E0.52779
G1 X115.142 Y105.239 E0.01686
G1 X127.530 Y117.627 E0.55163
G1 X127.530 Y118.162 E0.01686
G1 X114.522 Y105.154 E0.57923
G1 X113.811 Y104.979 E0.02305
G1 X127.530 Y118.698 E0.61088
G1 X127.530 Y119.234 E0.01686
G1 X112.791 Y104.494 E0.65630
G1 X112.502 Y104.343 E0.01027
G1 X111.550 Y103.499 E0.04005
G1 X111.002 Y102.706 E0.03036
G1 X103.472 Y95.175 E0.33532
G1 X103.472 Y95.711 E0.01686
G1 X127.530 Y119.769 E1.07127
G1 X127.530 Y120.305 E0.01686
G1 X103.472 Y96.246 E1.07126
G1 X103.472 Y96.782 E0.01686
G1 X127.530 Y120.840 E1.07126
G1 X127.530 Y121.376 E0.01686
G1 X103.472 Y97.318 E1.07125
G1 X103.472 Y97.853 E0.01686
G1 X127.530 Y121.911 E1.07125
G1 X127.530 Y122.447 E0.01686
G1 X103.472 Y98.389 E1.07124
G1 X103.473 Y98.925 E0.01686
G1 X127.530 Y122.982 E1.07124
G1 X127.530 Y123.518 E0.01686
G1 X103.473 Y99.460 E1.07123
G1 X103.473 Y99.996 E0.01686
G1 X127.530 Y124.053 E1.07123
G1 X127.530 Y124.589 E0.01686
G1 X103.473 Y100.531 E1.07122
G1 X103.473 Y101.067 E0.01686
G1 X127.530 Y125.124 E1.07122
G1 X127.530 Y125.660 E0.01686
G1 X103.473 Y101.603 E1.07121
G1 X103.473 Y102.138 E0.01686
G1 X127.530 Y126.195 E1.07121
G1 X127.530 Y126.731 E0.01686
G1 X103.473 Y102.674 E1.07120
G1 X103.473 Y103.210 E0.01686
G1 X127.530 Y127.266 E1.07120
G1 X127.530 Y127.802 E0.01686
G1 X103.474 Y103.745 E1.07119
G1 X103.474 Y104.281 E0.01686
G1 X127.530 Y128.337 E1.07119
G1 X127.530 Y128.873 E0.01686
G1 X103.474 Y104.816 E1.07118
G1 X103.474 Y105.352 E0.01686
G1 X127.530 Y129.408 E1.07118
G1 X127.530 Y129.944 E0.01686
G1 X103.474 Y105.888 E1.07117
G1 X103.474 Y106.423 E0.01686
G1 X127.530 Y130.479 E1.07117
G1 X127.530 Y131.015 E0.01686
G1 X103.474 Y106.959 E1.07117
G1 X103.474 Y107.494 E0.01686
G1 X127.530 Y131.550 E1.07116
G1 X127.530 Y132.086 E0.01686
G1 X103.474 Y108.030 E1.07116
G1 X103.475 Y108.566 E0.01686
G1 X127.530 Y132.621 E1.07115
G1 X127.530 Y133.157 E0.01686
G1 X103.475 Y109.101 E1.07115
G1 X103.475 Y109.637 E0.01686
G1 X127.530 Y133.692 E1.07114
G1 X127.530 Y134.228 E0.01686
G1 X103.475 Y110.173 E1.07114
G1 X103.475 Y110.708 E0.01686
G1 X127.530 Y134.763 E1.07113
G1 X127.530 Y135.299 E0.01686
G1 X103.475 Y111.244 E1.07113
G1 X103.475 Y111.779 E0.01686
G1 X127.530 Y135.834 E1.07112
G1 X127.530 Y136.370 E0.01686
G1 X103.475 Y112.315 E1.07112
G1 X103.475 Y112.851 E0.01686
G1 X127.530 Y136.905 E1.07111
G1 X127.530 Y137.441 E0.01686
G1 X103.475 Y113.386 E1.07111
G1 X103.476 Y113.922 E0.01686
G1 X127.530 Y137.976 E1.07110
G1 X127.530 Y138.512 E0.01686
G1 X103.476 Y114.458 E1.07110
G1 X103.476 Y114.993 E0.01686
G1 X127.530 Y139.047 E1.07109
G1 X127.530 Y139.583 E0.01686
G1 X103.476 Y115.529 E1.07109
G1 X103.476 Y116.064 E0.01686
G1 X127.530 Y140.119 E1.07108
G1 X127.530 Y140.654 E0.01686
G1 X103.476 Y116.600 E1.07108
