; generated by PrusaSlicer 2.3.0 on 2023-03-25 at 11:15:20 UTC

; 

; external perimeters extrusion width = 0.45mm
; perimeters extrusion width = 0.45mm
; infill extrusion width = 0.45mm
; solid infill extrusion width = 0.45mm
; top infill extrusion width = 0.40mm
; first layer extrusion width = 0.42mm

M201 X500 Y500 Z100 E5000 ; sets maximum accelerations, mm/sec^2
M203 X500 Y500 Z10 E60 ; sets maximum feedrates, mm/sec
M204 P500 R1000 T500 ; sets acceleration (P, T) and retract acceleration (R), mm/sec^2
M205 X8.00 Y8.00 Z0.40 E5.00 ; sets the jerk limits, mm/sec
M205 S0 T0 ; sets the minimum extruding and travel feed rate, mm/sec
M107
;TYPE:Custom
G90 ; use absolute coordinates
M83 ; extruder relative mode
M104 S210 ; set extruder temp
M140 S60 ; set bed temp
M190 S60 ; wait for bed temp
M109 S210 ; wait for extruder temp
G28 ; home all
G1 Z2 F240
G1 X2 Y10 F3000
G1 Z0.28 F240
G92 E0
G1 Y190 E15 F1500 ; intro line
G1 X2.3 F5000
G92 E0
G1 Y10 E15 F1200 ; intro line
G92 E0
G21 ; set units to millimeters
G90 ; use absolute coordinates
M83 ; use relative distances for extrusion
; Filament gcode
;LAYER_CHANGE
;Z:0.2
;HEIGHT:0.2
;BEFORE_LAYER_CHANGE
G92 E0
;0.2


G1 E-5.00000 F3600.000
G1 Z0.200 F9000.000
;AFTER_LAYER_CHANGE
;0.2
G1 X108.874 Y111.465
G1 E5.00000 F2400.000
;TYPE:Skirt
;WIDTH:0.42
G1 F900
G1 X109.950 Y111.256 E0.03436
G1 X121.504 Y111.256 E0.36229
G1 X122.065 Y111.307 E0.01766
G1 X122.604 Y111.457 E0.01752
G1 X123.111 Y111.702 E0.01766
G1 X123.562 Y112.031 E0.01752
G1 X124.256 Y112.901 E0.03490
G1 X124.477 Y113.415 E0.01752
G1 X124.603 Y113.964 E0.01766
G1 X124.629 Y116.740 E0.08704
G1 X124.451 Y117.659 E0.02936
G1 X124.158 Y118.268 E0.02120
G1 X123.743 Y118.797 E0.02107
G1 X123.226 Y119.226 E0.02107
G1 X122.629 Y119.534 E0.02107
G1 X121.540 Y119.744 E0.03477
G1 X109.512 Y119.706 E0.37711
G1 X108.631 Y119.429 E0.02895
G1 X107.869 Y118.908 E0.02895
G1 X107.141 Y118.017 E0.03607
G1 X106.601 Y117.006 E0.03593
G1 X106.393 Y116.196 E0.02623
G1 X106.369 Y115.158 E0.03256
G1 X106.437 Y114.542 E0.01943
G1 X106.635 Y113.908 E0.02083
G1 X107.115 Y113.022 E0.03158
G1 X107.692 Y112.271 E0.02971
G1 X108.236 Y111.800 E0.02257
G1 X108.821 Y111.493 E0.02069
G1 X109.079 Y111.791 F9000.000
G1 F900
G1 X109.963 Y111.633 E0.02816
G1 X121.504 Y111.633 E0.36187
G1 X122.482 Y111.814 E0.03119
G1 X123.329 Y112.328 E0.03107
G1 X123.940 Y113.109 E0.03107
G1 X124.234 Y114.055 E0.03107
G1 X124.252 Y116.720 E0.08355
G1 X124.098 Y117.526 E0.02574
G1 X123.834 Y118.075 E0.01912
G1 X123.452 Y118.556 E0.01924
G1 X122.973 Y118.940 E0.01924
G1 X122.421 Y119.208 E0.01924
G1 X121.529 Y119.367 E0.02841
G1 X109.575 Y119.334 E0.37481
G1 X108.777 Y119.081 E0.02625
G1 X108.095 Y118.602 E0.02612
G1 X107.436 Y117.779 E0.03308
G1 X106.927 Y116.801 E0.03456
G1 X106.761 Y116.100 E0.02257
G1 X106.747 Y115.119 E0.03078
G1 X106.816 Y114.575 E0.01720
G1 X107.003 Y114.006 E0.01877
G1 X107.446 Y113.206 E0.02867
G1 X107.991 Y112.503 E0.02791
G1 X108.493 Y112.082 E0.02052
G1 X109.025 Y111.818 E0.01864
G1 X109.270 Y112.125 F9000.000
G1 F900
G1 X109.978 Y112.010 E0.02249
G1 X121.504 Y112.010 E0.36140
G1 X122.353 Y112.168 E0.02708
G1 X123.092 Y112.622 E0.02720
G1 X123.618 Y113.307 E0.02708
G1 X123.864 Y114.135 E0.02708
G1 X123.876 Y116.697 E0.08032
G1 X123.748 Y117.387 E0.02201
G1 X123.511 Y117.881 E0.01716
G1 X123.165 Y118.310 E0.01728
G1 X122.733 Y118.645 E0.01716
G1 X122.232 Y118.875 E0.01728
G1 X121.516 Y118.990 E0.02272
G1 X109.643 Y118.963 E0.37227
G1 X108.935 Y118.738 E0.02331
G1 X108.330 Y118.305 E0.02331
G1 X107.645 Y117.407 E0.03543
G1 X107.261 Y116.612 E0.02766
G1 X107.133 Y116.021 E0.01896
G1 X107.125 Y115.098 E0.02896
G1 X107.362 Y114.125 E0.03139
G1 X107.768 Y113.402 E0.02598
G1 X108.280 Y112.746 E0.02609
G1 X108.736 Y112.374 E0.01846
G1 X109.215 Y112.150 E0.01658
G1 E-3.50000 F3600.000
;WIPE_START
G1 F7200.000
G1 X109.978 Y112.010 E-0.36815
G1 X112.202 Y112.010 E-1.05685
;WIPE_END
G1 E-0.07500 F3600.000
G1 X110.382 Y115.215 F9000.000
G1 E5.00000 F2400.000
;TYPE:Perimeter
G1 F900
G1 X120.813 Y115.215 E0.32705
G1 X120.813 Y115.785 E0.01785
G1 X110.379 Y115.785 E0.32715
G1 X110.317 Y115.642 E0.00487
G1 X110.291 Y115.484 E0.00503
G1 X110.354 Y115.268 E0.00705
G1 X110.121 Y114.902 F9000.000
;TYPE:External perimeter
G1 F900
G1 X110.163 Y114.838 E0.00240
G1 X121.190 Y114.838 E0.34574
G1 X121.190 Y116.162 E0.04150
G1 X110.168 Y116.162 E0.34559
G1 X110.047 Y115.967 E0.00718
G1 X109.958 Y115.764 E0.00695
G1 X109.919 Y115.604 E0.00516
G1 X109.912 Y115.465 E0.00438
G1 X109.934 Y115.319 E0.00461
G1 X109.995 Y115.142 E0.00588
G1 X110.093 Y114.955 E0.00663
G1 X110.197 Y114.902 F9000.000
G1 E-3.50000 F3600.000
;WIPE_START
G1 F7200.000
G1 X110.163 Y114.838 E-0.06474
G1 X113.027 Y114.838 E-1.36026
;WIPE_END
G1 E-0.07500 F3600.000
G1 X120.624 Y115.500 F9000.000
G1 E5.00000 F2400.000
;TYPE:Gap fill
;WIDTH:0.235288
G1 F900
G1 X110.576 Y115.500 E0.16072
M106 S255
;LAYER_CHANGE
;Z:0.32
;HEIGHT:0.12
;BEFORE_LAYER_CHANGE
G92 E0
;0.32


G1 E-3.50000 F3600.000
;WIPE_START
G1 F7200.000
G1 X113.576 Y115.500 E-1.42500
;WIPE_END
G1 E-0.07500 F3600.000
G1 Z0.320 F9000.000
;AFTER_LAYER_CHANGE
;0.32
M104 S205 ; set temperature
G1 X109.512 Y119.706
G1 E5.00000 F2400.000
;TYPE:Skirt
;WIDTH:0.42
G1 F900
G1 X108.631 Y119.429 E0.01816
G1 X107.869 Y118.908 E0.01816
G1 X107.141 Y118.017 E0.02262
G1 X106.601 Y117.006 E0.02254
G1 X106.393 Y116.196 E0.01646
G1 X106.369 Y115.158 E0.02043
G1 X106.437 Y114.542 E0.01219
G1 X106.635 Y113.908 E0.01307
G1 X107.115 Y113.022 E0.01981
G1 X107.692 Y112.271 E0.01864
G1 X108.236 Y111.800 E0.01416
G1 X108.874 Y111.465 E0.01416
G1 X109.950 Y111.256 E0.02156
G1 X121.504 Y111.256 E0.22727
G1 X122.065 Y111.307 E0.01108
G1 X122.604 Y111.457 E0.01099
G1 X123.111 Y111.702 E0.01108
G1 X123.562 Y112.031 E0.01099
G1 X124.256 Y112.901 E0.02190
G1 X124.477 Y113.415 E0.01099
G1 X124.603 Y113.964 E0.01108
G1 X124.629 Y116.740 E0.05460
G1 X124.451 Y117.659 E0.01842
G1 X124.158 Y118.268 E0.01330
G1 X123.743 Y118.797 E0.01322
G1 X123.226 Y119.226 E0.01322
G1 X122.629 Y119.534 E0.01322
G1 X121.540 Y119.744 E0.02181
G1 X109.572 Y119.706 E0.23539
G1 X109.575 Y119.334 F9000.000
G1 F900
G1 X108.777 Y119.081 E0.01647
G1 X108.095 Y118.602 E0.01639
G1 X107.436 Y117.779 E0.02075
G1 X106.927 Y116.801 E0.02168
G1 X106.761 Y116.100 E0.01416
G1 X106.747 Y115.119 E0.01931
G1 X106.816 Y114.575 E0.01079
G1 X107.003 Y114.006 E0.01177
G1 X107.446 Y113.206 E0.01799
G1 X107.991 Y112.503 E0.01751
G1 X108.493 Y112.082 E0.01287
G1 X109.079 Y111.791 E0.01287
G1 X109.963 Y111.633 E0.01766
G1 X121.504 Y111.633 E0.22701
G1 X122.482 Y111.814 E0.01957
G1 X123.329 Y112.328 E0.01949
G1 X123.940 Y113.109 E0.01949
G1 X124.234 Y114.055 E0.01949
G1 X124.252 Y116.720 E0.05241
G1 X124.098 Y117.526 E0.01615
G1 X123.834 Y118.075 E0.01199
G1 X123.452 Y118.556 E0.01207
G1 X122.973 Y118.940 E0.01207
G1 X122.421 Y119.208 E0.01207
G1 X121.529 Y119.367 E0.01782
G1 X109.635 Y119.334 E0.23395
G1 X109.643 Y118.963 F9000.000
G1 F900
G1 X108.935 Y118.738 E0.01462
G1 X108.330 Y118.305 E0.01462
G1 X107.645 Y117.407 E0.02223
G1 X107.261 Y116.612 E0.01735
G1 X107.133 Y116.021 E0.01190
G1 X107.125 Y115.098 E0.01816
G1 X107.362 Y114.125 E0.01969
G1 X107.768 Y113.402 E0.01630
G1 X108.280 Y112.746 E0.01637
G1 X108.736 Y112.374 E0.01158
G1 X109.270 Y112.125 E0.01158
G1 X109.978 Y112.010 E0.01411
G1 X121.504 Y112.010 E0.22671
G1 X122.353 Y112.168 E0.01699
G1 X123.092 Y112.622 E0.01706
G1 X123.618 Y113.307 E0.01699
G1 X123.864 Y114.135 E0.01699
G1 X123.876 Y116.697 E0.05039
G1 X123.748 Y117.387 E0.01381
G1 X123.511 Y117.881 E0.01076
G1 X123.165 Y118.310 E0.01084
G1 X122.733 Y118.645 E0.01076
G1 X122.232 Y118.875 E0.01084
G1 X121.516 Y118.990 E0.01425
G1 X109.703 Y118.963 E0.23235
G1 E-3.50000 F3600.000
;WIPE_START
G1 F7200.000
G1 X108.935 Y118.738 E-0.38044
G1 X108.330 Y118.305 E-0.35316
G1 X107.645 Y117.407 E-0.53681
G1 X107.503 Y117.114 E-0.15459
;WIPE_END
G1 E-0.07500 F3600.000
G1 X110.573 Y115.540 F9000.000
G1 E5.00000 F2400.000
;TYPE:Perimeter
;WIDTH:0.45
G1 F900
G1 X110.573 Y115.460 E0.00167
G1 X120.427 Y115.460 E0.20855
G1 X120.427 Y115.540 E0.00167
G1 X110.633 Y115.540 E0.20728
G1 X110.322 Y115.964 F9000.000
G1 F900
G1 X110.149 Y115.670 E0.00721
G1 X110.149 Y115.337 E0.00705
G1 X110.216 Y115.195 E0.00332
G1 X110.331 Y115.036 E0.00415
G1 X120.851 Y115.036 E0.22266
G1 X120.851 Y115.964 E0.01963
G1 X110.382 Y115.964 E0.22159
G1 X110.111 Y116.388 F9000.000
;TYPE:External perimeter
G1 F900
G1 X109.935 Y116.156 E0.00618
G1 X109.730 Y115.790 E0.00886
G1 X109.725 Y115.243 E0.01159
G1 X109.848 Y114.979 E0.00617
G1 X110.115 Y114.612 E0.00959
G1 X121.275 Y114.612 E0.23622
G1 X121.275 Y116.388 E0.03759
G1 X110.171 Y116.388 E0.23502
G1 X110.122 Y116.096 F9000.000
;LAYER_CHANGE
;Z:0.44
;HEIGHT:0.12
;BEFORE_LAYER_CHANGE
G92 E0
;0.44


G1 E-3.50000 F3600.000
;WIPE_START
G1 F7200.000
G1 X109.935 Y116.156 E-0.15758
G1 X109.730 Y115.790 E-0.19891
G1 X109.725 Y115.243 E-0.26004
G1 X109.848 Y114.979 E-0.13854
G1 X110.115 Y114.612 E-0.21517
G1 X111.072 Y114.612 E-0.45477
;WIPE_END
G1 E-0.07500 F3600.000
G1 Z0.440 F9000.000
;AFTER_LAYER_CHANGE
;0.44
G1 X110.573 Y115.373
G1 E5.00000 F2400.000
;TYPE:Perimeter
G1 F900
G1 X120.427 Y115.373 E0.20855
G1 X120.427 Y115.627 E0.00537
G1 X110.573 Y115.627 E0.20855
G1 X110.573 Y115.433 E0.00410
G1 X110.211 Y115.070 F9000.000
G1 F900
G1 X110.309 Y114.949 E0.00330
G1 X120.851 Y114.949 E0.22312
G1 X120.851 Y116.051 E0.02333
G1 X110.309 Y116.051 E0.22312
G1 X110.149 Y115.838 E0.00565
G1 X110.149 Y115.162 E0.01430
G1 X110.178 Y115.120 E0.00108
G1 X110.107 Y114.525 F9000.000
;TYPE:External perimeter
G1 F900
G1 X121.275 Y114.525 E0.23638
G1 X121.275 Y116.475 E0.04129
G1 X110.107 Y116.475 E0.23638
G1 X109.869 Y116.182 E0.00799
G1 X109.725 Y115.967 E0.00549
G1 X109.725 Y115.033 E0.01976
G1 X109.869 Y114.818 E0.00549
G1 X110.069 Y114.571 E0.00672
G1 X110.403 Y114.794 F9000.000
;LAYER_CHANGE
;Z:0.56
;HEIGHT:0.12
;BEFORE_LAYER_CHANGE
G92 E0
;0.56


G1 E-3.50000 F3600.000
;WIPE_START
G1 F7200.000
G1 X113.069 Y114.559 E-1.42500
;WIPE_END
G1 E-0.07500 F3600.000
G1 Z0.560 F9000.000
;AFTER_LAYER_CHANGE
;0.56
G1 X110.573 Y115.315
G1 E5.00000 F2400.000
;TYPE:Perimeter
G1 F900
G1 X120.427 Y115.315 E0.20855
G1 X120.427 Y115.685 E0.00784
G1 X110.573 Y115.685 E0.20855
G1 X110.573 Y115.375 E0.00657
G1 X110.302 Y114.891 F9000.000
G1 F900
G1 X120.851 Y114.891 E0.22327
G1 X120.851 Y116.109 E0.02580
G1 X110.302 Y116.109 E0.22327
G1 X110.149 Y115.928 E0.00502
G1 X110.149 Y115.072 E0.01811
G1 X110.263 Y114.937 E0.00375
G1 X110.105 Y114.466 F9000.000
;TYPE:External perimeter
G1 F900
G1 X121.275 Y114.466 E0.23643
G1 X121.275 Y116.534 E0.04375
G1 X110.105 Y116.534 E0.23643
G1 X109.725 Y116.083 E0.01248
G1 X109.725 Y114.917 E0.02467
G1 X110.066 Y114.512 E0.01121
G1 X110.435 Y114.692 F9000.000
;LAYER_CHANGE
;Z:0.68
;HEIGHT:0.12
;BEFORE_LAYER_CHANGE
G92 E0
;0.68


G1 E-3.50000 F3600.000
;WIPE_START
G1 F7200.000
G1 X113.066 Y114.500 E-1.42500
;WIPE_END
G1 E-0.07500 F3600.000
G1 Z0.680 F9000.000
;AFTER_LAYER_CHANGE
;0.68
G1 X110.573 Y115.260
G1 E5.00000 F2400.000
;TYPE:Perimeter
G1 F900
G1 X120.427 Y115.260 E0.20855
G1 X120.427 Y115.740 E0.01017
G1 X110.573 Y115.740 E0.20855
G1 X110.573 Y115.320 E0.00890
G1 X110.290 Y114.836 F9000.000
G1 F900
G1 X120.851 Y114.836 E0.22352
G1 X120.851 Y116.164 E0.02813
G1 X110.290 Y116.164 E0.22352
G1 X110.149 Y116.007 E0.00448
G1 X110.149 Y114.993 E0.02145
G1 X110.250 Y114.880 E0.00321
G1 X110.101 Y114.411 F9000.000
;TYPE:External perimeter
G1 F900
G1 X121.275 Y114.411 E0.23651
G1 X121.275 Y116.589 E0.04609
G1 X110.101 Y116.589 E0.23651
G1 X109.725 Y116.169 E0.01193
G1 X109.725 Y114.831 E0.02831
G1 X110.061 Y114.456 E0.01066
G1 X110.432 Y114.635 F9000.000
G1 E-3.50000 F3600.000
;WIPE_START
G1 F7200.000
G1 X113.061 Y114.444 E-1.42500
;WIPE_END
G1 E-0.07500 F3600.000
G1 X120.214 Y115.500 F9000.000
G1 E5.00000 F2400.000
;TYPE:Gap fill
;WIDTH:0.0819582
G1 F900
G1 X110.786 Y115.500 E0.02644
;LAYER_CHANGE
;Z:0.8
;HEIGHT:0.12
;BEFORE_LAYER_CHANGE
G92 E0
;0.8


G1 E-3.50000 F3600.000
;WIPE_START
G1 F7200.000
G1 X113.786 Y115.500 E-1.42500
;WIPE_END
G1 E-0.07500 F3600.000
G1 Z0.800 F9000.000
;AFTER_LAYER_CHANGE
;0.8
G1 X110.573 Y115.226
G1 E5.00000 F2400.000
;TYPE:Perimeter
;WIDTH:0.45
G1 F900
G1 X120.427 Y115.226 E0.20855
G1 X120.427 Y115.774 E0.01158
G1 X110.573 Y115.774 E0.20855
G1 X110.573 Y115.286 E0.01031
G1 X110.149 Y114.938 F9000.000
G1 F900
G1 X110.278 Y114.802 E0.00397
G1 X120.851 Y114.802 E0.22377
G1 X120.851 Y116.198 E0.02954
G1 X110.278 Y116.198 E0.22377
G1 X110.149 Y116.062 E0.00397
G1 X110.149 Y114.998 E0.02252
G1 X109.725 Y114.768 F9000.000
;TYPE:External perimeter
G1 F900
G1 X110.096 Y114.378 E0.01141
G1 X121.275 Y114.378 E0.23660
G1 X121.275 Y116.622 E0.04750
G1 X110.096 Y116.622 E0.23660
G1 X109.725 Y116.232 E0.01141
G1 X109.725 Y114.828 E0.02970
G1 X110.124 Y114.735 F9000.000
G1 E-3.50000 F3600.000
;WIPE_START
G1 F7200.000
G1 X110.096 Y114.378 E-0.27735
G1 X112.513 Y114.378 E-1.14765
;WIPE_END
G1 E-0.07500 F3600.000
G1 X120.214 Y115.500 F9000.000
G1 E5.00000 F2400.000
;TYPE:Gap fill
;WIDTH:0.14868
G1 F900
G1 X110.786 Y115.500 E0.05783
;LAYER_CHANGE
;Z:0.92
;HEIGHT:0.12
;BEFORE_LAYER_CHANGE
G92 E0
;0.92


G1 E-3.50000 F3600.000
;WIPE_START
G1 F7200.000
G1 X113.786 Y115.500 E-1.42500
;WIPE_END
G1 E-0.07500 F3600.000
G1 Z0.920 F9000.000
;AFTER_LAYER_CHANGE
;0.92
G1 X110.573 Y115.195
G1 E5.00000 F2400.000
;TYPE:Perimeter
;WIDTH:0.45
G1 F900
G1 X120.427 Y115.195 E0.20855
G1 X120.427 Y115.805 E0.01290
G1 X110.573 Y115.805 E0.20855
G1 X110.573 Y115.255 E0.01163
G1 X110.149 Y114.900 F9000.000
G1 F900
G1 X110.274 Y114.771 E0.00380
G1 X120.851 Y114.771 E0.22386
G1 X120.851 Y116.229 E0.03086
G1 X110.274 Y116.229 E0.22386
G1 X110.149 Y116.100 E0.00380
G1 X110.149 Y114.960 E0.02413
G1 X109.725 Y114.728 F9000.000
;TYPE:External perimeter
G1 F900
G1 X110.095 Y114.347 E0.01124
G1 X121.275 Y114.347 E0.23663
G1 X121.275 Y116.653 E0.04882
G1 X110.095 Y116.653 E0.23663
G1 X109.725 Y116.272 E0.01124
G1 X109.725 Y114.788 E0.03142
G1 X110.124 Y114.699 F9000.000
G1 E-3.50000 F3600.000
;WIPE_START
G1 F7200.000
G1 X110.095 Y114.347 E-0.27348
G1 X112.519 Y114.347 E-1.15152
;WIPE_END
G1 E-0.07500 F3600.000
G1 X120.214 Y115.500 F9000.000
G1 E5.00000 F2400.000
;TYPE:Gap fill
;WIDTH:0.211014
G1 F900
G1 X110.786 Y115.500 E0.08715
;LAYER_CHANGE
;Z:1.04
;HEIGHT:0.12
;BEFORE_LAYER_CHANGE
G92 E0
;1.04


G1 E-3.50000 F3600.000
;WIPE_START
G1 F7200.000
G1 X113.786 Y115.500 E-1.42500
;WIPE_END
G1 E-0.07500 F3600.000
G1 Z1.040 F9000.000
;AFTER_LAYER_CHANGE
;1.04
G1 X110.573 Y115.184
G1 E5.00000 F2400.000
;TYPE:Perimeter
;WIDTH:0.45
G1 F900
G1 X120.427 Y115.184 E0.20855
G1 X120.427 Y115.816 E0.01336
G1 X110.573 Y115.816 E0.20855
G1 X110.573 Y115.244 E0.01209
G1 X110.149 Y114.881 F9000.000
G1 F900
G1 X110.270 Y114.760 E0.00362
G1 X120.851 Y114.760 E0.22395
G1 X120.851 Y116.240 E0.03132
G1 X110.270 Y116.240 E0.22395
G1 X110.149 Y116.119 E0.00362
G1 X110.149 Y114.941 E0.02491
G1 X109.725 Y114.706 F9000.000
;TYPE:External perimeter
G1 F900
G1 X110.094 Y114.336 E0.01106
G1 X121.275 Y114.336 E0.23666
G1 X121.275 Y116.664 E0.04928
G1 X110.094 Y116.664 E0.23666
G1 X109.725 Y116.294 E0.01106
G1 X109.725 Y114.766 E0.03233
G1 X110.124 Y114.681 F9000.000
G1 E-3.50000 F3600.000
;WIPE_START
G1 F7200.000
G1 X110.094 Y114.336 E-0.26918
G1 X112.527 Y114.336 E-1.15582
;WIPE_END
G1 E-0.07500 F3600.000
G1 X120.214 Y115.500 F9000.000
G1 E5.00000 F2400.000
;TYPE:Gap fill
;WIDTH:0.232766
G1 F900
G1 X110.786 Y115.500 E0.09738
;LAYER_CHANGE
;Z:1.16
;HEIGHT:0.12
;BEFORE_LAYER_CHANGE
G92 E0
;1.16


G1 E-3.50000 F3600.000
;WIPE_START
G1 F7200.000
G1 X113.786 Y115.500 E-1.42500
;WIPE_END
G1 E-0.07500 F3600.000
G1 Z1.160 F9000.000
;AFTER_LAYER_CHANGE
;1.16
G1 X110.573 Y115.173
G1 E5.00000 F2400.000
;TYPE:Perimeter
;WIDTH:0.45
G1 F900
G1 X120.427 Y115.173 E0.20855
G1 X120.427 Y115.827 E0.01382
G1 X110.573 Y115.827 E0.20855
G1 X110.573 Y115.233 E0.01255
G1 X110.149 Y114.869 F9000.000
G1 F900
G1 X110.269 Y114.749 E0.00358
