; generated by PrusaSlicer 2.3.0 on 2023-04-12 at 05:55:01 UTC

; 

; external perimeters extrusion width = 0.45mm
; perimeters extrusion width = 0.45mm
; infill extrusion width = 0.45mm
; solid infill extrusion width = 0.45mm
; top infill extrusion width = 0.40mm
; first layer extrusion width = 0.42mm

M201 X500 Y500 Z100 E5000 ; sets maximum accelerations, mm/sec^2
M203 X500 Y500 Z10 E60 ; sets maximum feedrates, mm/sec
M204 P500 R1000 T500 ; sets acceleration (P, T) and retract acceleration (R), mm/sec^2
M205 X8.00 Y8.00 Z0.40 E5.00 ; sets the jerk limits, mm/sec
M205 S0 T0 ; sets the minimum extruding and travel feed rate, mm/sec
M107
;TYPE:Custom
G90 ; use absolute coordinates
M83 ; extruder relative mode
M104 S210 ; set extruder temp
M140 S60 ; set bed temp
M190 S60 ; wait for bed temp
M109 S210 ; wait for extruder temp
G28 ; home all
G1 Z2 F240
G1 X2 Y10 F3000
G1 Z0.28 F240
G92 E0
G1 Y190 E15 F1500 ; intro line
G1 X2.3 F5000
G92 E0
G1 Y10 E15 F1200 ; intro line
G92 E0
G21 ; set units to millimeters
G90 ; use absolute coordinates
M83 ; use relative distances for extrusion
; Filament gcode
;LAYER_CHANGE
;Z:0.2
;HEIGHT:0.2
;BEFORE_LAYER_CHANGE
G92 E0
;0.2


G1 E-5.00000 F3600.000
G1 Z0.200 F9000.000
;AFTER_LAYER_CHANGE
;0.2
G1 X101.588 Y81.609
G1 E5.00000 F2400.000
;TYPE:Skirt
;WIDTH:0.42
G1 F1200.000
G1 X102.747 Y80.868 E0.04312
G1 X103.530 Y80.609 E0.02585
G1 X104.382 Y80.505 E0.02693
G1 X126.493 Y80.503 E0.69326
G1 X127.407 Y80.601 E0.02883
G1 X128.167 Y80.843 E0.02501
G1 X129.291 Y81.519 E0.04112
G1 X132.665 Y85.233 E0.15733
G1 X133.425 Y86.504 E0.04645
G1 X133.732 Y87.427 E0.03049
G1 X139.741 Y114.467 E0.86848
G1 X139.866 Y115.624 E0.03649
G1 X139.739 Y116.782 E0.03652
G1 X133.672 Y136.530 E0.64776
G1 X133.291 Y137.538 E0.03379
G1 X132.558 Y138.628 E0.04117
G1 X131.812 Y139.347 E0.03251
G1 X130.826 Y139.963 E0.03645
G1 X118.699 Y145.321 E0.41567
G1 X117.517 Y145.497 E0.03746
G1 X113.440 Y145.497 E0.12786
G1 X112.552 Y145.395 E0.02802
G1 X111.668 Y145.099 E0.02923
G1 X100.140 Y139.957 E0.39577
G1 X99.104 Y139.298 E0.03850
G1 X98.194 Y138.351 E0.04118
G1 X97.648 Y137.460 E0.03276
G1 X97.302 Y136.519 E0.03144
G1 X91.406 Y117.361 E0.62848
G1 X91.142 Y116.183 E0.03787
G1 X91.187 Y114.759 E0.04465
G1 X97.297 Y87.239 E0.88388
G1 X97.656 Y86.263 E0.03262
G1 X98.252 Y85.310 E0.03526
G1 X101.548 Y81.653 E0.15434
G1 E-3.50000 F3600.000
;WIPE_START
G1 F7200.000
G1 X102.747 Y80.868 E-0.68075
G1 X103.530 Y80.609 E-0.39166
G1 X104.267 Y80.519 E-0.35259
;WIPE_END
G1 E-0.07500 F3600.000
G1 X124.505 Y84.674 F9000.000
G1 E5.00000 F2400.000
;TYPE:External perimeter
G1 F1200.000
G1 X124.590 Y84.400 E0.00898
G1 X124.739 Y84.156 E0.00898
G1 X124.944 Y83.956 E0.00898
G1 X125.191 Y83.811 E0.00898
G1 X125.466 Y83.732 E0.00898
G1 X125.753 Y83.722 E0.00898
G1 X126.032 Y83.783 E0.00898
G1 X126.289 Y83.910 E0.00898
G1 X126.507 Y84.095 E0.00898
G1 X126.673 Y84.329 E0.00898
G1 X126.776 Y84.596 E0.00898
G1 X126.811 Y84.877 E0.00889
G1 X126.785 Y85.124 E0.00778
G1 X126.709 Y85.357 E0.00768
G1 X126.585 Y85.568 E0.00768
G1 X126.420 Y85.749 E0.00768
G1 X126.221 Y85.891 E0.00767
G1 X126.002 Y85.987 E0.00749
G1 X125.769 Y86.035 E0.00748
G1 X125.529 Y86.035 E0.00750
G1 X125.296 Y85.987 E0.00748
G1 X125.074 Y85.890 E0.00758
G1 X124.847 Y85.722 E0.00887
G1 X124.666 Y85.500 E0.00898
G1 X124.544 Y85.241 E0.00898
G1 X124.489 Y84.960 E0.00898
G1 X124.502 Y84.734 E0.00710
G1 X124.286 Y84.489 F9000.000
G1 E-3.50000 F3600.000
;WIPE_START
G1 F7200.000
G1 X124.590 Y84.400 E-0.16379
G1 X124.739 Y84.156 E-0.13601
G1 X124.944 Y83.956 E-0.13600
G1 X125.191 Y83.811 E-0.13601
G1 X125.466 Y83.732 E-0.13600
G1 X125.753 Y83.722 E-0.13600
G1 X126.032 Y83.783 E-0.13600
G1 X126.289 Y83.910 E-0.13600
G1 X126.507 Y84.095 E-0.13600
G1 X126.673 Y84.329 E-0.13600
G1 X126.701 Y84.402 E-0.03718
;WIPE_END
G1 E-0.07500 F3600.000
G1 X106.491 Y84.877 F9000.000
G1 E5.00000 F2400.000
G1 F1200.000
G1 X106.465 Y85.124 E0.00778
G1 X106.389 Y85.357 E0.00768
G1 X106.265 Y85.568 E0.00768
G1 X106.100 Y85.749 E0.00768
G1 X105.901 Y85.891 E0.00767
G1 X105.682 Y85.987 E0.00749
G1 X105.449 Y86.035 E0.00748
G1 X105.209 Y86.035 E0.00750
G1 X104.976 Y85.987 E0.00748
G1 X104.754 Y85.890 E0.00758
G1 X104.527 Y85.722 E0.00887
G1 X104.346 Y85.500 E0.00898
G1 X104.224 Y85.241 E0.00898
G1 X104.169 Y84.960 E0.00898
G1 X104.185 Y84.674 E0.00898
G1 X104.270 Y84.400 E0.00898
G1 X104.419 Y84.156 E0.00898
G1 X104.624 Y83.956 E0.00898
G1 X104.871 Y83.811 E0.00898
G1 X105.146 Y83.732 E0.00898
G1 X105.433 Y83.722 E0.00898
G1 X105.712 Y83.783 E0.00898
G1 X105.969 Y83.910 E0.00898
G1 X106.187 Y84.095 E0.00898
G1 X106.353 Y84.329 E0.00898
G1 X106.456 Y84.596 E0.00898
G1 X106.484 Y84.818 E0.00701
G1 X106.707 Y84.999 F9000.000
G1 E-3.50000 F3600.000
;WIPE_START
G1 F7200.000
G1 X106.465 Y85.124 E-0.14573
G1 X106.389 Y85.357 E-0.11634
G1 X106.265 Y85.568 E-0.11635
G1 X106.100 Y85.749 E-0.11635
G1 X105.901 Y85.891 E-0.11612
G1 X105.682 Y85.987 E-0.11350
G1 X105.449 Y86.035 E-0.11329
G1 X105.209 Y86.035 E-0.11362
G1 X104.976 Y85.987 E-0.11329
G1 X104.754 Y85.890 E-0.11489
G1 X104.527 Y85.722 E-0.13436
G1 X104.379 Y85.540 E-0.11117
;WIPE_END
G1 E-0.07500 F3600.000
G1 X124.773 Y110.591 F9000.000
G1 E5.00000 F2400.000
;TYPE:Perimeter
G1 F1200.000
G1 X125.102 Y110.418 E0.01166
G1 X125.463 Y110.329 E0.01166
G1 X125.835 Y110.329 E0.01166
G1 X126.196 Y110.418 E0.01166
G1 X126.525 Y110.591 E0.01166
G1 X126.803 Y110.837 E0.01166
G1 X127.015 Y111.143 E0.01166
G1 X127.136 Y111.464 E0.01076
G1 X127.192 Y111.854 E0.01234
G1 X127.146 Y112.229 E0.01186
G1 X127.015 Y112.577 E0.01166
G1 X126.803 Y112.883 E0.01166
G1 X126.525 Y113.129 E0.01166
G1 X126.196 Y113.302 E0.01166
G1 X125.835 Y113.391 E0.01166
G1 X125.463 Y113.391 E0.01166
G1 X125.102 Y113.302 E0.01166
G1 X124.773 Y113.129 E0.01166
G1 X124.495 Y112.883 E0.01166
G1 X124.280 Y112.571 E0.01186
G1 X124.148 Y112.201 E0.01234
G1 X124.107 Y111.860 E0.01076
G1 X124.152 Y111.491 E0.01166
G1 X124.284 Y111.143 E0.01166
G1 X124.495 Y110.837 E0.01166
G1 X124.728 Y110.631 E0.00978
G1 X124.978 Y110.913 F9000.000
;TYPE:External perimeter
G1 F1200.000
G1 X125.237 Y110.773 E0.00922
G1 X125.509 Y110.706 E0.00879
G1 X125.789 Y110.706 E0.00879
G1 X126.061 Y110.773 E0.00879
G1 X126.309 Y110.903 E0.00879
G1 X126.519 Y111.089 E0.00879
G1 X126.678 Y111.320 E0.00879
G1 X126.769 Y111.559 E0.00801
G1 X126.812 Y111.858 E0.00947
G1 X126.778 Y112.138 E0.00886
G1 X126.678 Y112.400 E0.00879
G1 X126.519 Y112.631 E0.00879
G1 X126.309 Y112.817 E0.00879
G1 X126.061 Y112.947 E0.00879
G1 X125.789 Y113.014 E0.00879
G1 X125.509 Y113.014 E0.00879
G1 X125.237 Y112.947 E0.00879
G1 X124.989 Y112.817 E0.00879
G1 X124.779 Y112.631 E0.00879
G1 X124.619 Y112.398 E0.00886
G1 X124.518 Y112.114 E0.00947
G1 X124.487 Y111.860 E0.00801
G1 X124.521 Y111.582 E0.00879
G1 X124.620 Y111.320 E0.00879
G1 X124.779 Y111.089 E0.00879
G1 X124.933 Y110.953 E0.00646
G1 X124.952 Y110.620 F9000.000
G1 E-3.50000 F3600.000
;WIPE_START
G1 F7200.000
G1 X125.237 Y110.773 E-0.16753
G1 X125.509 Y110.706 E-0.13309
G1 X125.789 Y110.706 E-0.13309
G1 X126.061 Y110.773 E-0.13309
G1 X126.309 Y110.903 E-0.13309
G1 X126.519 Y111.089 E-0.13309
G1 X126.678 Y111.320 E-0.13309
G1 X126.769 Y111.559 E-0.12138
G1 X126.812 Y111.858 E-0.14345
G1 X126.778 Y112.138 E-0.13417
G1 X126.733 Y112.256 E-0.05992
;WIPE_END
G1 E-0.07500 F3600.000
G1 X106.871 Y111.860 F9000.000
G1 E5.00000 F2400.000
;TYPE:Perimeter
G1 F1200.000
G1 X106.826 Y112.229 E0.01166
G1 X106.695 Y112.577 E0.01166
G1 X106.483 Y112.883 E0.01166
G1 X106.205 Y113.129 E0.01166
G1 X105.876 Y113.302 E0.01166
G1 X105.515 Y113.391 E0.01166
G1 X105.143 Y113.391 E0.01166
G1 X104.782 Y113.302 E0.01166
G1 X104.453 Y113.129 E0.01166
G1 X104.175 Y112.883 E0.01166
G1 X103.960 Y112.571 E0.01186
G1 X103.828 Y112.201 E0.01234
G1 X103.787 Y111.860 E0.01076
G1 X103.832 Y111.491 E0.01166
G1 X103.964 Y111.143 E0.01166
G1 X104.175 Y110.837 E0.01166
G1 X104.453 Y110.591 E0.01166
G1 X104.782 Y110.418 E0.01166
G1 X105.143 Y110.329 E0.01166
G1 X105.515 Y110.329 E0.01166
G1 X105.848 Y110.411 E0.01076
G1 X106.200 Y110.587 E0.01234
G1 X106.483 Y110.837 E0.01186
G1 X106.698 Y111.149 E0.01186
G1 X106.830 Y111.519 E0.01234
G1 X106.864 Y111.800 E0.00887
G1 X106.490 Y111.846 F9000.000
;TYPE:External perimeter
G1 F1200.000
G1 X106.458 Y112.138 E0.00922
G1 X106.358 Y112.400 E0.00879
G1 X106.199 Y112.631 E0.00879
G1 X105.989 Y112.817 E0.00879
G1 X105.741 Y112.947 E0.00879
G1 X105.469 Y113.014 E0.00879
G1 X105.189 Y113.014 E0.00879
G1 X104.917 Y112.947 E0.00879
G1 X104.669 Y112.817 E0.00879
G1 X104.459 Y112.631 E0.00879
G1 X104.299 Y112.398 E0.00886
G1 X104.198 Y112.114 E0.00947
G1 X104.167 Y111.860 E0.00801
G1 X104.201 Y111.582 E0.00879
G1 X104.300 Y111.320 E0.00879
G1 X104.459 Y111.089 E0.00879
G1 X104.669 Y110.903 E0.00879
G1 X104.917 Y110.773 E0.00879
G1 X105.189 Y110.706 E0.00879
G1 X105.469 Y110.706 E0.00879
G1 X105.717 Y110.767 E0.00801
G1 X105.988 Y110.902 E0.00947
G1 X106.199 Y111.089 E0.00886
G1 X106.360 Y111.322 E0.00886
G1 X106.461 Y111.606 E0.00947
G1 X106.482 Y111.786 E0.00569
G1 X106.745 Y111.991 F9000.000
G1 E-3.50000 F3600.000
;WIPE_START
G1 F7200.000
G1 X106.458 Y112.138 E-0.16753
G1 X106.358 Y112.400 E-0.13309
G1 X106.199 Y112.631 E-0.13309
G1 X105.989 Y112.817 E-0.13309
G1 X105.741 Y112.947 E-0.13309
G1 X105.469 Y113.014 E-0.13309
G1 X105.189 Y113.014 E-0.13309
G1 X104.917 Y112.947 E-0.13309
G1 X104.669 Y112.817 E-0.13309
G1 X104.459 Y112.631 E-0.13309
G1 X104.388 Y112.527 E-0.05964
;WIPE_END
G1 E-0.07500 F3600.000
G1 X105.515 Y91.391 F9000.000
G1 E5.00000 F2400.000
;TYPE:Perimeter
G1 F1200.000
G1 X105.143 Y91.391 E0.01166
G1 X104.782 Y91.302 E0.01166
G1 X104.453 Y91.129 E0.01166
G1 X104.175 Y90.883 E0.01166
G1 X103.964 Y90.577 E0.01166
G1 X103.832 Y90.229 E0.01166
G1 X103.787 Y89.860 E0.01166
G1 X103.832 Y89.491 E0.01166
G1 X103.964 Y89.143 E0.01166
G1 X104.175 Y88.837 E0.01166
G1 X104.453 Y88.591 E0.01166
G1 X104.782 Y88.418 E0.01166
G1 X105.143 Y88.329 E0.01166
G1 X105.515 Y88.329 E0.01166
G1 X105.876 Y88.418 E0.01166
G1 X106.205 Y88.591 E0.01166
G1 X106.483 Y88.837 E0.01166
G1 X106.695 Y89.143 E0.01166
G1 X106.826 Y89.491 E0.01166
G1 X106.871 Y89.860 E0.01166
G1 X106.826 Y90.229 E0.01166
G1 X106.695 Y90.577 E0.01166
G1 X106.483 Y90.883 E0.01166
G1 X106.205 Y91.129 E0.01166
G1 X105.876 Y91.302 E0.01166
G1 X105.573 Y91.377 E0.00978
G1 X105.483 Y91.010 F9000.000
;TYPE:External perimeter
G1 F1200.000
G1 X105.189 Y91.014 E0.00922
G1 X104.917 Y90.947 E0.00879
G1 X104.669 Y90.817 E0.00879
G1 X104.459 Y90.631 E0.00879
G1 X104.300 Y90.400 E0.00879
G1 X104.201 Y90.138 E0.00879
G1 X104.167 Y89.860 E0.00879
G1 X104.201 Y89.582 E0.00879
G1 X104.300 Y89.320 E0.00879
G1 X104.459 Y89.089 E0.00879
G1 X104.669 Y88.903 E0.00879
G1 X104.917 Y88.773 E0.00879
G1 X105.189 Y88.706 E0.00879
G1 X105.469 Y88.706 E0.00879
G1 X105.741 Y88.773 E0.00879
G1 X105.989 Y88.903 E0.00879
G1 X106.199 Y89.089 E0.00879
G1 X106.358 Y89.320 E0.00879
G1 X106.458 Y89.582 E0.00879
G1 X106.491 Y89.860 E0.00879
G1 X106.458 Y90.138 E0.00879
G1 X106.358 Y90.400 E0.00879
G1 X106.199 Y90.631 E0.00879
G1 X105.989 Y90.817 E0.00879
G1 X105.741 Y90.947 E0.00879
G1 X105.541 Y90.996 E0.00646
G1 X105.370 Y91.282 F9000.000
G1 E-3.50000 F3600.000
;WIPE_START
G1 F7200.000
G1 X105.189 Y91.014 E-0.16753
G1 X104.917 Y90.947 E-0.13309
G1 X104.669 Y90.817 E-0.13309
G1 X104.459 Y90.631 E-0.13309
G1 X104.300 Y90.400 E-0.13309
G1 X104.201 Y90.138 E-0.13309
G1 X104.167 Y89.860 E-0.13309
G1 X104.201 Y89.582 E-0.13309
G1 X104.300 Y89.320 E-0.13309
G1 X104.459 Y89.089 E-0.13309
G1 X104.553 Y89.006 E-0.05964
;WIPE_END
G1 E-0.07500 F3600.000
G1 X124.107 Y89.860 F9000.000
G1 E5.00000 F2400.000
;TYPE:Perimeter
G1 F1200.000
G1 X124.152 Y89.491 E0.01166
G1 X124.284 Y89.143 E0.01166
G1 X124.495 Y88.837 E0.01166
G1 X124.773 Y88.591 E0.01166
G1 X125.102 Y88.418 E0.01166
G1 X125.463 Y88.329 E0.01166
G1 X125.835 Y88.329 E0.01166
G1 X126.196 Y88.418 E0.01166
G1 X126.525 Y88.591 E0.01166
G1 X126.803 Y88.837 E0.01166
G1 X127.015 Y89.143 E0.01166
G1 X127.146 Y89.491 E0.01166
G1 X127.191 Y89.860 E0.01166
G1 X127.146 Y90.229 E0.01166
G1 X127.015 Y90.577 E0.01166
G1 X126.803 Y90.883 E0.01166
G1 X126.525 Y91.129 E0.01166
G1 X126.196 Y91.302 E0.01166
G1 X125.835 Y91.391 E0.01166
G1 X125.463 Y91.391 E0.01166
G1 X125.102 Y91.302 E0.01166
G1 X124.773 Y91.129 E0.01166
G1 X124.495 Y90.883 E0.01166
G1 X124.284 Y90.577 E0.01166
G1 X124.152 Y90.229 E0.01166
G1 X124.114 Y89.920 E0.00978
G1 X124.489 Y89.874 F9000.000
;TYPE:External perimeter
G1 F1200.000
G1 X124.521 Y89.582 E0.00922
G1 X124.620 Y89.320 E0.00879
G1 X124.779 Y89.089 E0.00879
G1 X124.989 Y88.903 E0.00879
G1 X125.237 Y88.773 E0.00879
G1 X125.509 Y88.706 E0.00879
G1 X125.789 Y88.706 E0.00879
G1 X126.061 Y88.773 E0.00879
G1 X126.309 Y88.903 E0.00879
G1 X126.519 Y89.089 E0.00879
G1 X126.678 Y89.320 E0.00879
G1 X126.778 Y89.582 E0.00879
G1 X126.811 Y89.860 E0.00879
G1 X126.778 Y90.138 E0.00879
G1 X126.678 Y90.400 E0.00879
G1 X126.519 Y90.631 E0.00879
G1 X126.309 Y90.817 E0.00879
G1 X126.061 Y90.947 E0.00879
G1 X125.789 Y91.014 E0.00879
G1 X125.509 Y91.014 E0.00879
G1 X125.237 Y90.947 E0.00879
G1 X124.989 Y90.817 E0.00879
G1 X124.779 Y90.631 E0.00879
G1 X124.620 Y90.400 E0.00879
G1 X124.521 Y90.138 E0.00879
G1 X124.496 Y89.934 E0.00646
G1 X124.233 Y89.729 F9000.000
G1 E-3.50000 F3600.000
;WIPE_START
G1 F7200.000
G1 X124.521 Y89.582 E-0.16753
G1 X124.620 Y89.320 E-0.13309
G1 X124.779 Y89.089 E-0.13309
G1 X124.989 Y88.903 E-0.13309
G1 X125.237 Y88.773 E-0.13309
G1 X125.509 Y88.706 E-0.13309
G1 X125.789 Y88.706 E-0.13309
G1 X126.061 Y88.773 E-0.13309
G1 X126.309 Y88.903 E-0.13309
G1 X126.519 Y89.089 E-0.13309
G1 X126.590 Y89.193 E-0.05964
;WIPE_END
G1 E-0.07500 F3600.000
G1 X125.463 Y134.089 F9000.000
G1 E5.00000 F2400.000
;TYPE:Perimeter
G1 F1200.000
G1 X125.835 Y134.089 E0.01166
G1 X126.196 Y134.178 E0.01166
G1 X126.525 Y134.351 E0.01166
G1 X126.803 Y134.597 E0.01166
G1 X127.015 Y134.903 E0.01166
G1 X127.146 Y135.251 E0.01166
G1 X127.191 Y135.620 E0.01166
G1 X127.146 Y135.989 E0.01166
G1 X127.015 Y136.337 E0.01166
G1 X126.803 Y136.643 E0.01166
G1 X126.525 Y136.889 E0.01166
G1 X126.196 Y137.062 E0.01166
G1 X125.835 Y137.151 E0.01166
G1 X125.463 Y137.151 E0.01166
G1 X125.102 Y137.062 E0.01166
G1 X124.773 Y136.889 E0.01166
G1 X124.495 Y136.643 E0.01166
G1 X124.284 Y136.337 E0.01166
G1 X124.152 Y135.989 E0.01166
G1 X124.107 Y135.620 E0.01166
G1 X124.152 Y135.251 E0.01166
G1 X124.284 Y134.903 E0.01166
G1 X124.495 Y134.597 E0.01166
G1 X124.773 Y134.351 E0.01166
G1 X125.102 Y134.178 E0.01166
G1 X125.405 Y134.103 E0.00978
G1 X125.495 Y134.470 F9000.000
;TYPE:External perimeter
G1 F1200.000
G1 X125.789 Y134.466 E0.00922
G1 X126.061 Y134.533 E0.00879
G1 X126.309 Y134.663 E0.00879
G1 X126.519 Y134.849 E0.00879
G1 X126.678 Y135.080 E0.00879
G1 X126.778 Y135.342 E0.00879
G1 X126.811 Y135.620 E0.00879
G1 X126.778 Y135.898 E0.00879
G1 X126.678 Y136.160 E0.00879
G1 X126.519 Y136.391 E0.00879
G1 X126.309 Y136.577 E0.00879
G1 X126.061 Y136.707 E0.00879
G1 X125.789 Y136.774 E0.00879
G1 X125.509 Y136.774 E0.00879
G1 X125.237 Y136.707 E0.00879
G1 X124.989 Y136.577 E0.00879
G1 X124.779 Y136.391 E0.00879
G1 X124.620 Y136.160 E0.00879
G1 X124.521 Y135.898 E0.00879
G1 X124.487 Y135.620 E0.00879
G1 X124.521 Y135.342 E0.00879
G1 X124.620 Y135.080 E0.00879
G1 X124.779 Y134.849 E0.00879
G1 X124.989 Y134.663 E0.00879
G1 X125.237 Y134.533 E0.00879
G1 X125.437 Y134.484 E0.00646
G1 X125.608 Y134.198 F9000.000
G1 E-3.50000 F3600.000
;WIPE_START
G1 F7200.000
G1 X125.789 Y134.466 E-0.16753
G1 X126.061 Y134.533 E-0.13309
G1 X126.309 Y134.663 E-0.13309
G1 X126.519 Y134.849 E-0.13309
G1 X126.678 Y135.080 E-0.13309
G1 X126.778 Y135.342 E-0.13309
G1 X126.811 Y135.620 E-0.13309
G1 X126.778 Y135.898 E-0.13309
G1 X126.678 Y136.160 E-0.13309
G1 X126.519 Y136.391 E-0.13309
G1 X126.425 Y136.474 E-0.05964
;WIPE_END
G1 E-0.07500 F3600.000
G1 X106.871 Y135.620 F9000.000
G1 E5.00000 F2400.000
;TYPE:Perimeter
G1 F1200.000
G1 X106.826 Y135.989 E0.01166
G1 X106.695 Y136.337 E0.01166
