; generated by PrusaSlicer 2.3.0 on 2022-12-29 at 01:54:54 UTC

; 

; external perimeters extrusion width = 0.45mm
; perimeters extrusion width = 0.45mm
; infill extrusion width = 0.45mm
; solid infill extrusion width = 0.45mm
; top infill extrusion width = 0.40mm
; first layer extrusion width = 0.42mm

M201 X500 Y500 Z100 E5000 ; sets maximum accelerations, mm/sec^2
M203 X500 Y500 Z10 E60 ; sets maximum feedrates, mm/sec
M204 P500 R1000 T500 ; sets acceleration (P, T) and retract acceleration (R), mm/sec^2
M205 X8.00 Y8.00 Z0.40 E5.00 ; sets the jerk limits, mm/sec
M205 S0 T0 ; sets the minimum extruding and travel feed rate, mm/sec
M107
;TYPE:Custom
G90 ; use absolute coordinates
M83 ; extruder relative mode
M104 S210 ; set extruder temp
M140 S60 ; set bed temp
M190 S60 ; wait for bed temp
M109 S210 ; wait for extruder temp
G28 ; home all
G1 Z2 F240
G1 X2 Y10 F3000
G1 Z0.28 F240
G92 E0
G1 Y190 E15 F1500 ; intro line
G1 X2.3 F5000
G92 E0
G1 Y10 E15 F1200 ; intro line
G92 E0
G21 ; set units to millimeters
G90 ; use absolute coordinates
M83 ; use relative distances for extrusion
; Filament gcode
;LAYER_CHANGE
;Z:0.2
;HEIGHT:0.2
;BEFORE_LAYER_CHANGE
G92 E0
;0.2


G1 E-5.00000 F3600.000
G1 Z0.200 F9000.000
;AFTER_LAYER_CHANGE
;0.2
G1 X106.428 Y98.234
G1 E5.00000 F2400.000
;TYPE:Skirt
;WIDTH:0.42
G1 F1200.000
G1 X108.640 Y96.021 E0.09811
G1 X109.880 Y95.221 E0.04627
G1 X112.536 Y94.121 E0.09012
G1 X113.163 Y93.954 E0.02035
G1 X114.016 Y93.823 E0.02706
G1 X116.905 Y93.821 E0.09059
G1 X118.411 Y94.101 E0.04803
G1 X121.152 Y95.234 E0.09299
G1 X121.690 Y95.542 E0.01943
G1 X122.413 Y96.069 E0.02804
G1 X124.485 Y98.139 E0.09184
G1 X125.236 Y99.203 E0.04084
G1 X137.733 Y120.846 E0.78359
G1 X138.058 Y121.563 E0.02469
G1 X138.266 Y122.174 E0.02024
G1 X138.829 Y125.004 E0.09048
G1 X138.876 Y125.941 E0.02941
G1 X138.835 Y126.570 E0.01976
G1 X138.272 Y129.400 E0.09048
G1 X137.961 Y130.273 E0.02906
G1 X137.677 Y130.851 E0.02020
G1 X136.033 Y133.308 E0.09267
G1 X134.976 Y134.357 E0.04670
G1 X132.524 Y135.994 E0.09244
G1 X131.746 Y136.357 E0.02692
G1 X131.125 Y136.568 E0.02055
G1 X128.223 Y137.144 E0.09279
G1 X103.069 Y137.171 E0.78868
G1 X99.872 Y136.568 E0.10201
G1 X99.028 Y136.263 E0.02811
G1 X98.454 Y135.980 E0.02008
G1 X96.053 Y134.377 E0.09052
G1 X95.357 Y133.748 E0.02941
G1 X94.942 Y133.273 E0.01977
G1 X93.336 Y130.871 E0.09060
G1 X92.937 Y130.027 E0.02930
G1 X92.734 Y129.427 E0.01984
G1 X92.170 Y126.596 E0.09052
G1 X92.124 Y125.663 E0.02929
G1 X92.165 Y125.034 E0.01976
G1 X92.728 Y122.203 E0.09048
G1 X93.039 Y121.330 E0.02906
G1 X105.766 Y99.200 E0.80046
G1 X106.394 Y98.284 E0.03483
G1 E-3.50000 F3600.000
;WIPE_START
G1 F7200.000
G1 X108.508 Y96.155 E-1.42500
;WIPE_END
G1 E-0.07500 F3600.000
G1 X125.859 Y123.425 F9000.000
G1 E5.00000 F2400.000
;TYPE:Perimeter
G1 F1200.000
G1 X126.158 Y123.244 E0.01094
G1 X126.476 Y123.101 E0.01094
G1 X126.809 Y122.997 E0.01094
G1 X127.152 Y122.935 E0.01094
G1 X127.487 Y122.914 E0.01054
G1 X127.847 Y122.934 E0.01129
G1 X128.191 Y122.997 E0.01098
G1 X128.524 Y123.101 E0.01094
G1 X128.842 Y123.244 E0.01094
G1 X129.130 Y123.418 E0.01054
G1 X129.414 Y123.639 E0.01129
G1 X129.662 Y123.887 E0.01098
G1 X129.877 Y124.161 E0.01094
G1 X130.058 Y124.460 E0.01094
G1 X130.201 Y124.778 E0.01094
G1 X130.304 Y125.111 E0.01094
G1 X130.367 Y125.454 E0.01094
G1 X130.388 Y125.802 E0.01094
G1 X130.367 Y126.150 E0.01094
G1 X130.304 Y126.493 E0.01094
G1 X130.201 Y126.826 E0.01094
G1 X130.063 Y127.133 E0.01054
G1 X129.878 Y127.442 E0.01129
G1 X129.662 Y127.717 E0.01098
G1 X129.415 Y127.964 E0.01094
G1 X129.141 Y128.179 E0.01094
G1 X128.853 Y128.353 E0.01054
G1 X128.526 Y128.502 E0.01129
G1 X128.191 Y128.606 E0.01098
G1 X127.848 Y128.669 E0.01094
G1 X127.500 Y128.690 E0.01094
G1 X127.152 Y128.669 E0.01094
G1 X126.809 Y128.606 E0.01094
G1 X126.476 Y128.503 E0.01094
G1 X126.158 Y128.359 E0.01094
G1 X125.859 Y128.179 E0.01094
G1 X125.585 Y127.964 E0.01094
G1 X125.338 Y127.717 E0.01094
G1 X125.123 Y127.443 E0.01094
G1 X124.943 Y127.144 E0.01094
G1 X124.799 Y126.826 E0.01094
G1 X124.696 Y126.493 E0.01094
G1 X124.633 Y126.150 E0.01094
G1 X124.612 Y125.802 E0.01094
G1 X124.633 Y125.454 E0.01094
G1 X124.696 Y125.111 E0.01094
G1 X124.799 Y124.778 E0.01094
G1 X124.943 Y124.460 E0.01094
G1 X125.116 Y124.172 E0.01054
G1 X125.337 Y123.888 E0.01129
G1 X125.585 Y123.640 E0.01098
G1 X125.812 Y123.462 E0.00905
G1 X126.045 Y123.759 F9000.000
;TYPE:External perimeter
G1 F1200.000
G1 X126.333 Y123.579 E0.01066
G1 X126.610 Y123.454 E0.00951
G1 X126.899 Y123.364 E0.00951
G1 X127.197 Y123.310 E0.00951
G1 X127.488 Y123.292 E0.00913
G1 X127.802 Y123.310 E0.00986
G1 X128.101 Y123.364 E0.00952
G1 X128.390 Y123.454 E0.00951
G1 X128.667 Y123.579 E0.00951
G1 X128.916 Y123.730 E0.00913
G1 X129.164 Y123.922 E0.00986
G1 X129.379 Y124.137 E0.00952
G1 X129.566 Y124.376 E0.00951
G1 X129.723 Y124.635 E0.00951
G1 X129.847 Y124.912 E0.00951
G1 X129.938 Y125.201 E0.00951
G1 X129.992 Y125.499 E0.00951
G1 X130.011 Y125.802 E0.00951
G1 X129.992 Y126.104 E0.00951
G1 X129.938 Y126.403 E0.00951
G1 X129.847 Y126.692 E0.00951
G1 X129.728 Y126.958 E0.00913
G1 X129.566 Y127.228 E0.00986
G1 X129.379 Y127.467 E0.00952
G1 X129.165 Y127.681 E0.00951
G1 X128.926 Y127.868 E0.00951
G1 X128.677 Y128.019 E0.00913
G1 X128.391 Y128.149 E0.00986
G1 X128.101 Y128.239 E0.00952
G1 X127.803 Y128.294 E0.00951
G1 X127.500 Y128.312 E0.00951
G1 X127.197 Y128.294 E0.00951
G1 X126.899 Y128.239 E0.00951
G1 X126.610 Y128.149 E0.00951
G1 X126.333 Y128.025 E0.00951
G1 X126.074 Y127.868 E0.00951
G1 X125.835 Y127.681 E0.00951
G1 X125.621 Y127.467 E0.00951
G1 X125.434 Y127.228 E0.00951
G1 X125.277 Y126.969 E0.00951
G1 X125.153 Y126.692 E0.00951
G1 X125.062 Y126.403 E0.00951
G1 X125.008 Y126.104 E0.00951
G1 X124.989 Y125.802 E0.00951
G1 X125.008 Y125.499 E0.00951
G1 X125.062 Y125.201 E0.00951
G1 X125.153 Y124.912 E0.00951
G1 X125.277 Y124.635 E0.00951
G1 X125.428 Y124.386 E0.00913
G1 X125.620 Y124.137 E0.00986
G1 X125.835 Y123.923 E0.00952
G1 X125.997 Y123.796 E0.00646
G1 X126.014 Y123.420 F9000.000
G1 E-3.50000 F3600.000
;WIPE_START
G1 F7200.000
G1 X126.333 Y123.579 E-0.18991
G1 X126.610 Y123.454 E-0.14401
G1 X126.899 Y123.364 E-0.14400
G1 X127.197 Y123.310 E-0.14400
G1 X127.488 Y123.292 E-0.13837
G1 X127.802 Y123.310 E-0.14937
G1 X128.101 Y123.364 E-0.14425
G1 X128.390 Y123.454 E-0.14400
G1 X128.667 Y123.579 E-0.14401
G1 X128.816 Y123.669 E-0.08308
;WIPE_END
G1 E-0.07500 F3600.000
G1 X123.529 Y121.170 F9000.000
G1 E5.00000 F2400.000
;TYPE:Perimeter
G1 F1200.000
G1 X124.635 Y120.445 E0.04147
G1 X124.822 Y120.227 E0.00900
G1 X124.932 Y119.942 E0.00957
G1 X124.939 Y119.638 E0.00954
G1 X124.913 Y119.559 E0.00262
G1 X125.053 Y119.747 E0.00734
G1 X125.328 Y119.931 E0.01039
G1 X125.716 Y119.994 E0.01231
G1 X126.462 Y119.830 E0.02396
G1 X126.799 Y119.779 E0.01068
G1 X127.030 Y119.707 E0.00758
G1 X127.295 Y119.510 E0.01035
G1 X127.491 Y119.153 E0.01275
G1 X127.499 Y119.056 E0.00306
G1 X127.621 Y119.412 E0.01180
G1 X127.967 Y119.719 E0.01452
G1 X129.262 Y119.988 E0.04147
G1 X129.548 Y119.967 E0.00900
G1 X129.827 Y119.842 E0.00957
G1 X130.048 Y119.633 E0.00954
G1 X130.086 Y119.558 E0.00262
G1 X130.051 Y119.790 E0.00734
G1 X130.116 Y120.115 E0.01039
G1 X130.345 Y120.434 E0.01231
G1 X130.989 Y120.845 E0.02396
G1 X131.264 Y121.047 E0.01068
G1 X131.478 Y121.160 E0.00758
G1 X131.804 Y121.208 E0.01035
G1 X132.195 Y121.094 E0.01275
G1 X132.269 Y121.031 E0.00306
G1 X132.104 Y121.369 E0.01180
G1 X132.132 Y121.831 E0.01452
G1 X132.857 Y122.937 E0.04147
G1 X133.075 Y123.124 E0.00900
G1 X133.360 Y123.234 E0.00958
G1 X133.664 Y123.241 E0.00954
G1 X133.743 Y123.215 E0.00262
G1 X133.555 Y123.355 E0.00734
G1 X133.371 Y123.630 E0.01039
G1 X133.308 Y124.018 E0.01232
G1 X133.472 Y124.764 E0.02396
G1 X133.523 Y125.101 E0.01068
G1 X133.595 Y125.332 E0.00758
G1 X133.792 Y125.597 E0.01035
G1 X134.149 Y125.793 E0.01275
G1 X134.246 Y125.800 E0.00306
G1 X133.890 Y125.923 E0.01180
G1 X133.583 Y126.269 E0.01452
G1 X133.313 Y127.564 E0.04146
G1 X133.335 Y127.850 E0.00900
G1 X133.459 Y128.129 E0.00958
G1 X133.669 Y128.350 E0.00954
G1 X133.744 Y128.388 E0.00262
G1 X133.512 Y128.353 E0.00734
G1 X133.187 Y128.418 E0.01039
G1 X132.868 Y128.647 E0.01231
G1 X132.457 Y129.291 E0.02396
G1 X132.254 Y129.565 E0.01068
G1 X132.142 Y129.780 E0.00758
G1 X132.094 Y130.106 E0.01035
G1 X132.208 Y130.497 E0.01275
G1 X132.271 Y130.571 E0.00306
G1 X131.933 Y130.406 E0.01180
G1 X131.471 Y130.434 E0.01452
G1 X130.365 Y131.159 E0.04147
G1 X130.178 Y131.376 E0.00900
G1 X130.068 Y131.661 E0.00957
G1 X130.061 Y131.966 E0.00954
G1 X130.087 Y132.045 E0.00262
G1 X129.947 Y131.857 E0.00734
G1 X129.672 Y131.673 E0.01039
G1 X129.284 Y131.609 E0.01231
G1 X128.538 Y131.774 E0.02396
G1 X128.201 Y131.825 E0.01068
G1 X127.970 Y131.897 E0.00758
G1 X127.705 Y132.094 E0.01035
G1 X127.509 Y132.450 E0.01275
G1 X127.501 Y132.548 E0.00306
G1 X127.379 Y132.192 E0.01180
G1 X127.033 Y131.885 E0.01452
G1 X125.738 Y131.615 E0.04147
G1 X125.452 Y131.637 E0.00900
G1 X125.173 Y131.761 E0.00957
G1 X124.952 Y131.971 E0.00954
G1 X124.914 Y132.045 E0.00262
G1 X124.949 Y131.814 E0.00734
G1 X124.884 Y131.489 E0.01039
G1 X124.655 Y131.170 E0.01232
G1 X124.011 Y130.759 E0.02396
G1 X123.736 Y130.556 E0.01068
G1 X123.522 Y130.444 E0.00758
G1 X123.196 Y130.396 E0.01035
G1 X122.805 Y130.510 E0.01275
G1 X122.731 Y130.573 E0.00306
G1 X122.896 Y130.235 E0.01180
G1 X122.868 Y129.773 E0.01452
G1 X122.143 Y128.666 E0.04147
G1 X121.925 Y128.480 E0.00900
G1 X121.640 Y128.370 E0.00957
G1 X121.336 Y128.363 E0.00954
G1 X121.257 Y128.388 E0.00261
G1 X121.445 Y128.249 E0.00734
G1 X121.629 Y127.973 E0.01039
G1 X121.692 Y127.586 E0.01231
G1 X121.528 Y126.839 E0.02396
G1 X121.477 Y126.503 E0.01068
G1 X121.405 Y126.272 E0.00758
G1 X121.208 Y126.007 E0.01035
G1 X120.851 Y125.811 E0.01275
G1 X120.754 Y125.803 E0.00306
G1 X121.110 Y125.681 E0.01180
G1 X121.417 Y125.334 E0.01452
G1 X121.687 Y124.040 E0.04147
G1 X121.665 Y123.753 E0.00900
G1 X121.541 Y123.474 E0.00957
G1 X121.331 Y123.254 E0.00954
G1 X121.256 Y123.216 E0.00262
G1 X121.488 Y123.250 E0.00734
G1 X121.813 Y123.186 E0.01039
G1 X122.132 Y122.957 E0.01232
G1 X122.543 Y122.312 E0.02396
G1 X122.746 Y122.038 E0.01068
G1 X122.858 Y121.824 E0.00758
G1 X122.906 Y121.498 E0.01035
G1 X122.792 Y121.107 E0.01275
G1 X122.729 Y121.033 E0.00306
G1 X123.067 Y121.198 E0.01180
G1 X123.469 Y121.174 E0.01264
G1 E-3.50000 F3600.000
;WIPE_START
G1 F7200.000
G1 X124.635 Y120.445 E-0.65309
G1 X124.822 Y120.227 E-0.13632
G1 X124.932 Y119.942 E-0.14505
G1 X124.939 Y119.638 E-0.14450
G1 X124.913 Y119.559 E-0.03966
G1 X125.053 Y119.747 E-0.11122
G1 X125.328 Y119.931 E-0.15745
G1 X125.407 Y119.944 E-0.03771
;WIPE_END
G1 E-0.07500 F3600.000
G1 X127.502 Y118.767 F9000.000
G1 E5.00000 F2400.000
G1 F1200.000
G1 X127.434 Y118.072 E0.02190
G1 X127.501 Y117.727 E0.01101
G1 X127.566 Y118.073 E0.01104
G1 X127.507 Y118.707 E0.01997
G1 E-3.50000 F3600.000
;WIPE_START
G1 F7200.000
G1 X127.434 Y118.072 E-0.30384
G1 X127.501 Y117.727 E-0.16686
G1 X127.566 Y118.073 E-0.16726
G1 X127.507 Y118.707 E-0.30249
;WIPE_END
G1 E-0.55955 F3600.000
G1 X124.809 Y119.302 F9000.000
G1 E5.00000 F2400.000
G1 F1200.000
G1 X124.481 Y118.685 E0.02190
G1 X124.414 Y118.348 E0.01078
G1 X124.603 Y118.636 E0.01081
G1 X124.792 Y119.244 E0.01996
G1 E-3.50000 F3600.000
;WIPE_START
G1 F7200.000
G1 X124.481 Y118.685 E-0.30384
G1 X124.414 Y118.348 E-0.16329
G1 X124.603 Y118.636 E-0.16372
G1 X124.792 Y119.244 E-0.30246
;WIPE_END
G1 E-0.56670 F3600.000
G1 X122.527 Y120.826 F9000.000
G1 E5.00000 F2400.000
G1 F1200.000
G1 X121.988 Y120.382 E0.02190
G1 X121.791 Y120.091 E0.01101
G1 X122.081 Y120.290 E0.01104
G1 X122.488 Y120.780 E0.01997
G1 E-3.50000 F3600.000
;WIPE_START
G1 F7200.000
G1 X121.988 Y120.382 E-0.30384
G1 X121.791 Y120.091 E-0.16686
G1 X122.081 Y120.290 E-0.16727
G1 X122.488 Y120.780 E-0.30248
;WIPE_END
G1 E-0.55955 F3600.000
G1 X121.001 Y123.108 F9000.000
G1 E5.00000 F2400.000
G1 F1200.000
G1 X120.333 Y122.904 E0.02190
G1 X120.047 Y122.713 E0.01078
G1 X120.385 Y122.784 E0.01081
G1 X120.948 Y123.080 E0.01997
G1 E-3.50000 F3600.000
;WIPE_START
G1 F7200.000
G1 X120.333 Y122.904 E-0.30384
G1 X120.047 Y122.713 E-0.16331
G1 X120.385 Y122.784 E-0.16373
G1 X120.948 Y123.080 E-0.30247
;WIPE_END
G1 E-0.56666 F3600.000
G1 X120.465 Y125.800 F9000.000
G1 E5.00000 F2400.000
G1 F1200.000
G1 X119.770 Y125.867 E0.02190
G1 X119.425 Y125.800 E0.01101
G1 X119.771 Y125.736 E0.01104
G1 X120.405 Y125.795 E0.01996
G1 E-3.50000 F3600.000
;WIPE_START
G1 F7200.000
G1 X119.770 Y125.867 E-0.30380
G1 X119.425 Y125.800 E-0.16685
G1 X119.771 Y125.736 E-0.16727
G1 X120.405 Y125.795 E-0.30243
;WIPE_END
G1 E-0.55965 F3600.000
G1 X121.000 Y128.492 F9000.000
G1 E5.00000 F2400.000
G1 F1200.000
G1 X120.383 Y128.821 E0.02190
G1 X120.046 Y128.888 E0.01078
G1 X120.334 Y128.699 E0.01081
G1 X120.943 Y128.510 E0.01997
G1 E-3.50000 F3600.000
;WIPE_START
G1 F7200.000
G1 X120.383 Y128.821 E-0.30382
G1 X120.046 Y128.888 E-0.16331
G1 X120.334 Y128.699 E-0.16371
G1 X120.943 Y128.510 E-0.30247
;WIPE_END
G1 E-0.56670 F3600.000
G1 X122.524 Y130.775 F9000.000
G1 E5.00000 F2400.000
G1 F1200.000
G1 X122.080 Y131.314 E0.02190
G1 X121.789 Y131.511 E0.01101
G1 X121.989 Y131.221 E0.01104
G1 X122.478 Y130.813 E0.01997
G1 E-3.50000 F3600.000
;WIPE_START
G1 F7200.000
G1 X122.080 Y131.314 E-0.30388
G1 X121.789 Y131.511 E-0.16685
G1 X121.989 Y131.221 E-0.16728
G1 X122.478 Y130.813 E-0.30250
;WIPE_END
G1 E-0.55949 F3600.000
G1 X124.806 Y132.301 F9000.000
G1 E5.00000 F2400.000
G1 F1200.000
G1 X124.602 Y132.969 E0.02190
G1 X124.412 Y133.255 E0.01078
G1 X124.482 Y132.917 E0.01081
G1 X124.778 Y132.354 E0.01997
G1 E-3.50000 F3600.000
;WIPE_START
G1 F7200.000
G1 X124.602 Y132.969 E-0.30382
G1 X124.412 Y133.255 E-0.16330
G1 X124.482 Y132.917 E-0.16370
G1 X124.778 Y132.354 E-0.30248
;WIPE_END
G1 E-0.56670 F3600.000
G1 X127.498 Y132.837 F9000.000
G1 E5.00000 F2400.000
G1 F1200.000
G1 X127.566 Y133.532 E0.02190
G1 X127.499 Y133.877 E0.01101
G1 X127.434 Y133.531 E0.01104
G1 X127.493 Y132.897 E0.01996
G1 E-3.50000 F3600.000
;WIPE_START
G1 F7200.000
G1 X127.566 Y133.532 E-0.30381
G1 X127.499 Y133.877 E-0.16685
G1 X127.434 Y133.531 E-0.16728
G1 X127.493 Y132.897 E-0.30243
;WIPE_END
G1 E-0.55964 F3600.000
G1 X130.191 Y132.302 F9000.000
G1 E5.00000 F2400.000
G1 F1200.000
G1 X130.519 Y132.919 E0.02190
G1 X130.586 Y133.256 E0.01078
G1 X130.397 Y132.967 E0.01081
G1 X130.208 Y132.359 E0.01997
G1 E-3.50000 F3600.000
;WIPE_START
G1 F7200.000
G1 X130.519 Y132.919 E-0.30387
G1 X130.586 Y133.256 E-0.16330
G1 X130.397 Y132.967 E-0.16372
G1 X130.208 Y132.359 E-0.30250
;WIPE_END
G1 E-0.56662 F3600.000
G1 X132.473 Y130.778 F9000.000
G1 E5.00000 F2400.000
G1 F1200.000
G1 X133.012 Y131.222 E0.02190
G1 X133.209 Y131.513 E0.01101
G1 X132.919 Y131.313 E0.01104
G1 X132.512 Y130.824 E0.01996
G1 E-3.50000 F3600.000
;WIPE_START
G1 F7200.000
G1 X133.012 Y131.222 E-0.30383
G1 X133.209 Y131.513 E-0.16685
G1 X132.919 Y131.313 E-0.16728
G1 X132.512 Y130.824 E-0.30245
;WIPE_END
G1 E-0.55959 F3600.000
G1 X133.999 Y128.496 F9000.000
G1 E5.00000 F2400.000
G1 F1200.000
G1 X134.667 Y128.700 E0.02190
G1 X134.953 Y128.890 E0.01078
G1 X134.615 Y128.820 E0.01081
G1 X134.052 Y128.524 E0.01997
G1 E-3.50000 F3600.000
;WIPE_START
G1 F7200.000
G1 X134.667 Y128.700 E-0.30383
G1 X134.953 Y128.890 E-0.16330
G1 X134.615 Y128.820 E-0.16372
G1 X134.052 Y128.524 E-0.30246
;WIPE_END
G1 E-0.56668 F3600.000
G1 X134.535 Y125.804 F9000.000
G1 E5.00000 F2400.000
G1 F1200.000
G1 X135.230 Y125.736 E0.02190
G1 X135.575 Y125.803 E0.01101
G1 X135.229 Y125.867 E0.01104
G1 X134.595 Y125.809 E0.01997
G1 E-3.50000 F3600.000
;WIPE_START
G1 F7200.000
G1 X135.230 Y125.736 E-0.30384
G1 X135.575 Y125.803 E-0.16686
G1 X135.229 Y125.867 E-0.16727
G1 X134.595 Y125.809 E-0.30248
;WIPE_END
G1 E-0.55955 F3600.000
G1 X134.000 Y123.111 F9000.000
G1 E5.00000 F2400.000
G1 F1200.000
G1 X134.617 Y122.783 E0.02190
G1 X134.954 Y122.716 E0.01078
G1 X134.666 Y122.905 E0.01081
G1 X134.057 Y123.094 E0.01996
G1 E-3.50000 F3600.000
;WIPE_START
G1 F7200.000
