; generated by PrusaSlicer 2.3.0 on 2022-12-29 at 16:07:56 UTC

; 

; external perimeters extrusion width = 0.45mm
; perimeters extrusion width = 0.45mm
; infill extrusion width = 0.45mm
; solid infill extrusion width = 0.45mm
; top infill extrusion width = 0.40mm
; first layer extrusion width = 0.42mm

M201 X500 Y500 Z100 E5000 ; sets maximum accelerations, mm/sec^2
M203 X500 Y500 Z10 E60 ; sets maximum feedrates, mm/sec
M204 P500 R1000 T500 ; sets acceleration (P, T) and retract acceleration (R), mm/sec^2
M205 X8.00 Y8.00 Z0.40 E5.00 ; sets the jerk limits, mm/sec
M205 S0 T0 ; sets the minimum extruding and travel feed rate, mm/sec
M107
;TYPE:Custom
G90 ; use absolute coordinates
M83 ; extruder relative mode
M104 S210 ; set extruder temp
M140 S60 ; set bed temp
M190 S60 ; wait for bed temp
M109 S210 ; wait for extruder temp
G28 ; home all
G1 Z2 F240
G1 X2 Y10 F3000
G1 Z0.28 F240
G92 E0
G1 Y190 E15 F1500 ; intro line
G1 X2.3 F5000
G92 E0
G1 Y10 E15 F1200 ; intro line
G92 E0
G21 ; set units to millimeters
G90 ; use absolute coordinates
M83 ; use relative distances for extrusion
; Filament gcode
;LAYER_CHANGE
;Z:0.2
;HEIGHT:0.2
;BEFORE_LAYER_CHANGE
G92 E0
;0.2


G1 E-5.00000 F3600.000
G1 Z0.200 F9000.000
;AFTER_LAYER_CHANGE
;0.2
G1 X95.935 Y101.895
G1 E5.00000 F2400.000
;TYPE:Skirt
;WIDTH:0.42
G1 F1200.000
G1 X96.864 Y101.637 E0.03024
G1 X108.305 Y101.632 E0.35873
G1 X143.723 Y104.625 E1.11447
G1 X144.334 Y104.765 E0.01965
G1 X144.890 Y105.063 E0.01977
G1 X145.294 Y105.432 E0.01716
G1 X145.603 Y105.883 E0.01716
G1 X145.801 Y106.394 E0.01716
G1 X145.876 Y106.936 E0.01716
G1 X145.877 Y127.041 E0.63037
G1 X145.754 Y127.747 E0.02249
G1 X145.428 Y128.382 E0.02237
G1 X145.050 Y128.793 E0.01752
G1 X144.590 Y129.104 E0.01740
G1 X144.071 Y129.299 E0.01740
G1 X143.516 Y129.368 E0.01752
G1 X87.477 Y129.368 E1.75707
G1 X86.690 Y129.226 E0.02508
G1 X85.992 Y128.828 E0.02520
G1 X85.384 Y128.074 E0.03036
G1 X85.128 Y127.144 E0.03024
G1 X85.123 Y118.261 E0.27855
G1 X85.256 Y117.506 E0.02402
G1 X85.518 Y116.979 E0.01846
G1 X95.184 Y102.501 E0.54583
G1 X95.888 Y101.932 E0.02836
G1 E-3.50000 F3600.000
;WIPE_START
G1 F7200.000
G1 X96.864 Y101.637 E-0.48445
G1 X98.844 Y101.636 E-0.94055
;WIPE_END
G1 E-0.07500 F3600.000
G1 X110.793 Y108.882 F9000.000
G1 E5.00000 F2400.000
;TYPE:External perimeter
G1 F1200.000
G1 X110.946 Y108.648 E0.00877
G1 X111.107 Y108.487 E0.00717
G1 X111.294 Y108.356 E0.00717
G1 X111.502 Y108.259 E0.00717
G1 X111.722 Y108.200 E0.00717
G1 X111.933 Y108.181 E0.00663
G1 X112.176 Y108.200 E0.00765
G1 X112.398 Y108.259 E0.00721
G1 X112.606 Y108.356 E0.00717
G1 X112.793 Y108.487 E0.00717
G1 X112.954 Y108.648 E0.00717
G1 X113.086 Y108.836 E0.00717
G1 X113.182 Y109.043 E0.00717
G1 X113.241 Y109.263 E0.00717
G1 X113.261 Y109.491 E0.00717
G1 X113.241 Y109.719 E0.00717
G1 X113.182 Y109.940 E0.00717
G1 X113.086 Y110.147 E0.00717
G1 X112.954 Y110.334 E0.00717
G1 X112.793 Y110.496 E0.00717
G1 X112.606 Y110.627 E0.00717
G1 X112.398 Y110.723 E0.00717
G1 X112.178 Y110.782 E0.00717
G1 X111.950 Y110.802 E0.00717
G1 X111.722 Y110.782 E0.00717
G1 X111.502 Y110.723 E0.00717
G1 X111.294 Y110.627 E0.00717
G1 X111.107 Y110.496 E0.00717
G1 X110.946 Y110.334 E0.00717
G1 X110.814 Y110.147 E0.00717
G1 X110.718 Y109.940 E0.00717
G1 X110.659 Y109.719 E0.00717
G1 X110.639 Y109.491 E0.00717
G1 X110.659 Y109.263 E0.00717
G1 X110.718 Y109.043 E0.00717
G1 X110.767 Y108.937 E0.00367
G1 X110.647 Y108.644 F9000.000
G1 E-3.50000 F3600.000
;WIPE_START
G1 F7200.000
G1 X110.946 Y108.648 E-0.16105
G1 X111.107 Y108.487 E-0.10857
G1 X111.294 Y108.356 E-0.10856
G1 X111.502 Y108.259 E-0.10856
G1 X111.722 Y108.200 E-0.10856
G1 X111.933 Y108.181 E-0.10051
G1 X112.176 Y108.200 E-0.11586
G1 X112.398 Y108.259 E-0.10921
G1 X112.606 Y108.356 E-0.10857
G1 X112.793 Y108.487 E-0.10856
G1 X112.954 Y108.648 E-0.10857
G1 X113.086 Y108.836 E-0.10856
G1 X113.148 Y108.969 E-0.06985
;WIPE_END
G1 E-0.07500 F3600.000
G1 X98.414 Y110.696 F9000.000
G1 E5.00000 F2400.000
;TYPE:Perimeter
G1 F1200.000
G1 X102.789 Y110.696 E0.13715
G1 X102.789 Y104.696 E0.18813
G1 X103.494 Y104.696 E0.02213
G1 X103.494 Y110.696 E0.18813
G1 X107.869 Y110.696 E0.13717
G1 X107.853 Y107.635 E0.09597
G1 X109.590 Y107.678 E0.05447
G1 X142.813 Y107.678 E1.04168
G1 X142.813 Y114.538 E0.21509
G1 X142.624 Y114.201 E0.01211
G1 X142.418 Y113.927 E0.01076
G1 X142.179 Y113.681 E0.01076
G1 X141.911 Y113.465 E0.01076
G1 X141.619 Y113.285 E0.01077
G1 X141.307 Y113.141 E0.01076
G1 X140.980 Y113.037 E0.01076
G1 X140.641 Y112.974 E0.01082
G1 X140.284 Y112.954 E0.01122
G1 X139.957 Y112.974 E0.01025
G1 X139.620 Y113.037 E0.01076
G1 X139.293 Y113.141 E0.01076
G1 X138.981 Y113.285 E0.01076
G1 X138.689 Y113.465 E0.01076
G1 X138.421 Y113.681 E0.01076
G1 X138.183 Y113.927 E0.01076
G1 X137.976 Y114.201 E0.01077
G1 X137.804 Y114.498 E0.01076
G1 X137.670 Y114.814 E0.01076
G1 X137.576 Y115.145 E0.01076
G1 X137.524 Y115.484 E0.01076
G1 X137.513 Y115.827 E0.01076
G1 X137.539 Y116.104 E0.00872
G1 X134.813 Y116.104 E0.08546
G1 X134.813 Y118.104 E0.06271
G1 X134.087 Y118.104 E0.02276
G1 X134.087 Y116.104 E0.06271
G1 X132.637 Y116.104 E0.04546
G1 X132.637 Y111.104 E0.15677
G1 X132.434 Y111.104 E0.00636
G1 X132.528 Y111.079 E0.00304
G1 X132.795 Y110.954 E0.00924
G1 X133.036 Y110.786 E0.00923
G1 X133.244 Y110.577 E0.00924
G1 X133.413 Y110.336 E0.00924
G1 X133.538 Y110.069 E0.00923
G1 X133.614 Y109.785 E0.00923
G1 X133.640 Y109.487 E0.00936
G1 X133.609 Y109.179 E0.00972
G1 X133.538 Y108.913 E0.00862
G1 X133.413 Y108.646 E0.00923
G1 X133.244 Y108.405 E0.00924
G1 X133.036 Y108.197 E0.00924
G1 X132.795 Y108.028 E0.00923
G1 X132.528 Y107.903 E0.00924
G1 X132.240 Y107.826 E0.00936
G1 X131.931 Y107.803 E0.00972
G1 X131.657 Y107.827 E0.00863
G1 X131.372 Y107.903 E0.00923
G1 X131.105 Y108.028 E0.00923
G1 X130.864 Y108.197 E0.00923
G1 X130.656 Y108.405 E0.00924
G1 X130.487 Y108.646 E0.00924
G1 X130.362 Y108.913 E0.00923
G1 X130.286 Y109.198 E0.00924
G1 X130.260 Y109.491 E0.00923
G1 X130.286 Y109.785 E0.00923
G1 X130.362 Y110.069 E0.00924
G1 X130.487 Y110.336 E0.00923
G1 X130.656 Y110.577 E0.00924
G1 X130.864 Y110.786 E0.00924
G1 X131.105 Y110.954 E0.00923
G1 X131.372 Y111.079 E0.00923
G1 X131.466 Y111.104 E0.00304
G1 X124.566 Y111.104 E0.21634
G1 X124.566 Y108.304 E0.08779
G1 X119.334 Y108.304 E0.16405
G1 X119.334 Y111.104 E0.08779
G1 X112.434 Y111.104 E0.21634
G1 X112.528 Y111.079 E0.00304
G1 X112.795 Y110.954 E0.00924
G1 X113.036 Y110.786 E0.00923
G1 X113.244 Y110.577 E0.00924
G1 X113.413 Y110.336 E0.00924
G1 X113.538 Y110.069 E0.00923
G1 X113.614 Y109.785 E0.00923
G1 X113.640 Y109.491 E0.00924
G1 X113.614 Y109.198 E0.00924
G1 X113.538 Y108.913 E0.00923
G1 X113.413 Y108.646 E0.00923
G1 X113.244 Y108.405 E0.00924
G1 X113.036 Y108.197 E0.00924
G1 X112.795 Y108.028 E0.00923
G1 X112.528 Y107.903 E0.00924
G1 X112.240 Y107.826 E0.00936
G1 X111.931 Y107.803 E0.00972
G1 X111.657 Y107.827 E0.00863
G1 X111.372 Y107.903 E0.00923
G1 X111.105 Y108.028 E0.00923
G1 X110.864 Y108.197 E0.00923
G1 X110.656 Y108.405 E0.00924
G1 X110.487 Y108.646 E0.00923
G1 X110.362 Y108.913 E0.00923
G1 X110.286 Y109.198 E0.00924
G1 X110.260 Y109.491 E0.00923
G1 X110.286 Y109.785 E0.00923
G1 X110.362 Y110.069 E0.00924
G1 X110.487 Y110.336 E0.00923
G1 X110.656 Y110.577 E0.00924
G1 X110.864 Y110.786 E0.00924
G1 X111.105 Y110.954 E0.00923
G1 X111.372 Y111.079 E0.00923
G1 X111.466 Y111.104 E0.00304
G1 X111.263 Y111.104 E0.00636
G1 X111.263 Y116.104 E0.15677
G1 X109.813 Y116.104 E0.04546
G1 X109.813 Y118.104 E0.06271
G1 X109.087 Y118.104 E0.02276
G1 X109.087 Y116.104 E0.06271
G1 X106.361 Y116.104 E0.08546
G1 X106.387 Y115.827 E0.00872
G1 X106.377 Y115.484 E0.01076
G1 X106.324 Y115.145 E0.01076
G1 X106.230 Y114.814 E0.01076
G1 X106.095 Y114.497 E0.01082
G1 X105.914 Y114.188 E0.01122
G1 X105.718 Y113.927 E0.01025
G1 X105.479 Y113.681 E0.01076
G1 X105.211 Y113.465 E0.01076
G1 X104.919 Y113.285 E0.01076
G1 X104.607 Y113.141 E0.01076
G1 X104.280 Y113.037 E0.01076
G1 X103.941 Y112.974 E0.01082
G1 X103.584 Y112.954 E0.01122
G1 X103.257 Y112.974 E0.01025
G1 X102.920 Y113.037 E0.01076
G1 X102.593 Y113.141 E0.01076
G1 X102.281 Y113.285 E0.01076
G1 X101.989 Y113.465 E0.01076
G1 X101.721 Y113.681 E0.01076
G1 X101.482 Y113.927 E0.01076
G1 X101.276 Y114.201 E0.01077
G1 X101.087 Y114.538 E0.01211
G1 X101.087 Y111.322 E0.10085
G1 X95.637 Y111.322 E0.17088
G1 X95.637 Y110.696 E0.01962
G1 X97.709 Y110.696 E0.06495
G1 X97.709 Y104.696 E0.18813
G1 X98.414 Y104.696 E0.02213
G1 X98.414 Y110.636 E0.18624
G1 E-3.50000 F3600.000
;WIPE_START
G1 F7200.000
G1 X101.414 Y110.677 E-1.42500
;WIPE_END
G1 E-0.07500 F3600.000
G1 X101.911 Y114.027 F9000.000
G1 E5.00000 F2400.000
;TYPE:External perimeter
G1 F1200.000
G1 X102.207 Y113.774 E0.01221
G1 X102.460 Y113.617 E0.00931
G1 X102.729 Y113.493 E0.00931
G1 X103.012 Y113.403 E0.00931
G1 X103.304 Y113.349 E0.00931
G1 X103.585 Y113.332 E0.00883
G1 X103.896 Y113.349 E0.00976
G1 X104.188 Y113.403 E0.00933
G1 X104.471 Y113.493 E0.00931
G1 X104.740 Y113.617 E0.00931
G1 X104.993 Y113.774 E0.00931
G1 X105.224 Y113.960 E0.00931
G1 X105.431 Y114.173 E0.00931
G1 X105.600 Y114.397 E0.00883
G1 X105.758 Y114.666 E0.00976
G1 X105.874 Y114.940 E0.00933
G1 X105.955 Y115.225 E0.00931
G1 X106.000 Y115.519 E0.00931
G1 X106.009 Y115.815 E0.00931
G1 X105.982 Y116.111 E0.00931
G1 X105.919 Y116.401 E0.00931
G1 X105.820 Y116.681 E0.00931
G1 X105.688 Y116.946 E0.00931
G1 X105.524 Y117.194 E0.00931
G1 X105.331 Y117.419 E0.00931
G1 X105.123 Y117.609 E0.00883
G1 X104.870 Y117.790 E0.00976
G1 X104.608 Y117.931 E0.00933
G1 X104.331 Y118.038 E0.00931
G1 X104.043 Y118.111 E0.00931
G1 X103.748 Y118.147 E0.00931
G1 X103.452 Y118.147 E0.00931
G1 X103.157 Y118.111 E0.00931
G1 X102.869 Y118.038 E0.00931
G1 X102.592 Y117.931 E0.00931
G1 X102.331 Y117.791 E0.00931
G1 X102.089 Y117.619 E0.00931
G1 X101.869 Y117.419 E0.00931
G1 X101.676 Y117.194 E0.00931
G1 X101.512 Y116.946 E0.00931
G1 X101.380 Y116.681 E0.00931
G1 X101.281 Y116.401 E0.00931
G1 X101.218 Y116.111 E0.00931
G1 X101.191 Y115.815 E0.00931
G1 X101.200 Y115.519 E0.00931
G1 X101.245 Y115.225 E0.00931
G1 X101.326 Y114.940 E0.00931
G1 X101.442 Y114.667 E0.00931
G1 X101.591 Y114.410 E0.00931
G1 X101.869 Y114.070 E0.01378
G1 X101.811 Y113.650 F9000.000
G1 E-3.50000 F3600.000
;WIPE_START
G1 F7200.000
G1 X102.207 Y113.774 E-0.21344
G1 X102.460 Y113.617 E-0.14098
G1 X102.729 Y113.493 E-0.14098
G1 X103.012 Y113.403 E-0.14097
G1 X103.304 Y113.349 E-0.14097
G1 X103.585 Y113.332 E-0.13371
G1 X103.896 Y113.349 E-0.14789
G1 X104.188 Y113.403 E-0.14129
G1 X104.471 Y113.493 E-0.14097
G1 X104.631 Y113.567 E-0.08380
;WIPE_END
G1 E-0.07500 F3600.000
G1 X101.087 Y116.938 F9000.000
G1 E5.00000 F2400.000
;TYPE:Perimeter
G1 F1200.000
G1 X101.185 Y117.135 E0.00690
G1 X101.375 Y117.422 E0.01076
G1 X101.598 Y117.682 E0.01076
G1 X101.852 Y117.914 E0.01076
G1 X102.132 Y118.112 E0.01076
G1 X102.435 Y118.274 E0.01076
G1 X102.755 Y118.398 E0.01076
G1 X103.088 Y118.482 E0.01077
G1 X103.428 Y118.524 E0.01076
G1 X103.772 Y118.524 E0.01076
G1 X104.112 Y118.482 E0.01076
G1 X104.445 Y118.398 E0.01077
G1 X104.765 Y118.274 E0.01076
G1 X105.070 Y118.111 E0.01082
G1 X105.360 Y117.902 E0.01122
G1 X105.602 Y117.682 E0.01025
G1 X105.825 Y117.422 E0.01076
G1 X106.015 Y117.135 E0.01076
G1 X106.113 Y116.938 E0.00690
G1 X106.113 Y122.038 E0.15990
G1 X105.914 Y121.688 E0.01262
G1 X105.718 Y121.427 E0.01025
G1 X105.479 Y121.181 E0.01076
G1 X105.211 Y120.965 E0.01076
G1 X104.919 Y120.785 E0.01076
G1 X104.607 Y120.641 E0.01076
G1 X104.280 Y120.537 E0.01076
G1 X103.941 Y120.474 E0.01082
G1 X103.584 Y120.454 E0.01122
G1 X103.257 Y120.474 E0.01025
G1 X102.920 Y120.537 E0.01076
G1 X102.593 Y120.641 E0.01076
G1 X102.281 Y120.785 E0.01076
G1 X101.989 Y120.965 E0.01076
G1 X101.721 Y121.181 E0.01076
G1 X101.482 Y121.427 E0.01076
G1 X101.276 Y121.701 E0.01077
G1 X101.104 Y121.998 E0.01076
G1 X100.970 Y122.314 E0.01076
G1 X100.876 Y122.645 E0.01076
G1 X100.824 Y122.984 E0.01076
G1 X100.813 Y123.327 E0.01076
G1 X100.845 Y123.669 E0.01076
G1 X100.918 Y124.004 E0.01077
G1 X101.032 Y124.328 E0.01076
G1 X101.185 Y124.635 E0.01076
G1 X101.375 Y124.922 E0.01076
G1 X101.598 Y125.182 E0.01076
G1 X101.852 Y125.414 E0.01076
G1 X102.132 Y125.612 E0.01076
G1 X102.435 Y125.774 E0.01076
G1 X102.756 Y125.899 E0.01082
G1 X103.104 Y125.984 E0.01122
G1 X103.428 Y126.024 E0.01025
G1 X103.772 Y126.024 E0.01076
G1 X104.112 Y125.982 E0.01076
G1 X104.445 Y125.898 E0.01077
G1 X104.765 Y125.774 E0.01076
G1 X105.070 Y125.611 E0.01082
G1 X105.360 Y125.402 E0.01122
G1 X105.602 Y125.182 E0.01025
G1 X105.825 Y124.922 E0.01076
G1 X106.015 Y124.635 E0.01076
G1 X106.168 Y124.328 E0.01076
G1 X106.282 Y124.004 E0.01076
G1 X106.355 Y123.669 E0.01077
G1 X106.387 Y123.327 E0.01076
G1 X106.360 Y122.878 E0.01410
G1 X111.466 Y122.878 E0.16009
G1 X111.372 Y122.903 E0.00304
G1 X111.105 Y123.028 E0.00923
G1 X110.864 Y123.197 E0.00923
G1 X110.656 Y123.405 E0.00924
G1 X110.487 Y123.646 E0.00923
G1 X110.362 Y123.913 E0.00923
G1 X110.286 Y124.198 E0.00924
G1 X110.260 Y124.491 E0.00923
G1 X110.286 Y124.785 E0.00923
G1 X110.362 Y125.069 E0.00924
G1 X110.487 Y125.336 E0.00923
G1 X110.658 Y125.580 E0.00936
G1 X110.880 Y125.797 E0.00972
G1 X111.105 Y125.954 E0.00863
G1 X111.372 Y126.079 E0.00923
G1 X111.657 Y126.155 E0.00923
G1 X111.950 Y126.181 E0.00924
G1 X112.243 Y126.155 E0.00923
G1 X112.528 Y126.079 E0.00923
G1 X112.795 Y125.954 E0.00924
G1 X113.036 Y125.786 E0.00923
G1 X113.244 Y125.577 E0.00924
G1 X113.413 Y125.336 E0.00924
G1 X113.538 Y125.069 E0.00923
G1 X113.614 Y124.785 E0.00923
G1 X113.640 Y124.491 E0.00924
G1 X113.614 Y124.198 E0.00924
G1 X113.538 Y123.913 E0.00923
G1 X113.413 Y123.646 E0.00923
G1 X113.244 Y123.405 E0.00924
G1 X113.036 Y123.197 E0.00924
G1 X112.795 Y123.028 E0.00923
G1 X112.528 Y122.903 E0.00924
G1 X112.434 Y122.878 E0.00304
G1 X119.334 Y122.878 E0.21634
G1 X119.334 Y126.304 E0.10741
G1 X88.187 Y126.304 E0.97659
G1 X88.187 Y118.978 E0.22970
G1 X101.087 Y118.978 E0.40447
G1 X101.087 Y116.998 E0.06208
G1 E-3.50000 F3600.000
;WIPE_START
G1 F7200.000
G1 X101.185 Y117.135 E-0.08005
G1 X101.375 Y117.422 E-0.16308
G1 X101.598 Y117.682 E-0.16308
G1 X101.852 Y117.914 E-0.16307
G1 X102.132 Y118.112 E-0.16308
G1 X102.435 Y118.274 E-0.16306
G1 X102.755 Y118.398 E-0.16307
G1 X103.088 Y118.482 E-0.16308
G1 X103.428 Y118.524 E-0.16307
G1 X103.513 Y118.524 E-0.04035
;WIPE_END
G1 E-0.07500 F3600.000
G1 X102.729 Y120.993 F9000.000
G1 E5.00000 F2400.000
;TYPE:External perimeter
G1 F1200.000
G1 X103.012 Y120.903 E0.00931
G1 X103.304 Y120.849 E0.00931
G1 X103.585 Y120.832 E0.00883
G1 X103.896 Y120.849 E0.00976
G1 X104.188 Y120.903 E0.00933
G1 X104.471 Y120.993 E0.00931
G1 X104.740 Y121.117 E0.00931
G1 X104.993 Y121.274 E0.00931
G1 X105.224 Y121.460 E0.00931
G1 X105.431 Y121.673 E0.00931
G1 X105.600 Y121.897 E0.00883
G1 X105.758 Y122.166 E0.00976
G1 X105.874 Y122.440 E0.00933
G1 X105.955 Y122.725 E0.00931
G1 X106.000 Y123.019 E0.00931
G1 X106.009 Y123.315 E0.00931
G1 X105.982 Y123.611 E0.00931
G1 X105.919 Y123.901 E0.00931
G1 X105.820 Y124.181 E0.00931
G1 X105.688 Y124.446 E0.00931
G1 X105.524 Y124.694 E0.00931
G1 X105.331 Y124.919 E0.00931
G1 X105.123 Y125.109 E0.00883
G1 X104.870 Y125.290 E0.00976
G1 X104.608 Y125.431 E0.00933
G1 X104.331 Y125.538 E0.00931
G1 X104.043 Y125.611 E0.00931
G1 X103.748 Y125.647 E0.00931
G1 X103.452 Y125.647 E0.00931
G1 X103.172 Y125.613 E0.00883
G1 X102.870 Y125.539 E0.00976
G1 X102.592 Y125.431 E0.00933
G1 X102.331 Y125.291 E0.00931
G1 X102.089 Y125.119 E0.00931
G1 X101.869 Y124.919 E0.00931
G1 X101.676 Y124.694 E0.00931
G1 X101.512 Y124.446 E0.00931
G1 X101.380 Y124.181 E0.00931
G1 X101.281 Y123.901 E0.00931
G1 X101.218 Y123.611 E0.00931
G1 X101.191 Y123.315 E0.00931
G1 X101.200 Y123.019 E0.00931
G1 X101.245 Y122.725 E0.00931
G1 X101.326 Y122.440 E0.00931
G1 X101.442 Y122.167 E0.00931
G1 X101.591 Y121.910 E0.00931
G1 X101.769 Y121.673 E0.00931
G1 X101.976 Y121.460 E0.00931
G1 X102.207 Y121.274 E0.00931
G1 X102.460 Y121.117 E0.00931
G1 X102.675 Y121.018 E0.00742
G1 X102.775 Y120.700 F9000.000
