; generated by PrusaSlicer 2.3.0 on 2022-12-29 at 16:08:56 UTC

; 

; external perimeters extrusion width = 0.45mm
; perimeters extrusion width = 0.45mm
; infill extrusion width = 0.45mm
; solid infill extrusion width = 0.45mm
; top infill extrusion width = 0.40mm
; first layer extrusion width = 0.42mm

M201 X500 Y500 Z100 E5000 ; sets maximum accelerations, mm/sec^2
M203 X500 Y500 Z10 E60 ; sets maximum feedrates, mm/sec
M204 P500 R1000 T500 ; sets acceleration (P, T) and retract acceleration (R), mm/sec^2
M205 X8.00 Y8.00 Z0.40 E5.00 ; sets the jerk limits, mm/sec
M205 S0 T0 ; sets the minimum extruding and travel feed rate, mm/sec
M107
;TYPE:Custom
G90 ; use absolute coordinates
M83 ; extruder relative mode
M104 S210 ; set extruder temp
M140 S60 ; set bed temp
M190 S60 ; wait for bed temp
M109 S210 ; wait for extruder temp
G28 ; home all
G1 Z2 F240
G1 X2 Y10 F3000
G1 Z0.28 F240
G92 E0
G1 Y190 E15 F1500 ; intro line
G1 X2.3 F5000
G92 E0
G1 Y10 E15 F1200 ; intro line
G92 E0
G21 ; set units to millimeters
G90 ; use absolute coordinates
M83 ; use relative distances for extrusion
; Filament gcode
;LAYER_CHANGE
;Z:0.2
;HEIGHT:0.2
;BEFORE_LAYER_CHANGE
G92 E0
;0.2


G1 E-5.00000 F3600.000
G1 Z0.200 F9000.000
;AFTER_LAYER_CHANGE
;0.2
G1 X93.281 Y93.097
G1 E5.00000 F2400.000
;TYPE:Skirt
;WIDTH:0.42
G1 F1200.000
G1 X93.715 Y92.381 E0.02626
G1 X94.075 Y92.048 E0.01538
G1 X94.499 Y91.794 E0.01550
G1 X94.966 Y91.634 E0.01550
G1 X95.453 Y91.573 E0.01538
G1 X135.504 Y91.573 E1.25576
G1 X136.392 Y91.747 E0.02837
G1 X137.151 Y92.239 E0.02837
G1 X137.670 Y92.980 E0.02837
G1 X137.875 Y93.861 E0.02837
G1 X137.877 Y137.080 E1.35511
G1 X137.719 Y137.903 E0.02626
G1 X137.285 Y138.619 E0.02626
G1 X136.916 Y138.959 E0.01574
G1 X136.487 Y139.212 E0.01562
G1 X136.011 Y139.371 E0.01574
G1 X135.513 Y139.427 E0.01574
G1 X95.466 Y139.427 E1.25564
G1 X94.647 Y139.269 E0.02614
G1 X93.931 Y138.835 E0.02626
G1 X93.591 Y138.466 E0.01574
G1 X93.338 Y138.037 E0.01562
G1 X93.179 Y137.561 E0.01574
G1 X93.123 Y137.063 E0.01574
G1 X93.123 Y93.920 E1.35272
G1 X93.270 Y93.156 E0.02437
G1 E-3.50000 F3600.000
;WIPE_START
G1 F7200.000
G1 X93.715 Y92.381 E-0.42461
G1 X94.075 Y92.048 E-0.23298
G1 X94.499 Y91.794 E-0.23478
G1 X94.966 Y91.634 E-0.23478
G1 X95.453 Y91.573 E-0.23298
G1 X95.590 Y91.573 E-0.06486
;WIPE_END
G1 E-0.07500 F3600.000
G1 X127.904 Y109.306 F9000.000
G1 E5.00000 F2400.000
;TYPE:Perimeter
G1 F1200.000
G1 X127.987 Y109.128 E0.00614
G1 X128.156 Y108.887 E0.00924
G1 X128.364 Y108.679 E0.00924
G1 X128.605 Y108.510 E0.00923
G1 X128.872 Y108.385 E0.00923
G1 X129.157 Y108.309 E0.00924
G1 X129.428 Y108.285 E0.00855
G1 X129.739 Y108.308 E0.00977
G1 X130.028 Y108.385 E0.00937
G1 X130.295 Y108.510 E0.00924
G1 X130.536 Y108.679 E0.00924
G1 X130.744 Y108.887 E0.00923
G1 X130.913 Y109.128 E0.00924
G1 X131.038 Y109.395 E0.00923
G1 X131.114 Y109.680 E0.00923
G1 X131.140 Y109.973 E0.00924
G1 X131.114 Y110.266 E0.00924
G1 X131.038 Y110.551 E0.00923
G1 X130.913 Y110.818 E0.00923
G1 X130.744 Y111.059 E0.00924
G1 X130.536 Y111.267 E0.00923
G1 X130.295 Y111.436 E0.00924
G1 X130.028 Y111.561 E0.00924
G1 X129.743 Y111.637 E0.00923
G1 X129.450 Y111.663 E0.00923
G1 X129.157 Y111.637 E0.00923
G1 X128.872 Y111.561 E0.00924
G1 X128.605 Y111.436 E0.00923
G1 X128.364 Y111.267 E0.00923
G1 X128.156 Y111.059 E0.00924
G1 X127.987 Y110.818 E0.00924
G1 X127.862 Y110.551 E0.00923
G1 X127.786 Y110.266 E0.00924
G1 X127.760 Y109.973 E0.00923
G1 X127.786 Y109.680 E0.00923
G1 X127.879 Y109.360 E0.01043
G1 X128.218 Y109.525 F9000.000
;TYPE:External perimeter
G1 F1200.000
G1 X128.314 Y109.317 E0.00717
G1 X128.446 Y109.130 E0.00717
G1 X128.607 Y108.969 E0.00717
G1 X128.794 Y108.837 E0.00717
G1 X129.002 Y108.741 E0.00717
G1 X129.222 Y108.682 E0.00717
G1 X129.431 Y108.663 E0.00657
G1 X129.676 Y108.681 E0.00771
G1 X129.898 Y108.741 E0.00721
G1 X130.106 Y108.837 E0.00717
G1 X130.293 Y108.969 E0.00717
G1 X130.454 Y109.130 E0.00717
G1 X130.586 Y109.317 E0.00717
G1 X130.682 Y109.525 E0.00717
G1 X130.741 Y109.745 E0.00717
G1 X130.761 Y109.973 E0.00717
G1 X130.741 Y110.201 E0.00717
G1 X130.682 Y110.421 E0.00717
G1 X130.586 Y110.629 E0.00717
G1 X130.454 Y110.816 E0.00717
G1 X130.293 Y110.977 E0.00717
G1 X130.106 Y111.109 E0.00717
G1 X129.898 Y111.205 E0.00717
G1 X129.678 Y111.264 E0.00717
G1 X129.450 Y111.284 E0.00717
G1 X129.222 Y111.264 E0.00717
G1 X129.002 Y111.205 E0.00717
G1 X128.794 Y111.109 E0.00717
G1 X128.607 Y110.977 E0.00717
G1 X128.446 Y110.816 E0.00717
G1 X128.314 Y110.629 E0.00717
G1 X128.218 Y110.421 E0.00717
G1 X128.159 Y110.201 E0.00717
G1 X128.139 Y109.973 E0.00717
G1 X128.159 Y109.745 E0.00717
G1 X128.202 Y109.583 E0.00529
G1 X128.071 Y109.349 F9000.000
G1 E-3.50000 F3600.000
;WIPE_START
G1 F7200.000
G1 X128.314 Y109.317 E-0.13671
G1 X128.446 Y109.130 E-0.10856
G1 X128.607 Y108.969 E-0.10857
G1 X128.794 Y108.837 E-0.10856
G1 X129.002 Y108.741 E-0.10856
G1 X129.222 Y108.682 E-0.10858
G1 X129.431 Y108.663 E-0.09953
G1 X129.676 Y108.681 E-0.11674
G1 X129.898 Y108.741 E-0.10929
G1 X130.106 Y108.837 E-0.10857
G1 X130.293 Y108.969 E-0.10857
G1 X130.454 Y109.130 E-0.10855
G1 X130.568 Y109.293 E-0.09420
;WIPE_END
G1 E-0.07500 F3600.000
G1 X129.428 Y128.123 F9000.000
G1 E5.00000 F2400.000
;TYPE:Perimeter
G1 F1200.000
G1 X129.739 Y128.146 E0.00977
G1 X130.028 Y128.223 E0.00937
G1 X130.295 Y128.347 E0.00924
G1 X130.536 Y128.516 E0.00924
G1 X130.744 Y128.725 E0.00923
G1 X130.913 Y128.966 E0.00924
G1 X131.038 Y129.233 E0.00923
G1 X131.114 Y129.517 E0.00923
G1 X131.140 Y129.811 E0.00924
G1 X131.114 Y130.104 E0.00924
G1 X131.038 Y130.389 E0.00923
G1 X130.913 Y130.656 E0.00923
G1 X130.744 Y130.897 E0.00924
G1 X130.536 Y131.105 E0.00923
G1 X130.295 Y131.274 E0.00924
G1 X130.028 Y131.399 E0.00924
G1 X129.743 Y131.475 E0.00923
G1 X129.450 Y131.500 E0.00923
G1 X129.157 Y131.475 E0.00923
G1 X128.872 Y131.399 E0.00924
G1 X128.605 Y131.274 E0.00923
G1 X128.364 Y131.105 E0.00923
G1 X128.156 Y130.897 E0.00924
G1 X127.987 Y130.656 E0.00924
G1 X127.862 Y130.389 E0.00923
G1 X127.786 Y130.104 E0.00924
G1 X127.760 Y129.811 E0.00923
G1 X127.786 Y129.517 E0.00923
G1 X127.862 Y129.233 E0.00924
G1 X127.987 Y128.966 E0.00923
G1 X128.156 Y128.725 E0.00924
G1 X128.364 Y128.516 E0.00924
G1 X128.605 Y128.347 E0.00923
G1 X128.872 Y128.223 E0.00923
G1 X129.157 Y128.147 E0.00924
G1 X129.369 Y128.128 E0.00667
G1 X129.401 Y128.504 F9000.000
;TYPE:External perimeter
G1 F1200.000
G1 X129.676 Y128.519 E0.00863
G1 X129.898 Y128.579 E0.00721
G1 X130.106 Y128.675 E0.00717
G1 X130.293 Y128.806 E0.00717
G1 X130.454 Y128.968 E0.00717
G1 X130.586 Y129.155 E0.00717
G1 X130.682 Y129.362 E0.00717
G1 X130.741 Y129.583 E0.00717
G1 X130.761 Y129.811 E0.00717
G1 X130.741 Y130.038 E0.00717
G1 X130.682 Y130.259 E0.00717
G1 X130.586 Y130.466 E0.00717
G1 X130.454 Y130.654 E0.00717
G1 X130.293 Y130.815 E0.00717
G1 X130.106 Y130.946 E0.00717
G1 X129.898 Y131.043 E0.00717
G1 X129.678 Y131.102 E0.00717
G1 X129.450 Y131.122 E0.00717
G1 X129.222 Y131.102 E0.00717
G1 X129.002 Y131.043 E0.00717
G1 X128.794 Y130.946 E0.00717
G1 X128.607 Y130.815 E0.00717
G1 X128.446 Y130.654 E0.00717
G1 X128.314 Y130.466 E0.00717
G1 X128.218 Y130.259 E0.00717
G1 X128.159 Y130.038 E0.00717
G1 X128.139 Y129.811 E0.00717
G1 X128.159 Y129.583 E0.00717
G1 X128.218 Y129.362 E0.00717
G1 X128.314 Y129.155 E0.00717
G1 X128.446 Y128.968 E0.00717
G1 X128.607 Y128.806 E0.00717
G1 X128.794 Y128.675 E0.00717
G1 X129.002 Y128.579 E0.00717
G1 X129.222 Y128.519 E0.00717
G1 X129.342 Y128.509 E0.00376
G1 X129.533 Y128.262 F9000.000
G1 E-3.50000 F3600.000
;WIPE_START
G1 F7200.000
G1 X129.676 Y128.519 E-0.15898
G1 X129.898 Y128.579 E-0.10929
G1 X130.106 Y128.675 E-0.10857
G1 X130.293 Y128.806 E-0.10857
G1 X130.454 Y128.968 E-0.10855
G1 X130.586 Y129.155 E-0.10857
G1 X130.682 Y129.362 E-0.10856
G1 X130.741 Y129.583 E-0.10855
G1 X130.761 Y129.811 E-0.10857
G1 X130.741 Y130.038 E-0.10857
G1 X130.682 Y130.259 E-0.10855
G1 X130.586 Y130.466 E-0.10856
G1 X130.500 Y130.589 E-0.07111
;WIPE_END
G1 E-0.07500 F3600.000
G1 X100.190 Y129.811 F9000.000
G1 E5.00000 F2400.000
;TYPE:Perimeter
G1 F1200.000
G1 X100.164 Y130.104 E0.00923
G1 X100.088 Y130.389 E0.00923
G1 X99.963 Y130.656 E0.00924
G1 X99.794 Y130.897 E0.00924
G1 X99.586 Y131.105 E0.00924
G1 X99.345 Y131.274 E0.00924
G1 X99.078 Y131.399 E0.00924
G1 X98.793 Y131.475 E0.00923
G1 X98.500 Y131.500 E0.00923
G1 X98.207 Y131.475 E0.00923
G1 X97.922 Y131.399 E0.00923
G1 X97.655 Y131.274 E0.00924
G1 X97.414 Y131.105 E0.00924
G1 X97.206 Y130.897 E0.00924
G1 X97.037 Y130.656 E0.00924
G1 X96.912 Y130.389 E0.00924
G1 X96.836 Y130.104 E0.00923
G1 X96.810 Y129.811 E0.00923
G1 X96.836 Y129.517 E0.00923
G1 X96.912 Y129.233 E0.00923
G1 X97.037 Y128.966 E0.00924
G1 X97.206 Y128.725 E0.00923
G1 X97.414 Y128.516 E0.00924
G1 X97.655 Y128.347 E0.00924
G1 X97.922 Y128.223 E0.00924
G1 X98.207 Y128.147 E0.00923
G1 X98.478 Y128.123 E0.00855
G1 X98.789 Y128.146 E0.00977
G1 X99.078 Y128.223 E0.00937
G1 X99.345 Y128.347 E0.00924
G1 X99.586 Y128.516 E0.00924
G1 X99.794 Y128.725 E0.00924
G1 X99.963 Y128.966 E0.00924
G1 X100.088 Y129.233 E0.00924
G1 X100.164 Y129.517 E0.00923
G1 X100.184 Y129.751 E0.00735
G1 X99.809 Y129.784 F9000.000
;TYPE:External perimeter
G1 F1200.000
G1 X99.791 Y130.038 E0.00800
G1 X99.732 Y130.259 E0.00717
G1 X99.636 Y130.466 E0.00717
G1 X99.504 Y130.654 E0.00717
G1 X99.343 Y130.815 E0.00717
G1 X99.156 Y130.946 E0.00717
G1 X98.948 Y131.043 E0.00717
G1 X98.728 Y131.102 E0.00717
G1 X98.500 Y131.122 E0.00717
G1 X98.272 Y131.102 E0.00717
G1 X98.052 Y131.043 E0.00717
G1 X97.844 Y130.946 E0.00717
G1 X97.657 Y130.815 E0.00717
G1 X97.496 Y130.654 E0.00717
G1 X97.364 Y130.466 E0.00717
G1 X97.268 Y130.259 E0.00717
G1 X97.209 Y130.038 E0.00717
G1 X97.189 Y129.811 E0.00717
G1 X97.209 Y129.583 E0.00717
G1 X97.268 Y129.362 E0.00717
G1 X97.364 Y129.155 E0.00717
G1 X97.496 Y128.968 E0.00717
G1 X97.657 Y128.806 E0.00717
G1 X97.844 Y128.675 E0.00717
G1 X98.052 Y128.579 E0.00717
G1 X98.272 Y128.519 E0.00717
G1 X98.481 Y128.501 E0.00657
G1 X98.726 Y128.519 E0.00771
G1 X98.948 Y128.579 E0.00721
G1 X99.156 Y128.675 E0.00717
G1 X99.343 Y128.806 E0.00717
G1 X99.504 Y128.968 E0.00717
G1 X99.636 Y129.155 E0.00717
G1 X99.732 Y129.362 E0.00717
G1 X99.791 Y129.583 E0.00717
G1 X99.804 Y129.724 E0.00444
G1 X100.032 Y129.908 F9000.000
G1 E-3.50000 F3600.000
;WIPE_START
G1 F7200.000
G1 X99.791 Y130.038 E-0.14943
G1 X99.732 Y130.259 E-0.10856
G1 X99.636 Y130.466 E-0.10857
G1 X99.504 Y130.654 E-0.10856
G1 X99.343 Y130.815 E-0.10857
G1 X99.156 Y130.946 E-0.10856
G1 X98.948 Y131.043 E-0.10857
G1 X98.728 Y131.102 E-0.10856
G1 X98.500 Y131.122 E-0.10856
G1 X98.272 Y131.102 E-0.10856
G1 X98.052 Y131.043 E-0.10856
G1 X97.844 Y130.946 E-0.10857
G1 X97.704 Y130.848 E-0.08137
;WIPE_END
G1 E-0.07500 F3600.000
G1 X98.500 Y111.663 F9000.000
G1 E5.00000 F2400.000
;TYPE:Perimeter
G1 F1200.000
G1 X98.207 Y111.637 E0.00923
G1 X97.922 Y111.561 E0.00923
G1 X97.655 Y111.436 E0.00924
G1 X97.414 Y111.267 E0.00924
G1 X97.206 Y111.059 E0.00924
G1 X97.037 Y110.818 E0.00924
G1 X96.912 Y110.551 E0.00924
G1 X96.836 Y110.266 E0.00923
G1 X96.810 Y109.973 E0.00923
G1 X96.836 Y109.680 E0.00923
G1 X96.912 Y109.395 E0.00923
G1 X97.037 Y109.128 E0.00924
G1 X97.206 Y108.887 E0.00924
G1 X97.414 Y108.679 E0.00924
G1 X97.655 Y108.510 E0.00924
G1 X97.922 Y108.385 E0.00924
G1 X98.207 Y108.309 E0.00923
G1 X98.478 Y108.285 E0.00855
G1 X98.789 Y108.308 E0.00977
G1 X99.078 Y108.385 E0.00937
G1 X99.345 Y108.510 E0.00924
G1 X99.586 Y108.679 E0.00924
G1 X99.794 Y108.887 E0.00924
G1 X99.963 Y109.128 E0.00924
G1 X100.088 Y109.395 E0.00924
G1 X100.164 Y109.680 E0.00923
G1 X100.190 Y109.973 E0.00923
G1 X100.164 Y110.266 E0.00923
G1 X100.088 Y110.551 E0.00923
G1 X99.963 Y110.818 E0.00924
G1 X99.794 Y111.059 E0.00924
G1 X99.586 Y111.267 E0.00924
G1 X99.345 Y111.436 E0.00924
G1 X99.078 Y111.561 E0.00924
G1 X98.793 Y111.637 E0.00923
G1 X98.560 Y111.657 E0.00735
G1 X98.527 Y111.282 F9000.000
;TYPE:External perimeter
G1 F1200.000
G1 X98.272 Y111.264 E0.00800
G1 X98.052 Y111.205 E0.00717
G1 X97.844 Y111.109 E0.00717
G1 X97.657 Y110.977 E0.00717
G1 X97.496 Y110.816 E0.00717
G1 X97.364 Y110.629 E0.00717
G1 X97.268 Y110.421 E0.00717
G1 X97.209 Y110.201 E0.00717
G1 X97.189 Y109.973 E0.00717
G1 X97.209 Y109.745 E0.00717
G1 X97.268 Y109.525 E0.00717
G1 X97.364 Y109.317 E0.00717
G1 X97.496 Y109.130 E0.00717
G1 X97.657 Y108.969 E0.00717
G1 X97.844 Y108.837 E0.00717
G1 X98.052 Y108.741 E0.00717
G1 X98.272 Y108.682 E0.00717
G1 X98.481 Y108.663 E0.00657
G1 X98.726 Y108.681 E0.00771
G1 X98.948 Y108.741 E0.00721
G1 X99.156 Y108.837 E0.00717
G1 X99.343 Y108.969 E0.00717
G1 X99.504 Y109.130 E0.00717
G1 X99.636 Y109.317 E0.00717
G1 X99.732 Y109.525 E0.00717
G1 X99.791 Y109.745 E0.00717
G1 X99.811 Y109.973 E0.00717
G1 X99.791 Y110.201 E0.00717
G1 X99.732 Y110.421 E0.00717
G1 X99.636 Y110.629 E0.00717
G1 X99.504 Y110.816 E0.00717
G1 X99.343 Y110.977 E0.00717
G1 X99.156 Y111.109 E0.00717
G1 X98.948 Y111.205 E0.00717
G1 X98.728 Y111.264 E0.00717
G1 X98.587 Y111.277 E0.00444
G1 X98.402 Y111.505 F9000.000
G1 E-3.50000 F3600.000
;WIPE_START
G1 F7200.000
G1 X98.272 Y111.264 E-0.14943
G1 X98.052 Y111.205 E-0.10856
G1 X97.844 Y111.109 E-0.10857
G1 X97.657 Y110.977 E-0.10856
G1 X97.496 Y110.816 E-0.10857
G1 X97.364 Y110.629 E-0.10856
G1 X97.268 Y110.421 E-0.10857
G1 X97.209 Y110.201 E-0.10856
G1 X97.189 Y109.973 E-0.10856
G1 X97.209 Y109.745 E-0.10856
G1 X97.268 Y109.525 E-0.10856
G1 X97.364 Y109.317 E-0.10857
G1 X97.463 Y109.177 E-0.08137
;WIPE_END
G1 E-0.07500 F3600.000
G1 X96.187 Y94.637 F9000.000
G1 E5.00000 F2400.000
;TYPE:Perimeter
G1 F1200.000
G1 X134.813 Y94.637 E1.21109
G1 X134.813 Y136.363 E1.30828
G1 X96.187 Y136.363 E1.21109
G1 X96.187 Y94.697 E1.30640
G1 X95.810 Y94.260 F9000.000
;TYPE:External perimeter
G1 F1200.000
G1 X135.190 Y94.260 E1.23473
G1 X135.190 Y136.740 E1.33193
G1 X95.810 Y136.740 E1.23473
G1 X95.810 Y94.320 E1.33005
G1 X96.195 Y94.368 F9000.000
G1 E-3.50000 F3600.000
;WIPE_START
G1 F7200.000
G1 X98.810 Y94.315 E-1.42500
;WIPE_END
G1 E-0.07500 F3600.000
G1 X96.538 Y109.437 F9000.000
G1 E5.00000 F2400.000
;TYPE:Gap fill
;WIDTH:0.329891
G1 F1200.000
G1 X96.515 Y109.611 E0.00419
;WIDTH:0.32164
G1 X96.499 Y109.962 E0.00816
;WIDTH:0.288808
G1 X96.538 Y110.509 E0.01122
G1 E-3.50000 F3600.000
;WIPE_START
G1 F7200.000
G1 X96.499 Y109.962 E-0.26059
;WIPE_END
G1 E-1.23941 F3600.000
G1 X96.538 Y129.274 F9000.000
G1 E5.00000 F2400.000
;WIDTH:0.329891
G1 F1200.000
G1 X96.515 Y129.448 E0.00419
;WIDTH:0.32164
G1 X96.499 Y129.800 E0.00816
;WIDTH:0.288808
G1 X96.538 Y130.347 E0.01122
G1 E-3.50000 F3600.000
;WIPE_START
G1 F7200.000
G1 X96.499 Y129.800 E-0.26059
;WIPE_END
G1 E-1.23941 F3600.000
G1 X133.932 Y94.750 F9000.000
G1 E5.00000 F2400.000
;TYPE:Solid infill
;WIDTH:0.422454
G1 F1200.000
G1 X134.530 Y95.348 E0.02668
G1 X134.530 Y95.885 E0.01694
G1 X133.565 Y94.920 E0.04306
G1 X133.029 Y94.920 E0.01694
G1 X134.530 Y96.421 E0.06702
G1 X134.530 Y96.958 E0.01694
G1 X132.492 Y94.920 E0.09097
G1 X131.955 Y94.920 E0.01694
G1 X134.530 Y97.495 E0.11493
G1 X134.530 Y98.032 E0.01694
G1 X131.418 Y94.920 E0.13888
G1 X130.882 Y94.920 E0.01694
G1 X134.530 Y98.568 E0.16284
G1 X134.530 Y99.105 E0.01694
G1 X130.345 Y94.920 E0.18679
G1 X129.808 Y94.920 E0.01694
G1 X134.530 Y99.642 E0.21075
G1 X134.530 Y100.179 E0.01694
G1 X129.271 Y94.920 E0.23470
G1 X128.735 Y94.920 E0.01694
G1 X134.530 Y100.715 E0.25866
G1 X134.530 Y101.252 E0.01694
G1 X128.198 Y94.920 E0.28261
G1 X127.661 Y94.920 E0.01694
G1 X134.530 Y101.789 E0.30657
G1 X134.530 Y102.326 E0.01694
G1 X127.124 Y94.920 E0.33052
G1 X126.588 Y94.920 E0.01694
G1 X134.530 Y102.862 E0.35448
G1 X134.530 Y103.399 E0.01694
G1 X126.051 Y94.920 E0.37843
G1 X125.514 Y94.920 E0.01694
G1 X134.530 Y103.936 E0.40239
G1 X134.530 Y104.473 E0.01694
G1 X124.977 Y94.920 E0.42634
G1 X124.441 Y94.920 E0.01694
G1 X134.530 Y105.009 E0.45030
G1 X134.530 Y105.546 E0.01694
G1 X123.904 Y94.920 E0.47425
G1 X123.367 Y94.920 E0.01694
G1 X134.530 Y106.083 E0.49821
G1 X134.530 Y106.620 E0.01694
G1 X122.830 Y94.920 E0.52216
