; generated by PrusaSlicer 2.3.0 on 2022-12-29 at 16:09:38 UTC

; 

; external perimeters extrusion width = 0.45mm
; perimeters extrusion width = 0.45mm
; infill extrusion width = 0.45mm
; solid infill extrusion width = 0.45mm
; top infill extrusion width = 0.40mm
; first layer extrusion width = 0.42mm

M201 X500 Y500 Z100 E5000 ; sets maximum accelerations, mm/sec^2
M203 X500 Y500 Z10 E60 ; sets maximum feedrates, mm/sec
M204 P500 R1000 T500 ; sets acceleration (P, T) and retract acceleration (R), mm/sec^2
M205 X8.00 Y8.00 Z0.40 E5.00 ; sets the jerk limits, mm/sec
M205 S0 T0 ; sets the minimum extruding and travel feed rate, mm/sec
M107
;TYPE:Custom
G90 ; use absolute coordinates
M83 ; extruder relative mode
M104 S210 ; set extruder temp
M140 S60 ; set bed temp
M190 S60 ; wait for bed temp
M109 S210 ; wait for extruder temp
G28 ; home all
G1 Z2 F240
G1 X2 Y10 F3000
G1 Z0.28 F240
G92 E0
G1 Y190 E15 F1500 ; intro line
G1 X2.3 F5000
G92 E0
G1 Y10 E15 F1200 ; intro line
G92 E0
G21 ; set units to millimeters
G90 ; use absolute coordinates
M83 ; use relative distances for extrusion
; Filament gcode
;LAYER_CHANGE
;Z:0.2
;HEIGHT:0.2
;BEFORE_LAYER_CHANGE
G92 E0
;0.2


G1 E-5.00000 F3600.000
G1 Z0.200 F9000.000
;AFTER_LAYER_CHANGE
;0.2
G1 X92.411 Y104.573
G1 E5.00000 F2400.000
;TYPE:Skirt
;WIDTH:0.42
G1 F1200.000
G1 X92.722 Y104.042 E0.01929
G1 X93.159 Y103.609 E0.01929
G1 X93.693 Y103.303 E0.01929
G1 X94.291 Y103.143 E0.01941
G1 X103.554 Y103.123 E0.29042
G1 X131.913 Y107.251 E0.89856
G1 X132.423 Y107.389 E0.01657
G1 X132.890 Y107.637 E0.01657
G1 X138.030 Y112.020 E0.21182
G1 X138.430 Y112.513 E0.01989
G1 X138.686 Y113.097 E0.02000
G1 X138.777 Y113.733 E0.02012
G1 X138.776 Y125.557 E0.37075
G1 X138.663 Y126.227 E0.02130
G1 X138.365 Y126.838 E0.02130
G1 X137.990 Y127.267 E0.01787
G1 X137.524 Y127.595 E0.01787
G1 X136.996 Y127.801 E0.01775
G1 X136.432 Y127.877 E0.01787
G1 X94.577 Y127.877 E1.31232
G1 X93.887 Y127.768 E0.02190
G1 X93.262 Y127.465 E0.02178
G1 X92.843 Y127.101 E0.01740
G1 X92.520 Y126.650 E0.01740
G1 X92.310 Y126.137 E0.01740
G1 X92.225 Y125.589 E0.01740
G1 X92.223 Y105.481 E0.63046
G1 X92.399 Y104.632 E0.02719
G1 E-3.50000 F3600.000
;WIPE_START
G1 F7200.000
G1 X92.722 Y104.042 E-0.31941
G1 X93.159 Y103.609 E-0.29228
G1 X93.693 Y103.303 E-0.29228
G1 X94.291 Y103.143 E-0.29407
G1 X94.769 Y103.142 E-0.22695
;WIPE_END
G1 E-0.07500 F3600.000
G1 X98.497 Y118.912 F9000.000
G1 E5.00000 F2400.000
;TYPE:Perimeter
G1 F1200.000
G1 X98.782 Y118.836 E0.00924
G1 X99.046 Y118.813 E0.00833
G1 X99.363 Y118.835 E0.00995
G1 X99.653 Y118.912 E0.00941
G1 X99.920 Y119.037 E0.00924
G1 X100.161 Y119.206 E0.00923
G1 X100.369 Y119.414 E0.00924
G1 X100.538 Y119.655 E0.00923
G1 X100.651 Y119.896 E0.00833
G1 X100.739 Y120.201 E0.00995
G1 X100.765 Y120.500 E0.00941
G1 X100.739 Y120.793 E0.00924
G1 X100.663 Y121.078 E0.00923
G1 X100.538 Y121.345 E0.00923
G1 X100.369 Y121.586 E0.00923
G1 X100.161 Y121.794 E0.00923
G1 X99.920 Y121.963 E0.00924
G1 X99.653 Y122.088 E0.00924
G1 X99.368 Y122.164 E0.00923
G1 X99.075 Y122.190 E0.00924
G1 X98.782 Y122.164 E0.00924
G1 X98.497 Y122.088 E0.00923
G1 X98.230 Y121.963 E0.00923
G1 X97.989 Y121.794 E0.00924
G1 X97.781 Y121.586 E0.00923
G1 X97.612 Y121.345 E0.00923
G1 X97.487 Y121.078 E0.00923
G1 X97.411 Y120.793 E0.00924
G1 X97.385 Y120.500 E0.00923
G1 X97.411 Y120.207 E0.00924
G1 X97.487 Y119.922 E0.00924
G1 X97.612 Y119.655 E0.00923
G1 X97.781 Y119.414 E0.00923
G1 X97.989 Y119.206 E0.00924
G1 X98.230 Y119.037 E0.00923
G1 X98.443 Y118.938 E0.00735
G1 X98.602 Y119.279 F9000.000
;TYPE:External perimeter
G1 F1200.000
G1 X98.847 Y119.209 E0.00800
G1 X99.050 Y119.191 E0.00637
G1 X99.301 Y119.208 E0.00789
G1 X99.523 Y119.268 E0.00723
G1 X99.731 Y119.364 E0.00717
G1 X99.918 Y119.496 E0.00717
G1 X100.079 Y119.657 E0.00717
G1 X100.211 Y119.844 E0.00717
G1 X100.296 Y120.029 E0.00637
G1 X100.366 Y120.270 E0.00789
G1 X100.386 Y120.500 E0.00723
G1 X100.366 Y120.728 E0.00717
G1 X100.307 Y120.948 E0.00717
G1 X100.211 Y121.156 E0.00717
G1 X100.079 Y121.343 E0.00717
G1 X99.918 Y121.504 E0.00717
G1 X99.731 Y121.636 E0.00717
G1 X99.523 Y121.732 E0.00717
G1 X99.303 Y121.791 E0.00717
G1 X99.075 Y121.811 E0.00717
G1 X98.847 Y121.791 E0.00717
G1 X98.627 Y121.732 E0.00717
G1 X98.419 Y121.636 E0.00717
G1 X98.232 Y121.504 E0.00717
G1 X98.071 Y121.343 E0.00717
G1 X97.939 Y121.156 E0.00717
G1 X97.843 Y120.948 E0.00717
G1 X97.784 Y120.728 E0.00717
G1 X97.764 Y120.500 E0.00717
G1 X97.784 Y120.272 E0.00717
G1 X97.843 Y120.052 E0.00717
G1 X97.939 Y119.844 E0.00717
G1 X98.071 Y119.657 E0.00717
G1 X98.232 Y119.496 E0.00717
G1 X98.419 Y119.364 E0.00717
G1 X98.548 Y119.305 E0.00444
G1 X98.643 Y119.027 F9000.000
G1 E-3.50000 F3600.000
;WIPE_START
G1 F7200.000
G1 X98.847 Y119.209 E-0.14944
G1 X99.050 Y119.191 E-0.09657
G1 X99.301 Y119.208 E-0.11946
G1 X99.523 Y119.268 E-0.10951
G1 X99.731 Y119.364 E-0.10857
G1 X99.918 Y119.496 E-0.10856
G1 X100.079 Y119.657 E-0.10857
G1 X100.211 Y119.844 E-0.10856
G1 X100.296 Y120.029 E-0.09656
G1 X100.366 Y120.270 E-0.11947
G1 X100.386 Y120.500 E-0.10952
G1 X100.366 Y120.728 E-0.10857
G1 X100.322 Y120.894 E-0.08165
;WIPE_END
G1 E-0.07500 F3600.000
G1 X99.075 Y112.190 F9000.000
G1 E5.00000 F2400.000
;TYPE:Perimeter
G1 F1200.000
G1 X98.782 Y112.164 E0.00924
G1 X98.497 Y112.088 E0.00923
G1 X98.230 Y111.963 E0.00923
G1 X97.989 Y111.794 E0.00923
G1 X97.781 Y111.586 E0.00924
G1 X97.612 Y111.345 E0.00923
G1 X97.487 Y111.078 E0.00923
G1 X97.411 Y110.793 E0.00924
G1 X97.385 Y110.500 E0.00923
G1 X97.411 Y110.207 E0.00924
G1 X97.487 Y109.922 E0.00924
G1 X97.612 Y109.655 E0.00923
G1 X97.781 Y109.414 E0.00923
G1 X97.989 Y109.206 E0.00924
G1 X98.230 Y109.037 E0.00923
G1 X98.497 Y108.912 E0.00923
G1 X98.782 Y108.836 E0.00924
G1 X99.046 Y108.813 E0.00833
G1 X99.363 Y108.835 E0.00995
G1 X99.653 Y108.912 E0.00941
G1 X99.920 Y109.037 E0.00924
G1 X100.161 Y109.206 E0.00923
G1 X100.369 Y109.414 E0.00924
G1 X100.538 Y109.655 E0.00923
G1 X100.651 Y109.896 E0.00833
G1 X100.739 Y110.201 E0.00995
G1 X100.765 Y110.500 E0.00941
G1 X100.739 Y110.793 E0.00924
G1 X100.663 Y111.078 E0.00923
G1 X100.538 Y111.345 E0.00923
G1 X100.369 Y111.586 E0.00923
G1 X100.161 Y111.794 E0.00923
G1 X99.920 Y111.963 E0.00923
G1 X99.653 Y112.088 E0.00924
G1 X99.368 Y112.164 E0.00923
G1 X99.135 Y112.184 E0.00735
G1 X99.102 Y111.809 F9000.000
;TYPE:External perimeter
G1 F1200.000
G1 X98.847 Y111.791 E0.00800
G1 X98.627 Y111.732 E0.00717
G1 X98.419 Y111.636 E0.00717
G1 X98.232 Y111.504 E0.00717
G1 X98.071 Y111.343 E0.00717
G1 X97.939 Y111.156 E0.00717
G1 X97.843 Y110.948 E0.00717
G1 X97.784 Y110.728 E0.00717
G1 X97.764 Y110.500 E0.00717
G1 X97.784 Y110.272 E0.00717
G1 X97.843 Y110.052 E0.00717
G1 X97.939 Y109.844 E0.00717
G1 X98.071 Y109.657 E0.00717
G1 X98.232 Y109.496 E0.00717
G1 X98.419 Y109.364 E0.00717
G1 X98.627 Y109.268 E0.00717
G1 X98.847 Y109.209 E0.00717
G1 X99.050 Y109.191 E0.00637
G1 X99.301 Y109.208 E0.00789
G1 X99.523 Y109.268 E0.00723
G1 X99.731 Y109.364 E0.00717
G1 X99.918 Y109.496 E0.00717
G1 X100.079 Y109.657 E0.00717
G1 X100.211 Y109.844 E0.00717
G1 X100.296 Y110.029 E0.00637
G1 X100.366 Y110.270 E0.00789
G1 X100.386 Y110.500 E0.00723
G1 X100.366 Y110.728 E0.00717
G1 X100.307 Y110.948 E0.00717
G1 X100.211 Y111.156 E0.00717
G1 X100.079 Y111.343 E0.00717
G1 X99.918 Y111.504 E0.00717
G1 X99.731 Y111.636 E0.00717
G1 X99.523 Y111.732 E0.00717
G1 X99.303 Y111.791 E0.00717
G1 X99.162 Y111.804 E0.00444
G1 X98.977 Y112.032 F9000.000
G1 E-3.50000 F3600.000
;WIPE_START
G1 F7200.000
G1 X98.847 Y111.791 E-0.14944
G1 X98.627 Y111.732 E-0.10856
G1 X98.419 Y111.636 E-0.10856
G1 X98.232 Y111.504 E-0.10856
G1 X98.071 Y111.343 E-0.10857
G1 X97.939 Y111.156 E-0.10856
G1 X97.843 Y110.948 E-0.10857
G1 X97.784 Y110.728 E-0.10856
G1 X97.764 Y110.500 E-0.10856
G1 X97.784 Y110.272 E-0.10857
G1 X97.843 Y110.052 E-0.10857
G1 X97.939 Y109.844 E-0.10856
G1 X98.038 Y109.704 E-0.08137
;WIPE_END
G1 E-0.07500 F3600.000
G1 X102.863 Y110.287 F9000.000
G1 E5.00000 F2400.000
;TYPE:Perimeter
G1 F1200.000
G1 X130.863 Y110.287 E0.87792
G1 X130.863 Y114.437 E0.13012
G1 X135.713 Y114.437 E0.15207
G1 X135.713 Y124.835 E0.32601
G1 X135.398 Y124.846 E0.00990
G1 X135.524 Y124.602 E0.00861
G1 X135.623 Y124.325 E0.00924
G1 X135.660 Y124.013 E0.00984
G1 X135.638 Y123.713 E0.00944
G1 X135.563 Y123.425 E0.00932
G1 X135.439 Y123.156 E0.00931
G1 X135.270 Y122.914 E0.00925
G1 X135.061 Y122.706 E0.00924
G1 X134.820 Y122.537 E0.00924
G1 X134.553 Y122.412 E0.00923
G1 X134.263 Y122.335 E0.00941
G1 X133.946 Y122.313 E0.00995
G1 X133.682 Y122.336 E0.00833
G1 X133.397 Y122.412 E0.00924
G1 X133.130 Y122.537 E0.00923
G1 X132.889 Y122.706 E0.00924
G1 X132.680 Y122.914 E0.00924
G1 X132.511 Y123.156 E0.00925
G1 X132.387 Y123.425 E0.00930
G1 X132.312 Y123.713 E0.00932
G1 X132.290 Y124.013 E0.00944
G1 X132.327 Y124.325 E0.00984
G1 X132.426 Y124.602 E0.00924
G1 X132.554 Y124.850 E0.00875
G1 X131.431 Y124.813 E0.03523
G1 X95.287 Y124.813 E1.13328
G1 X95.287 Y106.187 E0.58400
G1 X102.863 Y106.187 E0.23754
G1 X102.863 Y110.227 E0.12667
G1 E-3.50000 F3600.000
;WIPE_START
G1 F7200.000
G1 X105.863 Y110.233 E-1.42500
;WIPE_END
G1 E-0.07500 F3600.000
G1 X132.881 Y124.661 F9000.000
G1 E5.00000 F2400.000
;TYPE:External perimeter
G1 F1200.000
G1 X132.773 Y124.451 E0.00739
G1 X132.696 Y124.238 E0.00712
G1 X132.668 Y124.005 E0.00736
G1 X132.686 Y123.775 E0.00723
G1 X132.743 Y123.553 E0.00719
G1 X132.839 Y123.345 E0.00719
G1 X132.971 Y123.157 E0.00717
G1 X133.132 Y122.996 E0.00717
G1 X133.319 Y122.864 E0.00717
G1 X133.527 Y122.768 E0.00717
G1 X133.747 Y122.709 E0.00717
G1 X133.950 Y122.691 E0.00637
G1 X134.201 Y122.708 E0.00789
G1 X134.423 Y122.768 E0.00723
G1 X134.631 Y122.864 E0.00717
G1 X134.818 Y122.996 E0.00717
G1 X134.979 Y123.157 E0.00717
G1 X135.111 Y123.345 E0.00717
G1 X135.207 Y123.553 E0.00719
G1 X135.264 Y123.775 E0.00719
G1 X135.282 Y124.005 E0.00723
G1 X135.254 Y124.238 E0.00736
G1 X135.177 Y124.451 E0.00712
G1 X135.069 Y124.661 E0.00739
G1 X134.898 Y124.825 E0.00743
G1 X134.581 Y125.048 E0.01218
G1 X134.389 Y125.138 E0.00663
G1 X134.185 Y125.192 E0.00662
G1 X133.975 Y125.211 E0.00662
G1 X133.765 Y125.192 E0.00662
G1 X133.561 Y125.138 E0.00662
G1 X133.369 Y125.048 E0.00663
G1 X133.052 Y124.825 E0.01218
G1 X132.924 Y124.702 E0.00555
G1 X132.646 Y124.683 F9000.000
G1 E-3.50000 F3600.000
;WIPE_START
G1 F7200.000
G1 X132.773 Y124.451 E-0.13920
G1 X132.696 Y124.238 E-0.10782
G1 X132.668 Y124.005 E-0.11144
G1 X132.686 Y123.775 E-0.10948
G1 X132.743 Y123.553 E-0.10897
G1 X132.839 Y123.345 E-0.10892
G1 X132.971 Y123.157 E-0.10865
G1 X133.132 Y122.996 E-0.10860
G1 X133.319 Y122.864 E-0.10857
G1 X133.527 Y122.768 E-0.10856
G1 X133.747 Y122.709 E-0.10857
G1 X133.950 Y122.691 E-0.09656
G1 X134.159 Y122.705 E-0.09966
;WIPE_END
G1 E-0.07500 F3600.000
G1 X103.240 Y109.910 F9000.000
G1 E5.00000 F2400.000
G1 F1200.000
G1 X131.240 Y109.910 E0.87792
G1 X131.240 Y114.060 E0.13012
G1 X136.090 Y114.060 E0.15207
G1 X136.090 Y125.199 E0.34925
G1 X135.387 Y125.224 E0.02206
G1 X134.893 Y125.290 E0.01563
G1 X133.419 Y125.290 E0.04623
G1 X132.932 Y125.269 E0.01527
G1 X132.433 Y125.216 E0.01574
G1 X131.427 Y125.190 E0.03156
G1 X94.910 Y125.190 E1.14495
G1 X94.910 Y105.810 E0.60765
G1 X103.240 Y105.810 E0.26118
G1 X103.240 Y109.850 E0.12667
G1 X103.385 Y110.283 F9000.000
G1 E-3.50000 F3600.000
;WIPE_START
G1 F7200.000
G1 X106.240 Y109.856 E-1.42500
;WIPE_END
G1 E-0.07500 F3600.000
G1 X134.833 Y114.550 F9000.000
G1 E5.00000 F2400.000
;TYPE:Solid infill
;WIDTH:0.422235
G1 F1200.000
G1 X135.430 Y115.148 E0.02664
G1 X135.430 Y115.684 E0.01692
G1 X134.466 Y114.720 E0.04300
G1 X133.930 Y114.720 E0.01692
G1 X135.430 Y116.220 E0.06693
G1 X135.430 Y116.757 E0.01692
G1 X133.393 Y114.720 E0.09086
G1 X132.857 Y114.720 E0.01692
G1 X135.430 Y117.293 E0.11479
G1 X135.430 Y117.830 E0.01692
G1 X132.320 Y114.720 E0.13871
G1 X131.784 Y114.720 E0.01692
G1 X135.430 Y118.366 E0.16264
G1 X135.430 Y118.903 E0.01692
G1 X131.078 Y114.550 E0.19414
G1 E-3.50000 F3600.000
;WIPE_START
G1 F7200.000
G1 X133.199 Y116.672 E-1.42500
;WIPE_END
G1 E-0.07500 F3600.000
G1 X130.750 Y111.004 F9000.000
G1 E5.00000 F2400.000
G1 F1200.000
G1 X130.316 Y110.570 E0.01935
G1 X129.780 Y110.570 E0.01692
G1 X130.580 Y111.370 E0.03571
G1 X130.580 Y111.907 E0.01692
G1 X129.243 Y110.570 E0.05963
G1 X128.707 Y110.570 E0.01692
G1 X130.580 Y112.443 E0.08356
G1 X130.580 Y112.980 E0.01692
G1 X128.170 Y110.570 E0.10749
G1 X127.634 Y110.570 E0.01692
G1 X130.580 Y113.516 E0.13141
G1 X130.580 Y114.053 E0.01692
G1 X127.097 Y110.570 E0.15534
G1 X126.561 Y110.570 E0.01692
G1 X135.430 Y119.439 E0.39561
G1 X135.430 Y119.976 E0.01692
G1 X126.025 Y110.570 E0.41954
G1 X125.488 Y110.570 E0.01692
G1 X135.430 Y120.512 E0.44346
G1 X135.430 Y121.048 E0.01692
G1 X124.952 Y110.570 E0.46739
G1 X124.415 Y110.570 E0.01692
G1 X135.430 Y121.585 E0.49132
G1 X135.430 Y122.121 E0.01692
G1 X123.879 Y110.570 E0.51525
G1 X123.342 Y110.570 E0.01692
G1 X135.430 Y122.675 E0.53956
G1 X135.244 Y122.488 E0.00833
G1 X134.962 Y122.291 E0.01085
G1 X134.650 Y122.145 E0.01085
G1 X134.289 Y122.053 E0.01176
G1 X122.806 Y110.570 E0.51219
G1 X122.270 Y110.570 E0.01692
G1 X133.746 Y122.046 E0.51191
G1 X133.632 Y122.056 E0.00360
G1 X133.307 Y122.144 E0.01063
G1 X121.733 Y110.570 E0.51624
G1 X121.197 Y110.570 E0.01692
G1 X132.947 Y122.320 E0.52410
G1 X132.642 Y122.552 E0.01207
G1 X120.660 Y110.570 E0.53446
G1 X120.124 Y110.570 E0.01692
G1 X132.390 Y122.836 E0.54713
G1 X132.265 Y123.014 E0.00686
G1 X132.191 Y123.174 E0.00554
G1 X119.587 Y110.570 E0.56219
G1 X119.051 Y110.570 E0.01692
G1 X132.056 Y123.575 E0.58007
G1 X132.032 Y123.667 E0.00300
G1 X132.011 Y124.066 E0.01263
G1 X118.515 Y110.570 E0.60201
G1 X117.978 Y110.570 E0.01692
G1 X131.956 Y124.547 E0.62346
G1 X131.402 Y124.530 E0.01747
G1 X117.442 Y110.570 E0.62270
G1 X116.905 Y110.570 E0.01692
G1 X130.866 Y124.530 E0.62270
G1 X130.329 Y124.530 E0.01692
G1 X116.369 Y110.570 E0.62270
G1 X115.832 Y110.570 E0.01692
G1 X129.793 Y124.530 E0.62270
G1 X129.256 Y124.530 E0.01692
G1 X115.296 Y110.570 E0.62270
G1 X114.760 Y110.570 E0.01692
G1 X128.720 Y124.530 E0.62270
G1 X128.184 Y124.530 E0.01692
G1 X114.223 Y110.570 E0.62270
G1 X113.687 Y110.570 E0.01692
G1 X127.647 Y124.530 E0.62270
G1 X127.111 Y124.530 E0.01692
G1 X113.150 Y110.570 E0.62270
G1 X112.614 Y110.570 E0.01692
G1 X126.574 Y124.530 E0.62270
G1 X126.038 Y124.530 E0.01692
G1 X112.077 Y110.570 E0.62270
G1 X111.541 Y110.570 E0.01692
G1 X125.501 Y124.530 E0.62270
G1 X124.965 Y124.530 E0.01692
G1 X111.004 Y110.570 E0.62270
G1 X110.468 Y110.570 E0.01692
G1 X124.429 Y124.530 E0.62270
G1 X123.892 Y124.530 E0.01692
G1 X109.932 Y110.570 E0.62270
G1 X109.395 Y110.570 E0.01692
G1 X123.356 Y124.530 E0.62270
G1 X122.819 Y124.530 E0.01692
G1 X108.859 Y110.570 E0.62270
G1 X108.322 Y110.570 E0.01692
G1 X122.283 Y124.530 E0.62270
G1 X121.746 Y124.530 E0.01692
G1 X107.786 Y110.570 E0.62270
G1 X107.249 Y110.570 E0.01692
G1 X121.210 Y124.530 E0.62270
G1 X120.673 Y124.530 E0.01692
G1 X106.713 Y110.570 E0.62270
G1 X106.177 Y110.570 E0.01692
G1 X120.137 Y124.530 E0.62270
G1 X119.601 Y124.530 E0.01692
G1 X105.640 Y110.570 E0.62270
G1 X105.104 Y110.570 E0.01692
G1 X119.064 Y124.530 E0.62270
G1 X118.528 Y124.530 E0.01692
G1 X104.567 Y110.570 E0.62270
G1 X104.031 Y110.570 E0.01692
G1 X117.991 Y124.530 E0.62270
G1 X117.455 Y124.530 E0.01692
G1 X103.325 Y110.400 E0.63027
G1 E-3.50000 F3600.000
;WIPE_START
G1 F7200.000
G1 X105.446 Y112.522 E-1.42500
;WIPE_END
G1 E-0.07500 F3600.000
G1 X101.907 Y106.300 F9000.000
G1 E5.00000 F2400.000
G1 F1200.000
G1 X102.580 Y106.973 E0.03003
G1 X102.580 Y107.510 E0.01692
G1 X101.540 Y106.470 E0.04639
G1 X101.004 Y106.470 E0.01692
G1 X102.580 Y108.046 E0.07031
G1 X102.580 Y108.583 E0.01692
G1 X100.467 Y106.470 E0.09424
G1 X99.931 Y106.470 E0.01692
G1 X102.580 Y109.119 E0.11817
G1 X102.580 Y109.656 E0.01692
G1 X99.394 Y106.470 E0.14210
G1 X98.858 Y106.470 E0.01692
G1 X102.580 Y110.192 E0.16602
G1 X102.580 Y110.570 E0.01192
G1 X102.958 Y110.570 E0.01192
G1 X116.918 Y124.530 E0.62270
G1 X116.382 Y124.530 E0.01692
