; generated by PrusaSlicer 2.3.0 on 2022-12-29 at 16:11:56 UTC

; 

; external perimeters extrusion width = 0.45mm
; perimeters extrusion width = 0.45mm
; infill extrusion width = 0.45mm
; solid infill extrusion width = 0.45mm
; top infill extrusion width = 0.40mm
; first layer extrusion width = 0.42mm

M201 X500 Y500 Z100 E5000 ; sets maximum accelerations, mm/sec^2
M203 X500 Y500 Z10 E60 ; sets maximum feedrates, mm/sec
M204 P500 R1000 T500 ; sets acceleration (P, T) and retract acceleration (R), mm/sec^2
M205 X8.00 Y8.00 Z0.40 E5.00 ; sets the jerk limits, mm/sec
M205 S0 T0 ; sets the minimum extruding and travel feed rate, mm/sec
M107
;TYPE:Custom
G90 ; use absolute coordinates
M83 ; extruder relative mode
M104 S210 ; set extruder temp
M140 S60 ; set bed temp
M190 S60 ; wait for bed temp
M109 S210 ; wait for extruder temp
G28 ; home all
G1 Z2 F240
G1 X2 Y10 F3000
G1 Z0.28 F240
G92 E0
G1 Y190 E15 F1500 ; intro line
G1 X2.3 F5000
G92 E0
G1 Y10 E15 F1200 ; intro line
G92 E0
G21 ; set units to millimeters
G90 ; use absolute coordinates
M83 ; use relative distances for extrusion
; Filament gcode
;LAYER_CHANGE
;Z:0.2
;HEIGHT:0.2
;BEFORE_LAYER_CHANGE
G92 E0
;0.2


G1 E-5.00000 F3600.000
G1 Z0.200 F9000.000
;AFTER_LAYER_CHANGE
;0.2
G1 X89.927 Y102.602
G1 E5.00000 F2400.000
;TYPE:Skirt
;WIDTH:0.42
G1 F1200.000
G1 X90.491 Y102.236 E0.02107
G1 X90.973 Y102.073 E0.01597
G1 X91.480 Y102.017 E0.01597
G1 X138.841 Y102.017 E1.48498
G1 X139.470 Y102.102 E0.01989
G1 X140.056 Y102.353 E0.02000
G1 X142.559 Y104.238 E0.09826
G1 X142.992 Y104.752 E0.02104
G1 X143.297 Y105.286 E0.01928
G1 X143.507 Y105.867 E0.01938
G1 X143.617 Y106.510 E0.02047
G1 X143.627 Y111.636 E0.16072
G1 X143.191 Y124.614 E0.40712
G1 X142.952 Y125.369 E0.02484
G1 X141.508 Y127.896 E0.09125
G1 X141.070 Y128.401 E0.02095
G1 X140.509 Y128.764 E0.02095
G1 X140.027 Y128.927 E0.01597
G1 X139.520 Y128.983 E0.01597
G1 X92.026 Y128.979 E1.48916
G1 X91.472 Y128.881 E0.01763
G1 X90.954 Y128.653 E0.01775
G1 X88.779 Y127.059 E0.08452
G1 X88.214 Y126.515 E0.02461
G1 X87.702 Y125.711 E0.02989
G1 X87.490 Y125.122 E0.01962
G1 X87.382 Y124.467 E0.02082
G1 X87.372 Y119.409 E0.15857
G1 X87.803 Y106.435 E0.40701
G1 X88.043 Y105.641 E0.02602
G1 X89.486 Y103.114 E0.09125
G1 X89.888 Y102.647 E0.01931
G1 E-3.50000 F3600.000
;WIPE_START
G1 F7200.000
G1 X90.491 Y102.236 E-0.34662
G1 X90.973 Y102.073 E-0.24198
G1 X91.480 Y102.017 E-0.24198
G1 X92.731 Y102.017 E-0.59443
;WIPE_END
G1 E-0.07500 F3600.000
G1 X91.891 Y105.694 F9000.000
G1 E5.00000 F2400.000
;TYPE:Perimeter
G1 F1200.000
G1 X92.370 Y106.669 E0.03404
G1 X93.157 Y106.700 E0.02469
G1 X94.316 Y106.675 E0.03635
G1 X94.800 Y105.694 E0.03430
G1 X95.279 Y106.669 E0.03404
G1 X96.066 Y106.700 E0.02469
G1 X97.225 Y106.675 E0.03635
G1 X97.709 Y105.694 E0.03430
G1 X98.188 Y106.669 E0.03404
G1 X98.975 Y106.700 E0.02469
G1 X100.134 Y106.675 E0.03634
G1 X100.618 Y105.694 E0.03430
G1 X101.097 Y106.669 E0.03404
G1 X101.884 Y106.700 E0.02469
G1 X103.043 Y106.675 E0.03634
G1 X103.527 Y105.694 E0.03430
G1 X104.006 Y106.669 E0.03404
G1 X104.793 Y106.700 E0.02469
G1 X105.952 Y106.675 E0.03634
G1 X106.436 Y105.694 E0.03430
G1 X106.915 Y106.669 E0.03404
G1 X107.702 Y106.700 E0.02469
G1 X108.861 Y106.675 E0.03634
G1 X109.345 Y105.694 E0.03430
G1 X109.824 Y106.669 E0.03404
G1 X110.611 Y106.700 E0.02469
G1 X111.770 Y106.675 E0.03635
G1 X112.254 Y105.694 E0.03430
G1 X112.733 Y106.669 E0.03404
G1 X113.520 Y106.700 E0.02469
G1 X114.679 Y106.675 E0.03635
G1 X115.163 Y105.694 E0.03430
G1 X115.642 Y106.669 E0.03404
G1 X116.429 Y106.700 E0.02469
G1 X117.588 Y106.675 E0.03635
G1 X118.072 Y105.694 E0.03430
G1 X118.551 Y106.669 E0.03404
G1 X119.338 Y106.700 E0.02469
G1 X120.497 Y106.675 E0.03635
G1 X120.981 Y105.694 E0.03430
G1 X121.460 Y106.669 E0.03404
G1 X122.247 Y106.700 E0.02469
G1 X123.406 Y106.675 E0.03635
G1 X123.890 Y105.694 E0.03430
G1 X124.369 Y106.669 E0.03404
G1 X125.156 Y106.700 E0.02469
G1 X126.315 Y106.675 E0.03634
G1 X126.799 Y105.694 E0.03430
G1 X127.278 Y106.669 E0.03404
G1 X128.065 Y106.700 E0.02469
G1 X129.224 Y106.675 E0.03634
G1 X129.708 Y105.694 E0.03430
G1 X130.187 Y106.669 E0.03404
G1 X130.974 Y106.700 E0.02469
G1 X132.133 Y106.675 E0.03634
G1 X132.617 Y105.694 E0.03430
G1 X133.096 Y106.669 E0.03404
G1 X133.883 Y106.700 E0.02469
G1 X135.042 Y106.675 E0.03634
G1 X135.526 Y105.694 E0.03430
G1 X136.120 Y106.905 E0.04229
G1 X137.009 Y106.345 E0.03294
G1 X137.244 Y106.222 E0.00833
G1 X137.479 Y106.121 E0.00803
G1 X138.370 Y105.852 E0.02919
G1 X138.410 Y105.750 E0.00346
G1 X138.430 Y105.841 E0.00293
G1 X139.212 Y105.945 E0.02474
G1 X139.494 Y106.007 E0.00905
G1 X139.770 Y106.092 E0.00905
G1 X140.280 Y106.324 E0.01757
G1 X140.422 Y106.435 E0.00564
G1 X140.514 Y106.574 E0.00526
G1 X140.543 Y106.653 E0.00264
G1 X140.562 Y106.820 E0.00526
G1 X140.529 Y106.984 E0.00526
G1 X140.447 Y107.130 E0.00526
G1 X140.390 Y107.192 E0.00264
G1 X140.250 Y107.285 E0.00526
G1 X140.088 Y107.330 E0.00526
G1 X140.004 Y107.333 E0.00264
G1 X139.841 Y107.300 E0.00522
G1 X139.472 Y107.127 E0.01278
G1 X139.166 Y107.032 E0.01006
G1 X138.848 Y106.983 E0.01008
G1 X138.526 Y106.980 E0.01008
G1 X138.208 Y107.022 E0.01008
G1 X137.898 Y107.110 E0.01008
G1 X137.605 Y107.242 E0.01008
G1 X137.333 Y107.414 E0.01008
G1 X137.089 Y107.623 E0.01008
G1 X136.877 Y107.865 E0.01008
G1 X136.702 Y108.135 E0.01008
G1 X136.568 Y108.427 E0.01008
G1 X136.477 Y108.735 E0.01008
G1 X136.431 Y109.053 E0.01008
G1 X136.431 Y109.375 E0.01008
G1 X136.477 Y109.693 E0.01008
G1 X136.568 Y110.002 E0.01008
G1 X136.702 Y110.294 E0.01008
G1 X136.877 Y110.564 E0.01008
G1 X137.089 Y110.806 E0.01008
G1 X137.333 Y111.015 E0.01008
G1 X137.605 Y111.187 E0.01008
G1 X137.898 Y111.318 E0.01008
G1 X138.208 Y111.406 E0.01008
G1 X138.526 Y111.449 E0.01008
G1 X138.848 Y111.446 E0.01008
G1 X139.166 Y111.396 E0.01008
G1 X139.472 Y111.302 E0.01005
G1 X139.921 Y111.106 E0.01535
G1 X140.088 Y111.099 E0.00526
G1 X140.250 Y111.144 E0.00525
G1 X140.390 Y111.237 E0.00526
G1 X140.447 Y111.298 E0.00264
G1 X140.529 Y111.444 E0.00525
G1 X140.562 Y111.608 E0.00526
G1 X140.559 Y111.693 E0.00264
G1 X140.514 Y111.854 E0.00526
G1 X140.422 Y111.994 E0.00525
G1 X140.280 Y112.104 E0.00563
G1 X140.031 Y112.231 E0.00877
G1 X139.760 Y112.340 E0.00914
G1 X139.481 Y112.424 E0.00914
G1 X139.196 Y112.483 E0.00915
G1 X138.906 Y112.518 E0.00914
G1 X138.614 Y112.526 E0.00914
G1 X138.323 Y112.509 E0.00915
G1 X138.035 Y112.466 E0.00914
G1 X137.751 Y112.398 E0.00914
G1 X137.475 Y112.306 E0.00914
G1 X137.207 Y112.189 E0.00914
G1 X136.951 Y112.049 E0.00914
G1 X136.708 Y111.888 E0.00914
G1 X136.481 Y111.705 E0.00915
G1 X136.270 Y111.504 E0.00914
G1 X135.853 Y111.027 E0.01986
G1 X90.851 Y111.027 E1.41101
G1 X90.851 Y107.026 E0.12546
G1 X91.533 Y106.427 E0.02846
G1 X91.870 Y105.751 E0.02370
G1 E-3.50000 F3600.000
;WIPE_START
G1 F7200.000
G1 X92.370 Y106.669 E-0.49670
G1 X93.157 Y106.700 E-0.37401
G1 X94.316 Y106.675 E-0.55061
G1 X94.319 Y106.669 E-0.00368
;WIPE_END
G1 E-0.07500 F3600.000
G1 X133.334 Y106.301 F9000.000
G1 E5.00000 F2400.000
;TYPE:External perimeter
G1 F1200.000
G1 X133.886 Y106.323 E0.01733
G1 X134.807 Y106.303 E0.02888
G1 X135.150 Y105.622 E0.02391
G1 X135.303 Y105.219 E0.01352
G1 X135.334 Y104.960 E0.00817
G1 X135.403 Y104.827 E0.00471
G1 X135.412 Y104.702 E0.00393
G1 X135.639 Y104.703 E0.00713
G1 X135.645 Y104.785 E0.00258
G1 X135.723 Y104.976 E0.00645
G1 X135.739 Y105.174 E0.00622
G1 X135.888 Y105.587 E0.01379
G1 X136.272 Y106.363 E0.02716
G1 X136.820 Y106.018 E0.02030
G1 X137.082 Y105.881 E0.00926
G1 X137.350 Y105.766 E0.00916
G1 X138.085 Y105.544 E0.02408
G1 X138.210 Y105.223 E0.01080
G1 X138.252 Y104.959 E0.00840
G1 X138.313 Y104.820 E0.00474
G1 X138.322 Y104.701 E0.00375
G1 X138.550 Y104.701 E0.00717
G1 X138.742 Y105.502 E0.02583
G1 X139.278 Y105.573 E0.01694
G1 X139.590 Y105.642 E0.01003
G1 X139.896 Y105.736 E0.01004
G1 X140.192 Y105.856 E0.01001
G1 X140.595 Y106.081 E0.01448
G1 X140.789 Y106.292 E0.00897
G1 X140.858 Y106.417 E0.00450
G1 X140.908 Y106.552 E0.00450
G1 X140.940 Y106.836 E0.00897
G1 X140.884 Y107.116 E0.00897
G1 X140.743 Y107.365 E0.00897
G1 X140.645 Y107.470 E0.00450
G1 X140.407 Y107.629 E0.00897
G1 X140.132 Y107.705 E0.00897
G1 X139.846 Y107.693 E0.00897
G1 X139.708 Y107.654 E0.00448
G1 X139.336 Y107.479 E0.01290
G1 X139.081 Y107.401 E0.00837
G1 X138.817 Y107.360 E0.00838
G1 X138.549 Y107.357 E0.00838
G1 X138.285 Y107.392 E0.00838
G1 X138.028 Y107.466 E0.00838
G1 X137.784 Y107.575 E0.00838
G1 X137.558 Y107.718 E0.00838
G1 X137.355 Y107.892 E0.00838
G1 X137.179 Y108.093 E0.00838
G1 X137.033 Y108.317 E0.00838
G1 X136.922 Y108.560 E0.00838
G1 X136.846 Y108.816 E0.00838
G1 X136.808 Y109.081 E0.00838
G1 X136.808 Y109.348 E0.00838
G1 X136.846 Y109.612 E0.00838
G1 X136.922 Y109.869 E0.00838
G1 X137.033 Y110.111 E0.00838
G1 X137.179 Y110.336 E0.00838
G1 X137.355 Y110.537 E0.00838
G1 X137.558 Y110.711 E0.00838
G1 X137.784 Y110.854 E0.00838
G1 X138.028 Y110.963 E0.00838
G1 X138.285 Y111.036 E0.00838
G1 X138.549 Y111.072 E0.00838
G1 X138.817 Y111.069 E0.00838
G1 X139.081 Y111.028 E0.00838
G1 X139.336 Y110.949 E0.00837
G1 X139.708 Y110.775 E0.01290
G1 X139.988 Y110.718 E0.00895
G1 X140.272 Y110.751 E0.00897
G1 X140.533 Y110.870 E0.00897
G1 X140.645 Y110.958 E0.00450
G1 X140.823 Y111.182 E0.00897
G1 X140.884 Y111.312 E0.00450
G1 X140.940 Y111.592 E0.00897
G1 X140.908 Y111.877 E0.00897
G1 X140.789 Y112.137 E0.00897
G1 X140.700 Y112.249 E0.00450
G1 X140.472 Y112.430 E0.00914
G1 X140.187 Y112.575 E0.01002
G1 X139.885 Y112.696 E0.01019
G1 X139.574 Y112.790 E0.01019
G1 X139.256 Y112.856 E0.01019
G1 X138.934 Y112.894 E0.01019
G1 X138.609 Y112.904 E0.01019
G1 X138.285 Y112.884 E0.01019
G1 X137.963 Y112.837 E0.01019
G1 X137.647 Y112.761 E0.01019
G1 X137.339 Y112.658 E0.01019
G1 X137.041 Y112.528 E0.01019
G1 X136.756 Y112.373 E0.01019
G1 X136.486 Y112.193 E0.01019
G1 X136.232 Y111.989 E0.01019
G1 X135.997 Y111.765 E0.01019
G1 X135.682 Y111.404 E0.01502
G1 X90.474 Y111.404 E1.41747
G1 X90.474 Y106.855 E0.14265
G1 X91.229 Y106.192 E0.03151
G1 X91.515 Y105.622 E0.02001
G1 X91.668 Y105.219 E0.01351
G1 X91.699 Y104.960 E0.00817
G1 X91.768 Y104.827 E0.00471
G1 X91.777 Y104.700 E0.00398
G1 X92.004 Y104.700 E0.00712
G1 X92.010 Y104.785 E0.00269
G1 X92.088 Y104.976 E0.00646
G1 X92.104 Y105.174 E0.00622
G1 X92.253 Y105.587 E0.01379
G1 X92.608 Y106.301 E0.02499
G1 X93.160 Y106.323 E0.01733
G1 X94.081 Y106.303 E0.02888
G1 X94.424 Y105.622 E0.02391
G1 X94.577 Y105.219 E0.01352
G1 X94.608 Y104.960 E0.00817
G1 X94.677 Y104.827 E0.00471
G1 X94.686 Y104.700 E0.00398
G1 X94.913 Y104.700 E0.00712
G1 X94.919 Y104.785 E0.00269
G1 X94.997 Y104.976 E0.00646
G1 X95.013 Y105.174 E0.00622
G1 X95.162 Y105.587 E0.01379
G1 X95.517 Y106.301 E0.02499
G1 X96.069 Y106.323 E0.01733
G1 X96.990 Y106.303 E0.02888
G1 X97.333 Y105.622 E0.02391
G1 X97.486 Y105.219 E0.01352
G1 X97.517 Y104.960 E0.00817
G1 X97.586 Y104.827 E0.00471
G1 X97.595 Y104.700 E0.00398
G1 X97.822 Y104.700 E0.00712
G1 X97.828 Y104.785 E0.00269
G1 X97.906 Y104.976 E0.00646
G1 X97.922 Y105.174 E0.00622
G1 X98.071 Y105.587 E0.01379
G1 X98.426 Y106.301 E0.02499
G1 X98.978 Y106.323 E0.01733
G1 X99.899 Y106.303 E0.02888
G1 X100.242 Y105.622 E0.02391
G1 X100.395 Y105.219 E0.01352
G1 X100.426 Y104.960 E0.00817
G1 X100.495 Y104.827 E0.00471
G1 X100.504 Y104.700 E0.00398
G1 X100.731 Y104.700 E0.00712
G1 X100.737 Y104.785 E0.00269
G1 X100.815 Y104.976 E0.00646
G1 X100.831 Y105.174 E0.00622
G1 X100.980 Y105.587 E0.01379
G1 X101.335 Y106.301 E0.02499
G1 X101.887 Y106.323 E0.01733
G1 X102.808 Y106.303 E0.02888
G1 X103.151 Y105.622 E0.02391
G1 X103.304 Y105.219 E0.01352
G1 X103.335 Y104.960 E0.00817
G1 X103.404 Y104.827 E0.00471
G1 X103.413 Y104.700 E0.00398
G1 X103.640 Y104.700 E0.00712
G1 X103.646 Y104.785 E0.00269
G1 X103.724 Y104.976 E0.00646
G1 X103.740 Y105.174 E0.00622
G1 X103.889 Y105.587 E0.01379
G1 X104.244 Y106.301 E0.02499
G1 X104.796 Y106.323 E0.01733
G1 X105.717 Y106.303 E0.02888
G1 X106.060 Y105.622 E0.02391
G1 X106.213 Y105.219 E0.01352
G1 X106.244 Y104.960 E0.00817
G1 X106.313 Y104.827 E0.00471
G1 X106.322 Y104.700 E0.00398
G1 X106.549 Y104.700 E0.00712
G1 X106.555 Y104.785 E0.00269
G1 X106.633 Y104.976 E0.00646
G1 X106.649 Y105.174 E0.00622
G1 X106.798 Y105.587 E0.01379
G1 X107.153 Y106.301 E0.02499
G1 X107.705 Y106.323 E0.01733
G1 X108.626 Y106.303 E0.02888
G1 X108.969 Y105.622 E0.02391
G1 X109.122 Y105.219 E0.01352
G1 X109.153 Y104.960 E0.00817
G1 X109.222 Y104.827 E0.00471
G1 X109.231 Y104.700 E0.00398
G1 X109.458 Y104.700 E0.00712
G1 X109.464 Y104.785 E0.00269
G1 X109.542 Y104.976 E0.00646
G1 X109.558 Y105.174 E0.00622
G1 X109.707 Y105.587 E0.01379
G1 X110.062 Y106.301 E0.02499
G1 X110.614 Y106.323 E0.01732
G1 X111.535 Y106.303 E0.02888
G1 X111.878 Y105.622 E0.02391
G1 X112.031 Y105.219 E0.01352
G1 X112.062 Y104.960 E0.00817
G1 X112.131 Y104.827 E0.00471
G1 X112.140 Y104.700 E0.00398
G1 X112.367 Y104.700 E0.00712
G1 X112.373 Y104.785 E0.00269
G1 X112.451 Y104.976 E0.00646
G1 X112.467 Y105.174 E0.00622
G1 X112.616 Y105.587 E0.01379
G1 X112.971 Y106.301 E0.02499
G1 X113.523 Y106.323 E0.01732
G1 X114.444 Y106.303 E0.02888
G1 X114.787 Y105.622 E0.02391
G1 X114.940 Y105.219 E0.01352
G1 X114.971 Y104.960 E0.00817
G1 X115.040 Y104.827 E0.00471
G1 X115.049 Y104.700 E0.00398
G1 X115.276 Y104.700 E0.00712
G1 X115.282 Y104.785 E0.00269
G1 X115.360 Y104.976 E0.00646
G1 X115.376 Y105.174 E0.00622
G1 X115.525 Y105.587 E0.01379
G1 X115.880 Y106.301 E0.02499
G1 X116.432 Y106.323 E0.01732
G1 X117.353 Y106.303 E0.02888
G1 X117.696 Y105.622 E0.02391
G1 X117.849 Y105.219 E0.01352
G1 X117.880 Y104.960 E0.00817
G1 X117.949 Y104.827 E0.00471
G1 X117.958 Y104.700 E0.00398
G1 X118.185 Y104.700 E0.00712
G1 X118.191 Y104.785 E0.00269
G1 X118.269 Y104.976 E0.00646
G1 X118.285 Y105.174 E0.00622
G1 X118.434 Y105.587 E0.01379
G1 X118.789 Y106.301 E0.02499
G1 X119.341 Y106.323 E0.01733
G1 X120.262 Y106.303 E0.02888
G1 X120.605 Y105.622 E0.02391
G1 X120.758 Y105.219 E0.01352
G1 X120.789 Y104.960 E0.00817
G1 X120.858 Y104.827 E0.00471
G1 X120.867 Y104.700 E0.00398
G1 X121.094 Y104.700 E0.00712
G1 X121.100 Y104.785 E0.00269
G1 X121.178 Y104.976 E0.00646
G1 X121.194 Y105.174 E0.00622
G1 X121.343 Y105.587 E0.01379
G1 X121.698 Y106.301 E0.02499
G1 X122.250 Y106.323 E0.01733
G1 X123.171 Y106.303 E0.02888
G1 X123.514 Y105.622 E0.02391
G1 X123.667 Y105.219 E0.01352
G1 X123.698 Y104.960 E0.00817
G1 X123.767 Y104.827 E0.00471
G1 X123.776 Y104.700 E0.00398
G1 X124.003 Y104.700 E0.00712
G1 X124.009 Y104.785 E0.00269
G1 X124.087 Y104.976 E0.00646
G1 X124.103 Y105.174 E0.00622
G1 X124.252 Y105.587 E0.01379
G1 X124.607 Y106.301 E0.02499
G1 X125.159 Y106.323 E0.01733
G1 X126.080 Y106.303 E0.02888
G1 X126.423 Y105.622 E0.02391
G1 X126.576 Y105.219 E0.01352
G1 X126.607 Y104.960 E0.00817
G1 X126.676 Y104.827 E0.00471
G1 X126.685 Y104.700 E0.00398
G1 X126.912 Y104.700 E0.00712
G1 X126.918 Y104.785 E0.00269
G1 X126.996 Y104.976 E0.00646
G1 X127.012 Y105.174 E0.00622
G1 X127.161 Y105.587 E0.01379
G1 X127.516 Y106.301 E0.02499
G1 X128.068 Y106.323 E0.01733
G1 X128.989 Y106.303 E0.02888
G1 X129.332 Y105.622 E0.02391
G1 X129.485 Y105.219 E0.01352
G1 X129.516 Y104.960 E0.00817
G1 X129.585 Y104.827 E0.00471
G1 X129.594 Y104.700 E0.00398
G1 X129.821 Y104.700 E0.00712
G1 X129.827 Y104.785 E0.00269
G1 X129.905 Y104.976 E0.00646
G1 X129.921 Y105.174 E0.00622
G1 X130.070 Y105.587 E0.01379
G1 X130.425 Y106.301 E0.02499
G1 X130.977 Y106.323 E0.01733
G1 X131.898 Y106.303 E0.02888
G1 X132.241 Y105.622 E0.02391
G1 X132.394 Y105.219 E0.01352
G1 X132.425 Y104.960 E0.00817
G1 X132.494 Y104.827 E0.00471
G1 X132.503 Y104.700 E0.00398
G1 X132.730 Y104.700 E0.00712
G1 X132.736 Y104.785 E0.00269
G1 X132.814 Y104.976 E0.00646
G1 X132.830 Y105.174 E0.00622
G1 X132.979 Y105.587 E0.01379
G1 X133.307 Y106.247 E0.02310
G1 X133.380 Y106.698 F9000.000
G1 E-3.50000 F3600.000
;WIPE_START
G1 F7200.000
G1 X133.886 Y106.323 E-0.27729
G1 X134.807 Y106.303 E-0.43747
G1 X135.150 Y105.622 E-0.36224
G1 X135.303 Y105.219 E-0.20483
G1 X135.334 Y104.960 E-0.12384
