; generated by PrusaSlicer 2.3.0 on 2023-01-02 at 18:36:23 UTC

; 

; external perimeters extrusion width = 0.45mm
; perimeters extrusion width = 0.45mm
; infill extrusion width = 0.45mm
; solid infill extrusion width = 0.45mm
; top infill extrusion width = 0.40mm
; first layer extrusion width = 0.42mm

M201 X500 Y500 Z100 E5000 ; sets maximum accelerations, mm/sec^2
M203 X500 Y500 Z10 E60 ; sets maximum feedrates, mm/sec
M204 P500 R1000 T500 ; sets acceleration (P, T) and retract acceleration (R), mm/sec^2
M205 X8.00 Y8.00 Z0.40 E5.00 ; sets the jerk limits, mm/sec
M205 S0 T0 ; sets the minimum extruding and travel feed rate, mm/sec
M107
;TYPE:Custom
G90 ; use absolute coordinates
M83 ; extruder relative mode
M104 S210 ; set extruder temp
M140 S60 ; set bed temp
M190 S60 ; wait for bed temp
M109 S210 ; wait for extruder temp
G28 ; home all
G1 Z2 F240
G1 X2 Y10 F3000
G1 Z0.28 F240
G92 E0
G1 Y190 E15 F1500 ; intro line
G1 X2.3 F5000
G92 E0
G1 Y10 E15 F1200 ; intro line
G92 E0
G21 ; set units to millimeters
G90 ; use absolute coordinates
M83 ; use relative distances for extrusion
; Filament gcode
;LAYER_CHANGE
;Z:0.2
;HEIGHT:0.2
;BEFORE_LAYER_CHANGE
G92 E0
;0.2


G1 E-3.00000 F3600.000
G1 Z0.200 F9000.000
;AFTER_LAYER_CHANGE
;0.2
G1 X125.168 Y102.963
G1 E3.00000 F2400.000
;TYPE:Skirt
;WIDTH:0.42
G1 F1200.000
G1 X125.979 Y103.419 E0.02917
G1 X126.797 Y104.334 E0.03850
G1 X127.648 Y105.565 E0.04692
G1 X128.386 Y106.919 E0.04832
G1 X128.970 Y108.336 E0.04807
G1 X129.392 Y109.778 E0.04712
G1 X129.671 Y111.360 E0.05037
G1 X129.771 Y112.783 E0.04470
G1 X129.718 Y114.309 E0.04789
G1 X129.509 Y115.790 E0.04691
G1 X129.145 Y117.246 E0.04704
G1 X128.621 Y118.676 E0.04775
G1 X127.965 Y120.012 E0.04668
G1 X127.146 Y121.309 E0.04810
G1 X126.253 Y122.443 E0.04526
G1 X124.519 Y124.120 E0.07562
G1 X123.362 Y124.971 E0.04504
G1 X122.040 Y125.745 E0.04803
G1 X120.682 Y126.357 E0.04669
G1 X119.323 Y126.809 E0.04490
G1 X117.887 Y127.129 E0.04615
G1 X116.874 Y127.263 E0.03203
G1 X115.475 Y127.331 E0.04392
G1 X113.984 Y127.250 E0.04680
G1 X112.515 Y127.015 E0.04666
G1 X111.142 Y126.648 E0.04455
G1 X110.192 Y126.305 E0.03170
G1 X108.852 Y125.687 E0.04627
G1 X107.624 Y124.961 E0.04471
G1 X106.387 Y124.043 E0.04829
G1 X105.302 Y123.044 E0.04625
G1 X104.319 Y121.929 E0.04660
G1 X103.448 Y120.704 E0.04715
G1 X102.757 Y119.483 E0.04399
G1 X102.332 Y118.563 E0.03178
G1 X101.833 Y117.172 E0.04631
G1 X101.489 Y115.783 E0.04488
G1 X101.279 Y114.276 E0.04770
G1 X101.229 Y112.779 E0.04695
G1 X101.330 Y111.349 E0.04495
G1 X101.582 Y109.898 E0.04617
G1 X101.844 Y108.910 E0.03205
G1 X102.314 Y107.595 E0.04380
G1 X102.959 Y106.243 E0.04697
G1 X103.730 Y104.984 E0.04630
G1 X104.650 Y103.784 E0.04739
G1 X105.056 Y103.392 E0.01771
G1 X105.533 Y103.090 E0.01771
G1 X106.062 Y102.893 E0.01771
G1 X106.621 Y102.807 E0.01771
G1 X124.247 Y102.804 E0.55267
G1 X125.109 Y102.953 E0.02741
G1 X125.042 Y103.324 F9000.000
G1 F1200.000
G1 X125.795 Y103.757 E0.02725
G1 X126.537 Y104.615 E0.03557
G1 X127.417 Y105.913 E0.04916
G1 X128.309 Y107.670 E0.06178
G1 X128.799 Y109.032 E0.04538
G1 X129.171 Y110.564 E0.04943
G1 X129.357 Y112.019 E0.04599
G1 X129.389 Y113.492 E0.04619
G1 X129.275 Y114.884 E0.04380
G1 X128.997 Y116.363 E0.04717
G1 X128.748 Y117.248 E0.02883
G1 X128.271 Y118.536 E0.04309
G1 X127.627 Y119.842 E0.04564
G1 X126.831 Y121.102 E0.04673
G1 X125.912 Y122.261 E0.04639
G1 X124.900 Y123.292 E0.04527
G1 X123.762 Y124.231 E0.04626
G1 X122.544 Y125.036 E0.04579
G1 X121.325 Y125.673 E0.04315
G1 X120.419 Y126.052 E0.03077
G1 X119.050 Y126.492 E0.04509
G1 X117.691 Y126.780 E0.04356
G1 X116.244 Y126.934 E0.04561
G1 X114.762 Y126.934 E0.04648
G1 X113.368 Y126.789 E0.04394
G1 X111.093 Y126.236 E0.07342
G1 X109.791 Y125.727 E0.04384
G1 X108.462 Y125.040 E0.04689
G1 X107.249 Y124.239 E0.04557
G1 X106.134 Y123.323 E0.04525
G1 X105.081 Y122.253 E0.04707
G1 X104.214 Y121.164 E0.04364
G1 X103.010 Y119.148 E0.07363
G1 X102.455 Y117.847 E0.04435
G1 X102.020 Y116.434 E0.04635
G1 X101.741 Y115.002 E0.04574
G1 X101.617 Y113.636 E0.04303
G1 X101.612 Y112.648 E0.03096
G1 X101.726 Y111.221 E0.04488
G1 X101.978 Y109.856 E0.04353
G1 X102.382 Y108.472 E0.04522
G1 X102.951 Y107.090 E0.04686
G1 X103.619 Y105.851 E0.04412
G1 X104.989 Y103.968 E0.07302
G1 X105.746 Y103.406 E0.02954
G1 X106.661 Y103.183 E0.02954
G1 X124.247 Y103.181 E0.55140
G1 X124.983 Y103.313 E0.02344
G1 E-2.10000 F3600.000
;WIPE_START
G1 F7200.000
G1 X125.795 Y103.757 E-0.43979
G1 X126.367 Y104.418 E-0.41521
;WIPE_END
G1 E-0.04500 F3600.000
G1 X117.460 Y111.217 F9000.000
G1 E3.00000 F2400.000
;TYPE:Perimeter
G1 F1200.000
G1 X117.675 Y111.477 E0.01059
G1 X117.856 Y111.763 E0.01059
G1 X118.000 Y112.068 E0.01059
G1 X118.104 Y112.389 E0.01059
G1 X118.167 Y112.721 E0.01059
G1 X118.188 Y113.058 E0.01059
G1 X118.167 Y113.395 E0.01059
G1 X118.104 Y113.726 E0.01059
G1 X118.000 Y114.047 E0.01059
G1 X117.856 Y114.353 E0.01059
G1 X117.675 Y114.638 E0.01059
G1 X117.460 Y114.898 E0.01059
G1 X117.214 Y115.129 E0.01059
G1 X116.941 Y115.328 E0.01059
G1 X116.645 Y115.490 E0.01059
G1 X116.331 Y115.615 E0.01059
G1 X116.004 Y115.699 E0.01059
G1 X115.669 Y115.741 E0.01059
G1 X115.331 Y115.741 E0.01059
G1 X114.996 Y115.699 E0.01059
G1 X114.669 Y115.615 E0.01059
G1 X114.355 Y115.490 E0.01059
G1 X114.071 Y115.334 E0.01016
G1 X113.787 Y115.130 E0.01095
G1 X113.540 Y114.898 E0.01064
G1 X113.334 Y114.648 E0.01017
G1 X113.145 Y114.354 E0.01095
G1 X113.000 Y114.047 E0.01064
G1 X112.896 Y113.726 E0.01059
G1 X112.833 Y113.395 E0.01059
G1 X112.812 Y113.058 E0.01059
G1 X112.833 Y112.721 E0.01059
G1 X112.896 Y112.389 E0.01059
G1 X113.000 Y112.068 E0.01059
G1 X113.144 Y111.763 E0.01059
G1 X113.318 Y111.489 E0.01016
G1 X113.539 Y111.218 E0.01095
G1 X113.786 Y110.986 E0.01064
G1 X114.059 Y110.788 E0.01059
G1 X114.355 Y110.625 E0.01059
G1 X114.669 Y110.501 E0.01059
G1 X114.996 Y110.417 E0.01059
G1 X115.331 Y110.375 E0.01059
G1 X115.669 Y110.375 E0.01059
G1 X116.004 Y110.417 E0.01059
G1 X116.331 Y110.501 E0.01059
G1 X116.645 Y110.625 E0.01059
G1 X116.941 Y110.788 E0.01059
G1 X117.214 Y110.986 E0.01059
G1 X117.416 Y111.176 E0.00870
G1 X117.158 Y111.451 F9000.000
;TYPE:External perimeter
G1 F1200.000
G1 X117.369 Y111.700 E0.01023
G1 X117.525 Y111.945 E0.00910
G1 X117.648 Y112.207 E0.00910
G1 X117.738 Y112.483 E0.00910
G1 X117.792 Y112.768 E0.00910
G1 X117.811 Y113.058 E0.00910
G1 X117.792 Y113.347 E0.00910
G1 X117.738 Y113.632 E0.00910
G1 X117.648 Y113.908 E0.00910
G1 X117.525 Y114.171 E0.00910
G1 X117.369 Y114.416 E0.00910
G1 X117.184 Y114.639 E0.00910
G1 X116.973 Y114.838 E0.00910
G1 X116.738 Y115.009 E0.00910
G1 X116.484 Y115.148 E0.00910
G1 X116.214 Y115.255 E0.00910
G1 X115.933 Y115.327 E0.00910
G1 X115.645 Y115.364 E0.00910
G1 X115.355 Y115.364 E0.00910
G1 X115.067 Y115.327 E0.00910
G1 X114.786 Y115.255 E0.00910
G1 X114.516 Y115.148 E0.00910
G1 X114.273 Y115.015 E0.00871
G1 X114.028 Y114.838 E0.00947
G1 X113.816 Y114.639 E0.00912
G1 X113.639 Y114.425 E0.00871
G1 X113.475 Y114.171 E0.00947
G1 X113.352 Y113.908 E0.00912
G1 X113.262 Y113.632 E0.00910
G1 X113.208 Y113.347 E0.00910
G1 X113.189 Y113.058 E0.00910
G1 X113.208 Y112.768 E0.00910
G1 X113.262 Y112.483 E0.00910
G1 X113.352 Y112.207 E0.00910
G1 X113.475 Y111.945 E0.00910
G1 X113.624 Y111.710 E0.00871
G1 X113.815 Y111.476 E0.00947
G1 X114.027 Y111.277 E0.00912
G1 X114.262 Y111.107 E0.00910
G1 X114.516 Y110.967 E0.00910
G1 X114.786 Y110.860 E0.00910
G1 X115.067 Y110.788 E0.00910
G1 X115.355 Y110.752 E0.00910
G1 X115.645 Y110.752 E0.00910
G1 X115.933 Y110.788 E0.00910
G1 X116.214 Y110.860 E0.00910
G1 X116.484 Y110.967 E0.00910
G1 X116.738 Y111.107 E0.00910
G1 X116.973 Y111.277 E0.00910
G1 X117.114 Y111.410 E0.00608
G1 X117.475 Y111.373 F9000.000
G1 E-2.10000 F3600.000
;WIPE_START
G1 F7200.000
G1 X117.369 Y111.700 E-0.18329
G1 X117.525 Y111.945 E-0.13783
G1 X117.648 Y112.207 E-0.13783
G1 X117.738 Y112.483 E-0.13783
G1 X117.792 Y112.768 E-0.13783
G1 X117.808 Y113.021 E-0.12039
;WIPE_END
G1 E-0.04500 F3600.000
G1 X119.912 Y112.480 F9000.000
G1 E3.00000 F2400.000
;TYPE:Perimeter
G1 F1200.000
G1 X120.037 Y112.213 E0.00923
G1 X120.206 Y111.972 E0.00923
G1 X120.414 Y111.763 E0.00924
G1 X120.655 Y111.594 E0.00923
G1 X120.922 Y111.470 E0.00924
G1 X121.207 Y111.394 E0.00924
G1 X121.483 Y111.369 E0.00870
G1 X121.790 Y111.393 E0.00966
G1 X122.078 Y111.470 E0.00934
G1 X122.345 Y111.594 E0.00924
G1 X122.586 Y111.763 E0.00924
G1 X122.794 Y111.972 E0.00923
G1 X122.963 Y112.213 E0.00923
G1 X123.088 Y112.480 E0.00924
G1 X123.164 Y112.764 E0.00924
G1 X123.190 Y113.058 E0.00923
G1 X123.164 Y113.351 E0.00923
G1 X123.088 Y113.636 E0.00924
G1 X122.963 Y113.903 E0.00924
G1 X122.794 Y114.144 E0.00923
G1 X122.586 Y114.352 E0.00923
G1 X122.345 Y114.521 E0.00924
G1 X122.078 Y114.646 E0.00924
G1 X121.793 Y114.722 E0.00923
G1 X121.500 Y114.747 E0.00923
G1 X121.207 Y114.722 E0.00923
G1 X120.922 Y114.646 E0.00923
G1 X120.655 Y114.521 E0.00924
G1 X120.414 Y114.352 E0.00923
G1 X120.206 Y114.144 E0.00923
G1 X120.037 Y113.903 E0.00924
G1 X119.912 Y113.636 E0.00923
G1 X119.836 Y113.351 E0.00924
G1 X119.810 Y113.058 E0.00923
G1 X119.836 Y112.764 E0.00923
G1 X119.897 Y112.538 E0.00735
G1 X120.261 Y112.635 F9000.000
;TYPE:External perimeter
G1 F1200.000
G1 X120.364 Y112.402 E0.00800
G1 X120.496 Y112.215 E0.00717
G1 X120.657 Y112.053 E0.00717
G1 X120.844 Y111.922 E0.00717
G1 X121.052 Y111.826 E0.00717
G1 X121.272 Y111.766 E0.00717
G1 X121.485 Y111.748 E0.00670
G1 X121.726 Y111.766 E0.00759
G1 X121.948 Y111.826 E0.00720
G1 X122.156 Y111.922 E0.00717
G1 X122.343 Y112.053 E0.00717
G1 X122.504 Y112.215 E0.00717
G1 X122.636 Y112.402 E0.00717
G1 X122.732 Y112.609 E0.00717
G1 X122.791 Y112.830 E0.00717
G1 X122.811 Y113.058 E0.00717
G1 X122.791 Y113.285 E0.00717
G1 X122.732 Y113.506 E0.00717
G1 X122.636 Y113.713 E0.00717
G1 X122.504 Y113.901 E0.00717
G1 X122.343 Y114.062 E0.00717
G1 X122.156 Y114.193 E0.00717
G1 X121.948 Y114.290 E0.00717
G1 X121.728 Y114.349 E0.00717
G1 X121.500 Y114.369 E0.00717
G1 X121.272 Y114.349 E0.00717
G1 X121.052 Y114.290 E0.00717
G1 X120.844 Y114.193 E0.00717
G1 X120.657 Y114.062 E0.00717
G1 X120.496 Y113.901 E0.00717
G1 X120.364 Y113.713 E0.00717
G1 X120.268 Y113.506 E0.00717
G1 X120.209 Y113.285 E0.00717
G1 X120.189 Y113.058 E0.00717
G1 X120.209 Y112.830 E0.00717
G1 X120.245 Y112.693 E0.00444
G1 X120.094 Y112.442 F9000.000
G1 E-2.10000 F3600.000
;WIPE_START
G1 F7200.000
G1 X120.364 Y112.402 E-0.14943
G1 X120.496 Y112.215 E-0.10856
G1 X120.657 Y112.053 E-0.10857
G1 X120.844 Y111.922 E-0.10856
G1 X121.052 Y111.826 E-0.10856
G1 X121.272 Y111.766 E-0.10857
G1 X121.485 Y111.748 E-0.10149
G1 X121.614 Y111.758 E-0.06125
;WIPE_END
G1 E-0.04500 F3600.000
G1 X111.190 Y113.058 F9000.000
G1 E3.00000 F2400.000
;TYPE:Perimeter
G1 F1200.000
G1 X111.164 Y113.351 E0.00923
G1 X111.088 Y113.636 E0.00924
G1 X110.963 Y113.903 E0.00924
G1 X110.794 Y114.144 E0.00923
G1 X110.586 Y114.352 E0.00923
G1 X110.345 Y114.521 E0.00924
G1 X110.078 Y114.646 E0.00924
G1 X109.793 Y114.722 E0.00923
G1 X109.500 Y114.747 E0.00923
G1 X109.207 Y114.722 E0.00923
G1 X108.922 Y114.646 E0.00924
G1 X108.655 Y114.521 E0.00924
G1 X108.414 Y114.352 E0.00923
G1 X108.206 Y114.144 E0.00923
G1 X108.037 Y113.903 E0.00924
G1 X107.912 Y113.636 E0.00923
G1 X107.836 Y113.351 E0.00924
G1 X107.810 Y113.058 E0.00923
G1 X107.836 Y112.764 E0.00923
G1 X107.912 Y112.480 E0.00924
G1 X108.037 Y112.213 E0.00923
G1 X108.206 Y111.972 E0.00923
G1 X108.414 Y111.763 E0.00924
G1 X108.655 Y111.594 E0.00923
G1 X108.922 Y111.470 E0.00924
G1 X109.207 Y111.394 E0.00924
G1 X109.483 Y111.369 E0.00870
G1 X109.790 Y111.393 E0.00966
G1 X110.078 Y111.470 E0.00934
G1 X110.345 Y111.594 E0.00924
G1 X110.586 Y111.763 E0.00924
G1 X110.794 Y111.972 E0.00923
G1 X110.963 Y112.213 E0.00923
G1 X111.088 Y112.480 E0.00924
G1 X111.164 Y112.764 E0.00924
G1 X111.184 Y112.998 E0.00735
G1 X110.809 Y113.031 F9000.000
;TYPE:External perimeter
G1 F1200.000
G1 X110.791 Y113.285 E0.00800
G1 X110.732 Y113.506 E0.00717
G1 X110.636 Y113.713 E0.00717
G1 X110.504 Y113.901 E0.00717
G1 X110.343 Y114.062 E0.00717
G1 X110.156 Y114.193 E0.00717
G1 X109.948 Y114.290 E0.00717
G1 X109.728 Y114.349 E0.00717
G1 X109.500 Y114.369 E0.00717
G1 X109.272 Y114.349 E0.00717
G1 X109.052 Y114.290 E0.00717
G1 X108.844 Y114.193 E0.00717
G1 X108.657 Y114.062 E0.00717
G1 X108.496 Y113.901 E0.00717
G1 X108.364 Y113.713 E0.00717
G1 X108.268 Y113.506 E0.00717
G1 X108.209 Y113.285 E0.00717
G1 X108.189 Y113.058 E0.00717
G1 X108.209 Y112.830 E0.00717
G1 X108.268 Y112.609 E0.00717
G1 X108.364 Y112.402 E0.00717
G1 X108.496 Y112.215 E0.00717
G1 X108.657 Y112.053 E0.00717
G1 X108.844 Y111.922 E0.00717
G1 X109.052 Y111.826 E0.00717
G1 X109.272 Y111.766 E0.00717
G1 X109.485 Y111.748 E0.00670
G1 X109.726 Y111.766 E0.00759
G1 X109.948 Y111.826 E0.00720
G1 X110.156 Y111.922 E0.00717
G1 X110.343 Y112.053 E0.00717
G1 X110.504 Y112.215 E0.00717
G1 X110.636 Y112.402 E0.00717
G1 X110.732 Y112.609 E0.00717
G1 X110.791 Y112.830 E0.00717
G1 X110.804 Y112.971 E0.00444
G1 X111.032 Y113.155 F9000.000
G1 E-2.10000 F3600.000
;WIPE_START
G1 F7200.000
G1 X110.791 Y113.285 E-0.14943
G1 X110.732 Y113.506 E-0.10857
G1 X110.636 Y113.713 E-0.10857
G1 X110.504 Y113.901 E-0.10856
G1 X110.343 Y114.062 E-0.10855
G1 X110.156 Y114.193 E-0.10857
G1 X109.948 Y114.290 E-0.10857
G1 X109.838 Y114.319 E-0.05418
;WIPE_END
G1 E-0.04500 F3600.000
G1 X107.084 Y106.245 F9000.000
G1 E3.00000 F2400.000
;TYPE:Perimeter
G1 F1200.000
G1 X123.915 Y106.245 E0.52775
G1 X124.428 Y106.924 E0.02670
G1 X124.736 Y107.398 E0.01771
G1 X125.021 Y107.892 E0.01788
G1 X125.279 Y108.399 E0.01786
G1 X125.519 Y108.940 E0.01853
G1 X125.721 Y109.471 E0.01784
G1 X125.896 Y110.014 E0.01787
G1 X126.041 Y110.565 E0.01787
G1 X126.158 Y111.123 E0.01786
G1 X126.247 Y111.707 E0.01853
G1 X126.302 Y112.251 E0.01714
G1 X126.330 Y112.865 E0.01928
G1 X126.326 Y113.412 E0.01714
G1 X126.291 Y114.003 E0.01855
G1 X126.226 Y114.568 E0.01784
G1 X126.132 Y115.129 E0.01785
G1 X126.008 Y115.686 E0.01788
G1 X125.856 Y116.235 E0.01786
G1 X125.667 Y116.795 E0.01855
G1 X125.456 Y117.324 E0.01784
G1 X125.218 Y117.841 E0.01785
G1 X124.953 Y118.346 E0.01787
G1 X124.662 Y118.835 E0.01786
G1 X124.333 Y119.327 E0.01855
G1 X123.992 Y119.782 E0.01784
G1 X123.627 Y120.219 E0.01786
G1 X123.239 Y120.637 E0.01786
G1 X122.830 Y121.033 E0.01786
G1 X122.383 Y121.421 E0.01855
G1 X121.935 Y121.771 E0.01784
G1 X121.468 Y122.097 E0.01786
G1 X120.984 Y122.399 E0.01786
G1 X120.466 Y122.684 E0.01856
G1 X119.954 Y122.932 E0.01784
G1 X119.428 Y123.152 E0.01786
G1 X118.892 Y123.345 E0.01786
G1 X118.347 Y123.509 E0.01786
G1 X117.772 Y123.649 E0.01857
G1 X117.234 Y123.750 E0.01714
G1 X116.626 Y123.831 E0.01925
G1 X116.081 Y123.874 E0.01714
G1 X115.489 Y123.889 E0.01857
G1 X114.920 Y123.874 E0.01786
G1 X114.352 Y123.829 E0.01785
G1 X113.787 Y123.753 E0.01786
G1 X113.228 Y123.649 E0.01784
G1 X112.653 Y123.509 E0.01857
G1 X112.129 Y123.351 E0.01714
G1 X111.551 Y123.144 E0.01926
G1 X111.047 Y122.932 E0.01715
G1 X110.514 Y122.674 E0.01855
G1 X110.016 Y122.399 E0.01786
G1 X109.532 Y122.097 E0.01786
G1 X109.065 Y121.771 E0.01786
G1 X108.617 Y121.421 E0.01784
G1 X108.170 Y121.033 E0.01855
G1 X107.761 Y120.637 E0.01786
G1 X107.373 Y120.219 E0.01787
G1 X107.008 Y119.782 E0.01786
G1 X106.667 Y119.327 E0.01785
G1 X106.350 Y118.854 E0.01784
G1 X106.046 Y118.346 E0.01856
G1 X105.782 Y117.841 E0.01786
G1 X105.544 Y117.324 E0.01785
G1 X105.326 Y116.775 E0.01853
G1 X105.145 Y116.235 E0.01786
G1 X104.992 Y115.686 E0.01786
G1 X104.868 Y115.129 E0.01788
G1 X104.774 Y114.568 E0.01784
G1 X104.708 Y113.981 E0.01853
G1 X104.674 Y113.412 E0.01786
G1 X104.670 Y112.843 E0.01787
G1 X104.697 Y112.273 E0.01788
G1 X104.753 Y111.707 E0.01784
G1 X104.842 Y111.123 E0.01853
G1 X104.959 Y110.565 E0.01786
G1 X105.099 Y110.036 E0.01715
G1 X105.287 Y109.451 E0.01928
G1 X105.481 Y108.940 E0.01715
G1 X105.712 Y108.419 E0.01785
G1 X105.979 Y107.892 E0.01855
G1 X106.264 Y107.398 E0.01787
G1 X106.575 Y106.920 E0.01786
G1 X107.046 Y106.291 E0.02464
G1 X106.904 Y105.868 F9000.000
;TYPE:External perimeter
