; generated by PrusaSlicer 2.3.0 on 2023-01-02 at 18:33:09 UTC

; 

; external perimeters extrusion width = 0.45mm
; perimeters extrusion width = 0.45mm
; infill extrusion width = 0.45mm
; solid infill extrusion width = 0.45mm
; top infill extrusion width = 0.40mm
; first layer extrusion width = 0.42mm

M201 X500 Y500 Z100 E5000 ; sets maximum accelerations, mm/sec^2
M203 X500 Y500 Z10 E60 ; sets maximum feedrates, mm/sec
M204 P500 R1000 T500 ; sets acceleration (P, T) and retract acceleration (R), mm/sec^2
M205 X8.00 Y8.00 Z0.40 E5.00 ; sets the jerk limits, mm/sec
M205 S0 T0 ; sets the minimum extruding and travel feed rate, mm/sec
M107
;TYPE:Custom
G90 ; use absolute coordinates
M83 ; extruder relative mode
M104 S210 ; set extruder temp
M140 S60 ; set bed temp
M190 S60 ; wait for bed temp
M109 S210 ; wait for extruder temp
G28 ; home all
G1 Z2 F240
G1 X2 Y10 F3000
G1 Z0.28 F240
G92 E0
G1 Y190 E15 F1500 ; intro line
G1 X2.3 F5000
G92 E0
G1 Y10 E15 F1200 ; intro line
G92 E0
G21 ; set units to millimeters
G90 ; use absolute coordinates
M83 ; use relative distances for extrusion
; Filament gcode
;LAYER_CHANGE
;Z:0.2
;HEIGHT:0.2
;BEFORE_LAYER_CHANGE
G92 E0
;0.2


G1 E-3.00000 F3600.000
G1 Z0.200 F9000.000
;AFTER_LAYER_CHANGE
;0.2
G1 X84.278 Y114.075
G1 E3.00000 F2400.000
;TYPE:Skirt
;WIDTH:0.42
G1 F1200.000
G1 X86.914 Y112.297 E0.09969
G1 X115.043 Y95.482 E1.02755
G1 X117.635 Y94.135 E0.09158
G1 X118.732 Y93.682 E0.03720
G1 X121.127 Y92.904 E0.07896
G1 X122.192 Y92.649 E0.03434
G1 X125.143 Y92.206 E0.09356
G1 X128.349 Y92.159 E0.10055
G1 X129.498 Y92.246 E0.03612
G1 X132.105 Y92.662 E0.08278
G1 X133.110 Y92.906 E0.03243
G1 X135.498 Y93.681 E0.07872
G1 X136.617 Y94.145 E0.03799
G1 X138.862 Y95.289 E0.07899
G1 X139.841 Y95.894 E0.03609
G1 X141.873 Y97.371 E0.07876
G1 X142.656 Y98.035 E0.03219
G1 X144.525 Y99.900 E0.08278
G1 X145.201 Y100.687 E0.03255
G1 X146.751 Y102.815 E0.08254
G1 X147.292 Y103.692 E0.03231
G1 X148.497 Y106.050 E0.08302
G1 X148.928 Y107.097 E0.03552
G1 X149.711 Y109.507 E0.07944
G1 X149.953 Y110.505 E0.03219
G1 X150.369 Y113.112 E0.08278
G1 X150.453 Y114.135 E0.03219
G1 X150.457 Y116.779 E0.08290
G1 X150.380 Y117.799 E0.03207
G1 X149.970 Y120.411 E0.08290
G1 X149.737 Y121.398 E0.03183
G1 X148.920 Y123.925 E0.08326
G1 X148.537 Y124.861 E0.03171
G1 X146.958 Y127.860 E0.10628
G1 X144.791 Y130.800 E0.11450
G1 X142.183 Y133.374 E0.11490
G1 X139.816 Y135.124 E0.09228
G1 X138.937 Y135.668 E0.03242
G1 X136.570 Y136.879 E0.08338
G1 X135.515 Y137.313 E0.03576
G1 X132.709 Y138.198 E0.09225
G1 X129.550 Y138.747 E0.10055
G1 X128.401 Y138.840 E0.03612
G1 X125.757 Y138.838 E0.08290
G1 X124.712 Y138.751 E0.03290
G1 X91.211 Y133.846 E1.06160
G1 X88.332 Y133.276 E0.09202
G1 X86.854 Y132.668 E0.05012
G1 X84.389 Y131.017 E0.09303
G1 X83.492 Y130.142 E0.03929
G1 X81.715 Y127.506 E0.09966
G1 X81.238 Y126.419 E0.03722
G1 X80.578 Y123.228 E0.10218
G1 X80.552 Y122.025 E0.03774
G1 X81.163 Y118.832 E0.10191
G1 X81.597 Y117.718 E0.03749
G1 X83.390 Y114.989 E0.10239
G1 X84.236 Y114.118 E0.03808
G1 E-2.10000 F3600.000
;WIPE_START
G1 F7200.000
G1 X85.725 Y113.106 E-0.85500
;WIPE_END
G1 E-0.04500 F3600.000
G1 X123.956 Y115.500 F9000.000
G1 E3.00000 F2400.000
;TYPE:Perimeter
G1 F1200.000
G1 X125.536 Y112.763 E0.09910
G1 X128.696 Y112.763 E0.09910
G1 X130.277 Y115.500 E0.09910
G1 X128.696 Y118.237 E0.09909
G1 X125.536 Y118.237 E0.09910
G1 X123.986 Y115.552 E0.09721
G1 X124.391 Y115.500 F9000.000
;TYPE:External perimeter
G1 F1200.000
G1 X125.754 Y113.140 E0.08544
G1 X128.479 Y113.140 E0.08544
G1 X129.841 Y115.500 E0.08544
G1 X128.479 Y117.860 E0.08544
G1 X125.754 Y117.860 E0.08544
G1 X124.421 Y115.552 E0.08356
G1 X124.045 Y115.300 F9000.000
G1 E-2.10000 F3600.000
;WIPE_START
G1 F7200.000
G1 X125.291 Y113.976 E-0.85500
;WIPE_END
G1 E-0.04500 F3600.000
G1 X108.779 Y114.337 F9000.000
G1 E3.00000 F2400.000
;TYPE:Perimeter
G1 F1200.000
G1 X108.389 Y114.139 E0.01370
G1 X107.839 Y114.114 E0.01726
G1 X107.515 Y114.057 E0.01031
G1 X107.098 Y113.926 E0.01373
G1 X107.531 Y113.859 E0.01375
G1 X107.857 Y113.853 E0.01022
G1 X108.280 Y113.904 E0.01336
G1 X108.559 Y113.888 E0.00876
G1 X108.947 Y113.683 E0.01375
G1 X109.178 Y113.319 E0.01354
G1 X109.377 Y112.057 E0.04004
G1 X109.328 Y111.760 E0.00945
G1 X109.164 Y111.467 E0.01052
G1 X108.839 Y111.231 E0.01260
G1 X108.130 Y111.066 E0.02283
G1 X107.828 Y110.939 E0.01026
G1 X107.606 Y110.816 E0.00796
G1 X107.860 Y110.808 E0.00796
G1 X108.186 Y110.831 E0.01026
G1 X108.868 Y110.999 E0.02201
G1 X109.165 Y110.979 E0.00936
G1 X109.448 Y110.854 E0.00969
G1 X109.671 Y110.641 E0.00965
G1 X109.781 Y110.422 E0.00768
G1 X110.107 Y109.418 E0.03310
G1 X110.147 Y109.177 E0.00768
G1 X110.087 Y108.848 E0.01048
G1 X109.850 Y108.511 E0.01290
G1 X109.609 Y108.370 E0.00876
G1 X109.209 Y108.224 E0.01336
G1 X108.921 Y108.071 E0.01022
G1 X108.573 Y107.821 E0.01342
G1 X108.831 Y107.853 E0.00815
G1 X109.150 Y107.928 E0.01026
G1 X109.821 Y108.210 E0.02283
G1 X110.223 Y108.211 E0.01260
G1 X110.527 Y108.070 E0.01052
G1 X110.742 Y107.859 E0.00945
G1 X111.321 Y106.721 E0.04004
G1 X111.349 Y106.290 E0.01354
G1 X111.156 Y105.896 E0.01375
G1 X110.939 Y105.719 E0.00876
G1 X110.567 Y105.512 E0.01336
G1 X110.307 Y105.316 E0.01022
G1 X109.999 Y105.011 E0.01358
G1 X110.411 Y105.146 E0.01358
G1 X110.706 Y105.290 E0.01031
G1 X111.166 Y105.593 E0.01726
G1 X111.571 Y105.658 E0.01286
G1 X111.918 Y105.560 E0.01130
G1 X112.183 Y105.335 E0.01091
G1 X112.819 Y104.460 E0.03392
G1 X112.931 Y104.242 E0.00768
G1 X112.972 Y103.937 E0.00965
G1 X112.907 Y103.635 E0.00969
G1 X112.749 Y103.382 E0.00936
G1 X112.212 Y102.929 E0.02201
G1 X112.001 Y102.680 E0.01026
G1 X111.856 Y102.464 E0.00815
G1 X112.374 Y102.751 E0.01857
G1 X112.920 Y103.223 E0.02262
G1 X113.302 Y103.347 E0.01260
G1 X113.635 Y103.308 E0.01052
G1 X113.904 Y103.173 E0.00942
G1 X114.721 Y102.360 E0.03615
G1 X114.883 Y102.141 E0.00853
G1 X114.972 Y101.711 E0.01375
G1 X114.836 Y101.296 E0.01370
G1 X114.465 Y100.889 E0.01726
G1 X114.277 Y100.620 E0.01031
G1 X114.074 Y100.232 E0.01373
G1 X114.428 Y100.491 E0.01375
G1 X114.662 Y100.717 E0.01022
G1 X114.925 Y101.052 E0.01335
G1 X115.134 Y101.238 E0.00876
G1 X115.553 Y101.368 E0.01375
G1 X115.974 Y101.273 E0.01354
G1 X117.007 Y100.523 E0.04004
G1 X117.183 Y100.278 E0.00945
G1 X117.274 Y99.955 E0.01052
G1 X117.211 Y99.558 E0.01260
G1 X116.826 Y98.939 E0.02283
G1 X116.703 Y98.636 E0.01026
G1 X116.631 Y98.387 E0.00815
G1 X116.932 Y98.691 E0.01342
G1 X117.128 Y98.951 E0.01022
G1 X117.335 Y99.323 E0.01335
G1 X117.512 Y99.540 E0.00876
G1 X117.906 Y99.733 E0.01375
G1 X118.337 Y99.705 E0.01354
G1 X119.475 Y99.126 E0.04004
G1 X119.686 Y98.911 E0.00945
G1 X119.827 Y98.606 E0.01052
G1 X119.826 Y98.205 E0.01260
G1 X119.544 Y97.533 E0.02284
G1 X119.469 Y97.215 E0.01026
G1 X119.437 Y96.957 E0.00815
G1 X119.687 Y97.305 E0.01342
G1 X119.840 Y97.592 E0.01022
G1 X119.987 Y97.992 E0.01336
G1 X120.127 Y98.234 E0.00876
G1 X120.464 Y98.471 E0.01291
G1 X120.793 Y98.531 E0.01048
G1 X121.035 Y98.491 E0.00768
G1 X122.038 Y98.165 E0.03310
G1 X122.257 Y98.055 E0.00768
G1 X122.470 Y97.832 E0.00965
G1 X122.595 Y97.549 E0.00969
G1 X122.616 Y97.252 E0.00936
G1 X122.447 Y96.570 E0.02201
G1 X122.424 Y96.244 E0.01026
G1 X122.432 Y95.984 E0.00815
G1 X122.625 Y96.366 E0.01342
G1 X122.732 Y96.677 E0.01031
G1 X122.843 Y97.216 E0.01726
G1 X123.083 Y97.548 E0.01286
G1 X123.398 Y97.724 E0.01130
G1 X123.745 Y97.753 E0.01091
G1 X124.813 Y97.584 E0.03391
G1 X125.046 Y97.509 E0.00768
G1 X125.291 Y97.323 E0.00965
G1 X125.459 Y97.063 E0.00969
G1 X125.526 Y96.772 E0.00936
G1 X125.466 Y96.073 E0.02201
G1 X125.494 Y95.747 E0.01026
G1 X125.543 Y95.492 E0.00815
G1 X125.707 Y96.061 E0.01857
G1 X125.759 Y96.780 E0.02262
G1 X125.941 Y97.139 E0.01260
G1 X126.205 Y97.346 E0.01052
G1 X126.490 Y97.441 E0.00942
G1 X127.643 Y97.444 E0.03615
G1 X127.912 Y97.403 E0.00854
G1 X128.279 Y97.162 E0.01375
G1 X128.477 Y96.773 E0.01370
G1 X128.502 Y96.223 E0.01726
G1 X128.559 Y95.899 E0.01031
G1 X128.690 Y95.482 E0.01373
G1 X128.757 Y95.915 E0.01375
G1 X128.763 Y96.241 E0.01022
G1 X128.712 Y96.664 E0.01336
G1 X128.728 Y96.943 E0.00876
G1 X128.933 Y97.331 E0.01375
G1 X129.298 Y97.562 E0.01354
G1 X130.559 Y97.761 E0.04004
G1 X130.856 Y97.712 E0.00945
G1 X131.149 Y97.548 E0.01052
G1 X131.385 Y97.223 E0.01260
G1 X131.550 Y96.514 E0.02283
G1 X131.677 Y96.212 E0.01026
G1 X131.800 Y95.990 E0.00796
G1 X131.809 Y96.244 E0.00796
G1 X131.785 Y96.570 E0.01026
G1 X131.617 Y97.252 E0.02201
G1 X131.637 Y97.549 E0.00936
G1 X131.762 Y97.832 E0.00969
G1 X131.975 Y98.055 E0.00966
G1 X132.194 Y98.165 E0.00768
G1 X133.198 Y98.491 E0.03310
G1 X133.439 Y98.531 E0.00768
G1 X133.768 Y98.471 E0.01048
G1 X134.105 Y98.234 E0.01291
G1 X134.246 Y97.992 E0.00876
G1 X134.392 Y97.592 E0.01336
G1 X134.545 Y97.305 E0.01022
G1 X134.795 Y96.957 E0.01342
G1 X134.763 Y97.215 E0.00815
G1 X134.689 Y97.533 E0.01026
G1 X134.406 Y98.205 E0.02283
G1 X134.405 Y98.606 E0.01260
G1 X134.546 Y98.911 E0.01052
G1 X134.757 Y99.126 E0.00945
G1 X135.895 Y99.705 E0.04004
G1 X136.326 Y99.733 E0.01354
G1 X136.720 Y99.540 E0.01375
G1 X136.897 Y99.323 E0.00876
G1 X137.104 Y98.951 E0.01336
G1 X137.300 Y98.691 E0.01022
G1 X137.605 Y98.383 E0.01358
G1 X137.470 Y98.795 E0.01358
G1 X137.326 Y99.090 E0.01031
G1 X137.037 Y99.528 E0.01643
G1 X136.957 Y99.851 E0.01044
G1 X137.039 Y100.281 E0.01373
G1 X137.281 Y100.567 E0.01175
G1 X138.156 Y101.203 E0.03391
G1 X138.374 Y101.315 E0.00768
G1 X138.679 Y101.356 E0.00965
G1 X138.981 Y101.291 E0.00969
G1 X139.234 Y101.133 E0.00936
G1 X139.687 Y100.596 E0.02201
G1 X139.937 Y100.385 E0.01026
G1 X140.152 Y100.240 E0.00815
G1 X139.865 Y100.758 E0.01857
G1 X139.394 Y101.304 E0.02262
G1 X139.269 Y101.686 E0.01260
G1 X139.308 Y102.019 E0.01052
G1 X139.443 Y102.288 E0.00942
G1 X140.256 Y103.105 E0.03615
G1 X140.475 Y103.266 E0.00853
G1 X140.905 Y103.356 E0.01375
G1 X141.320 Y103.220 E0.01370
G1 X141.727 Y102.849 E0.01726
G1 X141.996 Y102.661 E0.01031
G1 X142.384 Y102.458 E0.01373
G1 X142.125 Y102.812 E0.01375
G1 X141.899 Y103.046 E0.01022
G1 X141.564 Y103.309 E0.01336
G1 X141.378 Y103.518 E0.00876
G1 X141.248 Y103.937 E0.01375
G1 X141.343 Y104.358 E0.01354
G1 X142.093 Y105.391 E0.04004
G1 X142.339 Y105.567 E0.00945
G1 X142.661 Y105.658 E0.01052
G1 X143.058 Y105.594 E0.01260
G1 X143.677 Y105.210 E0.02283
G1 X143.980 Y105.087 E0.01026
G1 X144.224 Y105.016 E0.00796
G1 X144.050 Y105.202 E0.00796
G1 X143.803 Y105.416 E0.01026
G1 X143.202 Y105.779 E0.02201
G1 X143.006 Y106.004 E0.00936
G1 X142.895 Y106.292 E0.00969
G1 X142.887 Y106.600 E0.00965
G1 X142.964 Y106.832 E0.00768
G1 X143.444 Y107.773 E0.03310
G1 X143.587 Y107.972 E0.00768
G1 X143.861 Y108.162 E0.01048
G1 X144.267 Y108.233 E0.01290
G1 X144.537 Y108.162 E0.00876
G1 X144.924 Y107.982 E0.01336
G1 X145.235 Y107.887 E0.01022
G1 X145.658 Y107.818 E0.01342
G1 X145.453 Y107.978 E0.00815
G1 X145.175 Y108.150 E0.01026
G1 X144.500 Y108.425 E0.02283
G1 X144.216 Y108.709 E0.01260
G1 X144.100 Y109.024 E0.01052
G1 X144.098 Y109.325 E0.00945
G1 X144.492 Y110.539 E0.04004
G1 X144.778 Y110.863 E0.01354
G1 X145.193 Y111.005 E0.01375
G1 X145.471 Y110.977 E0.00876
G1 X145.880 Y110.861 E0.01336
G1 X146.203 Y110.815 E0.01022
G1 X146.636 Y110.814 E0.01358
G1 X146.250 Y111.009 E0.01358
G1 X145.939 Y111.116 E0.01031
G1 X145.426 Y111.221 E0.01643
G1 X145.140 Y111.393 E0.01044
G1 X144.894 Y111.755 E0.01373
G1 X144.863 Y112.128 E0.01175
G1 X145.032 Y113.197 E0.03391
G1 X145.107 Y113.430 E0.00768
G1 X145.293 Y113.675 E0.00965
G1 X145.553 Y113.843 E0.00969
G1 X145.844 Y113.909 E0.00936
G1 X146.543 Y113.850 E0.02201
G1 X146.869 Y113.878 E0.01026
G1 X147.124 Y113.927 E0.00815
G1 X146.555 Y114.091 E0.01857
G1 X145.836 Y114.143 E0.02262
G1 X145.478 Y114.325 E0.01260
G1 X145.270 Y114.589 E0.01052
G1 X145.175 Y114.874 E0.00942
G1 X145.172 Y116.027 E0.03616
G1 X145.213 Y116.296 E0.00854
G1 X145.454 Y116.663 E0.01375
G1 X145.843 Y116.861 E0.01370
G1 X146.393 Y116.886 E0.01726
G1 X146.717 Y116.943 E0.01031
G1 X147.134 Y117.074 E0.01373
G1 X146.701 Y117.141 E0.01375
G1 X146.375 Y117.147 E0.01022
G1 X145.952 Y117.096 E0.01336
G1 X145.673 Y117.112 E0.00876
G1 X145.286 Y117.317 E0.01375
G1 X145.054 Y117.681 E0.01354
G1 X144.855 Y118.943 E0.04004
G1 X144.904 Y119.240 E0.00945
G1 X145.068 Y119.533 E0.01052
G1 X145.393 Y119.769 E0.01260
G1 X146.102 Y119.934 E0.02283
G1 X146.404 Y120.061 E0.01026
G1 X146.631 Y120.187 E0.00815
G1 X146.203 Y120.185 E0.01342
G1 X145.880 Y120.139 E0.01022
G1 X145.471 Y120.023 E0.01336
G1 X145.193 Y119.995 E0.00876
G1 X144.778 Y120.137 E0.01375
G1 X144.492 Y120.461 E0.01354
G1 X144.098 Y121.675 E0.04004
G1 X144.100 Y121.976 E0.00945
G1 X144.216 Y122.291 E0.01052
G1 X144.500 Y122.575 E0.01260
G1 X145.175 Y122.850 E0.02283
G1 X145.453 Y123.022 E0.01026
G1 X145.653 Y123.178 E0.00796
G1 X145.401 Y123.147 E0.00796
G1 X145.083 Y123.072 E0.01026
G1 X144.436 Y122.800 E0.02201
G1 X144.139 Y122.774 E0.00936
G1 X143.840 Y122.853 E0.00969
G1 X143.587 Y123.028 E0.00965
G1 X143.444 Y123.227 E0.00768
G1 X142.964 Y124.168 E0.03310
G1 X142.887 Y124.400 E0.00768
G1 X142.895 Y124.734 E0.01048
G1 X143.076 Y125.104 E0.01290
G1 X143.293 Y125.281 E0.00876
G1 X143.665 Y125.488 E0.01336
G1 X143.925 Y125.684 E0.01022
G1 X144.233 Y125.989 E0.01358
G1 X143.821 Y125.854 E0.01358
G1 X143.526 Y125.710 E0.01031
G1 X143.088 Y125.421 E0.01643
G1 X142.765 Y125.341 E0.01044
G1 X142.335 Y125.423 E0.01373
G1 X142.049 Y125.665 E0.01175
G1 X141.413 Y126.540 E0.03391
G1 X141.301 Y126.758 E0.00768
G1 X141.260 Y127.063 E0.00965
G1 X141.325 Y127.365 E0.00969
G1 X141.483 Y127.618 E0.00935
G1 X142.020 Y128.071 E0.02201
G1 X142.231 Y128.320 E0.01026
G1 X142.376 Y128.536 E0.00815
G1 X141.858 Y128.249 E0.01857
G1 X141.312 Y127.777 E0.02262
G1 X140.930 Y127.653 E0.01260
G1 X140.597 Y127.692 E0.01052
G1 X140.329 Y127.827 E0.00942
G1 X139.511 Y128.640 E0.03616
G1 X139.350 Y128.859 E0.00853
G1 X139.261 Y129.289 E0.01375
G1 X139.396 Y129.704 E0.01370
G1 X139.767 Y130.111 E0.01726
G1 X139.956 Y130.380 E0.01031
G1 X140.158 Y130.768 E0.01373
G1 X139.804 Y130.509 E0.01375
G1 X139.570 Y130.283 E0.01022
G1 X139.307 Y129.947 E0.01336
G1 X139.098 Y129.762 E0.00876
G1 X138.679 Y129.632 E0.01375
G1 X138.258 Y129.727 E0.01354
G1 X137.225 Y130.477 E0.04004
G1 X137.049 Y130.722 E0.00945
G1 X136.958 Y131.045 E0.01052
G1 X137.022 Y131.442 E0.01260
G1 X137.406 Y132.061 E0.02283
G1 X137.529 Y132.364 E0.01026
G1 X137.600 Y132.608 E0.00796
G1 X137.414 Y132.434 E0.00796
G1 X137.200 Y132.187 E0.01026
G1 X136.837 Y131.586 E0.02201
G1 X136.612 Y131.390 E0.00936
G1 X136.324 Y131.278 E0.00969
G1 X136.016 Y131.271 E0.00965
G1 X135.784 Y131.348 E0.00768
G1 X134.843 Y131.828 E0.03310
G1 X134.644 Y131.970 E0.00768
G1 X134.454 Y132.245 E0.01048
G1 X134.383 Y132.651 E0.01290
G1 X134.454 Y132.921 E0.00876
G1 X134.634 Y133.307 E0.01336
G1 X134.729 Y133.619 E0.01022
G1 X134.798 Y134.042 E0.01342
G1 X134.638 Y133.837 E0.00815
G1 X134.466 Y133.559 E0.01026
G1 X134.191 Y132.884 E0.02283
G1 X133.907 Y132.600 E0.01260
G1 X133.593 Y132.484 E0.01052
G1 X133.291 Y132.482 E0.00945
G1 X132.077 Y132.876 E0.04003
G1 X131.753 Y133.162 E0.01354
G1 X131.611 Y133.577 E0.01375
G1 X131.639 Y133.855 E0.00876
G1 X131.755 Y134.264 E0.01336
G1 X131.801 Y134.587 E0.01022
G1 X131.803 Y135.020 E0.01358
G1 X131.607 Y134.634 E0.01358
G1 X131.500 Y134.323 E0.01031
G1 X131.395 Y133.810 E0.01643
G1 X131.223 Y133.524 E0.01044
G1 X130.861 Y133.278 E0.01373
G1 X130.488 Y133.247 E0.01175
G1 X129.419 Y133.416 E0.03391
G1 X129.186 Y133.491 E0.00768
G1 X128.941 Y133.677 E0.00965
G1 X128.774 Y133.937 E0.00969
G1 X128.707 Y134.228 E0.00936
G1 X128.766 Y134.927 E0.02201
G1 X128.738 Y135.253 E0.01026
G1 X128.689 Y135.508 E0.00815
G1 X128.525 Y134.939 E0.01857
G1 X128.473 Y134.220 E0.02262
G1 X128.291 Y133.862 E0.01260
G1 X128.027 Y133.654 E0.01052
G1 X127.742 Y133.559 E0.00942
G1 X126.589 Y133.556 E0.03615
G1 X126.320 Y133.597 E0.00854
G1 X125.953 Y133.838 E0.01375
G1 X125.756 Y134.227 E0.01370
G1 X125.730 Y134.777 E0.01726
G1 X125.673 Y135.101 E0.01031
G1 X125.542 Y135.518 E0.01373
G1 X125.475 Y135.085 E0.01375
