; generated by PrusaSlicer 2.3.0 on 2022-12-29 at 17:52:21 UTC

; 

; external perimeters extrusion width = 0.45mm
; perimeters extrusion width = 0.45mm
; infill extrusion width = 0.45mm
; solid infill extrusion width = 0.45mm
; top infill extrusion width = 0.40mm
; first layer extrusion width = 0.42mm

M201 X500 Y500 Z100 E5000 ; sets maximum accelerations, mm/sec^2
M203 X500 Y500 Z10 E60 ; sets maximum feedrates, mm/sec
M204 P500 R1000 T500 ; sets acceleration (P, T) and retract acceleration (R), mm/sec^2
M205 X8.00 Y8.00 Z0.40 E5.00 ; sets the jerk limits, mm/sec
M205 S0 T0 ; sets the minimum extruding and travel feed rate, mm/sec
M107
;TYPE:Custom
G90 ; use absolute coordinates
M83 ; extruder relative mode
M104 S210 ; set extruder temp
M140 S60 ; set bed temp
M190 S60 ; wait for bed temp
M109 S210 ; wait for extruder temp
G28 ; home all
G1 Z2 F240
G1 X2 Y10 F3000
G1 Z0.28 F240
G92 E0
G1 Y190 E15 F1500 ; intro line
G1 X2.3 F5000
G92 E0
G1 Y10 E15 F1200 ; intro line
G92 E0
G21 ; set units to millimeters
G90 ; use absolute coordinates
M83 ; use relative distances for extrusion
; Filament gcode
;LAYER_CHANGE
;Z:0.2
;HEIGHT:0.2
;BEFORE_LAYER_CHANGE
G92 E0
;0.2


G1 E-5.00000 F3600.000
G1 Z0.200 F9000.000
;AFTER_LAYER_CHANGE
;0.2
G1 X105.326 Y105.193
G1 E5.00000 F2400.000
;TYPE:Skirt
;WIDTH:0.42
G1 F1200.000
G1 X106.466 Y104.180 E0.04781
G1 X107.661 Y103.322 E0.04614
G1 X109.801 Y102.186 E0.07595
G1 X111.177 Y101.677 E0.04601
G1 X112.654 Y101.299 E0.04781
G1 X114.163 Y101.078 E0.04781
G1 X115.661 Y101.017 E0.04703
G1 X117.212 Y101.117 E0.04871
G1 X118.658 Y101.365 E0.04601
G1 X120.974 Y102.090 E0.07609
G1 X122.303 Y102.712 E0.04601
G1 X123.613 Y103.500 E0.04793
G1 X124.829 Y104.419 E0.04781
G1 X125.937 Y105.455 E0.04755
G1 X126.940 Y106.614 E0.04806
G1 X127.780 Y107.817 E0.04601
G1 X128.890 Y109.975 E0.07608
G1 X129.381 Y111.358 E0.04601
G1 X129.740 Y112.840 E0.04781
G1 X129.940 Y114.347 E0.04768
G1 X129.982 Y115.810 E0.04588
G1 X129.727 Y118.227 E0.07621
G1 X129.378 Y119.652 E0.04601
G1 X128.865 Y121.088 E0.04781
G1 X128.205 Y122.458 E0.04768
G1 X127.433 Y123.711 E0.04614
G1 X125.898 Y125.585 E0.07596
G1 X124.825 Y126.585 E0.04601
G1 X123.608 Y127.504 E0.04780
G1 X122.304 Y128.287 E0.04768
G1 X120.972 Y128.911 E0.04614
G1 X118.654 Y129.636 E0.07614
G1 X117.210 Y129.883 E0.04595
G1 X115.655 Y129.983 E0.04884
G1 X114.165 Y129.922 E0.04678
G1 X112.656 Y129.702 E0.04781
G1 X111.179 Y129.324 E0.04781
G1 X109.802 Y128.815 E0.04601
G1 X107.659 Y127.676 E0.07609
G1 X106.467 Y126.821 E0.04601
G1 X105.324 Y125.806 E0.04794
G1 X104.297 Y124.679 E0.04781
G1 X103.397 Y123.453 E0.04768
G1 X102.626 Y122.133 E0.04794
G1 X102.023 Y120.800 E0.04588
G1 X101.327 Y118.471 E0.07621
G1 X101.098 Y117.022 E0.04601
G1 X101.018 Y115.499 E0.04781
G1 X101.098 Y113.976 E0.04781
G1 X101.327 Y112.527 E0.04601
G1 X102.023 Y110.200 E0.07615
G1 X102.625 Y108.869 E0.04582
G1 X103.396 Y107.548 E0.04793
G1 X104.299 Y106.320 E0.04781
G1 X105.285 Y105.237 E0.04593
G1 X105.564 Y105.491 F9000.000
G1 F1200.000
G1 X106.702 Y104.474 E0.04786
G1 X107.869 Y103.637 E0.04502
G1 X109.944 Y102.535 E0.07367
G1 X111.290 Y102.036 E0.04502
G1 X112.729 Y101.668 E0.04657
G1 X114.199 Y101.453 E0.04657
G1 X115.660 Y101.394 E0.04585
G1 X117.168 Y101.492 E0.04740
G1 X118.584 Y101.734 E0.04501
G1 X120.826 Y102.437 E0.07368
G1 X122.126 Y103.045 E0.04502
G1 X123.402 Y103.813 E0.04669
G1 X124.584 Y104.705 E0.04645
G1 X125.669 Y105.720 E0.04657
G1 X126.643 Y106.846 E0.04669
G1 X127.464 Y108.024 E0.04502
G1 X128.540 Y110.113 E0.07368
G1 X129.020 Y111.466 E0.04502
G1 X129.369 Y112.906 E0.04645
G1 X129.564 Y114.378 E0.04657
G1 X129.605 Y115.810 E0.04489
G1 X129.358 Y118.146 E0.07368
G1 X129.018 Y119.541 E0.04502
G1 X128.518 Y120.940 E0.04657
G1 X127.874 Y122.278 E0.04657
G1 X127.121 Y123.500 E0.04502
G1 X125.631 Y125.318 E0.07368
G1 X124.581 Y126.297 E0.04502
G1 X123.396 Y127.192 E0.04656
G1 X122.123 Y127.957 E0.04657
G1 X120.822 Y128.565 E0.04502
G1 X118.583 Y129.266 E0.07356
G1 X117.164 Y129.509 E0.04513
G1 X115.656 Y129.606 E0.04740
G1 X114.198 Y129.547 E0.04573
G1 X112.729 Y129.332 E0.04657
G1 X111.290 Y128.964 E0.04657
G1 X109.944 Y128.465 E0.04502
G1 X107.868 Y127.363 E0.07368
G1 X106.702 Y126.526 E0.04502
G1 X105.591 Y125.539 E0.04657
G1 X104.591 Y124.442 E0.04657
G1 X103.711 Y123.245 E0.04657
G1 X102.961 Y121.959 E0.04669
G1 X102.371 Y120.654 E0.04490
G1 X101.697 Y118.403 E0.07368
G1 X101.473 Y116.981 E0.04513
G1 X101.395 Y115.502 E0.04645
G1 X101.473 Y114.019 E0.04657
G1 X101.697 Y112.597 E0.04513
G1 X102.371 Y110.346 E0.07367
G1 X102.961 Y109.041 E0.04490
G1 X103.711 Y107.755 E0.04669
G1 X104.591 Y106.558 E0.04657
G1 X105.523 Y105.535 E0.04339
G1 E-3.50000 F3600.000
;WIPE_START
G1 F7200.000
G1 X106.702 Y104.474 E-0.75337
G1 X107.851 Y103.650 E-0.67163
;WIPE_END
G1 E-0.07500 F3600.000
G1 X109.653 Y107.950 F9000.000
G1 E5.00000 F2400.000
;TYPE:Perimeter
G1 F1200.000
G1 X109.730 Y107.983 E0.00264
G1 X109.741 Y107.625 E0.01123
G1 X109.822 Y107.330 E0.00958
G1 X109.972 Y107.065 E0.00955
G1 X110.169 Y106.845 E0.00924
G1 X110.405 Y106.672 E0.00919
G1 X110.681 Y106.551 E0.00944
G1 X111.029 Y106.488 E0.01110
G1 X111.402 Y106.522 E0.01175
G1 X111.696 Y106.632 E0.00984
G1 X111.872 Y106.753 E0.00671
G1 X111.982 Y106.391 E0.01187
G1 X112.139 Y106.124 E0.00970
G1 X112.449 Y105.842 E0.01316
G1 X112.724 Y105.699 E0.00972
G1 X113.022 Y105.619 E0.00966
G1 X113.452 Y105.622 E0.01348
G1 X113.861 Y105.763 E0.01357
G1 X114.104 Y105.937 E0.00938
G1 X114.265 Y106.101 E0.00720
G1 X114.377 Y105.901 E0.00720
G1 X114.567 Y105.670 E0.00938
G1 X114.913 Y105.436 E0.01310
G1 X115.204 Y105.341 E0.00960
G1 X115.418 Y105.312 E0.00678
G1 X115.653 Y105.315 E0.00736
G1 X115.951 Y105.380 E0.00957
G1 X116.324 Y105.573 E0.01316
G1 X116.545 Y105.790 E0.00970
G1 X116.745 Y106.112 E0.01188
G1 X116.894 Y105.936 E0.00721
G1 X117.262 Y105.702 E0.01369
G1 X117.687 Y105.609 E0.01365
G1 X117.997 Y105.623 E0.00972
G1 X118.280 Y105.699 E0.00918
G1 X118.540 Y105.834 E0.00919
G1 X118.773 Y106.023 E0.00943
G1 X118.957 Y106.264 E0.00948
G1 X119.073 Y106.519 E0.00880
G1 X119.131 Y106.746 E0.00733
G1 X119.198 Y106.693 E0.00268
G1 X119.462 Y106.566 E0.00918
G1 X119.803 Y106.488 E0.01097
G1 X120.179 Y106.514 E0.01182
G1 X120.468 Y106.606 E0.00952
G1 X120.735 Y106.760 E0.00966
G1 X121.024 Y107.052 E0.01290
G1 X121.182 Y107.330 E0.01002
G1 X121.263 Y107.625 E0.00958
G1 X121.274 Y107.978 E0.01108
G1 X121.618 Y107.897 E0.01108
G1 X121.940 Y107.900 E0.01010
G1 X122.355 Y108.032 E0.01365
G1 X122.713 Y108.289 E0.01383
G1 X122.970 Y108.647 E0.01383
G1 X123.102 Y109.062 E0.01365
G1 X123.105 Y109.384 E0.01010
G1 X123.024 Y109.728 E0.01108
G1 X123.396 Y109.739 E0.01167
G1 X123.795 Y109.877 E0.01325
G1 X124.065 Y110.073 E0.01045
G1 X124.334 Y110.401 E0.01330
G1 X124.490 Y110.814 E0.01383
G1 X124.510 Y111.264 E0.01414
G1 X124.380 Y111.681 E0.01369
G1 X124.249 Y111.870 E0.00721
G1 X124.611 Y111.980 E0.01188
G1 X124.878 Y112.137 E0.00970
G1 X125.171 Y112.459 E0.01365
G1 X125.353 Y112.860 E0.01383
G1 X125.396 Y113.299 E0.01383
G1 X125.300 Y113.740 E0.01414
G1 X125.066 Y114.108 E0.01369
G1 X124.886 Y114.261 E0.00738
G1 X124.977 Y114.298 E0.00307
G1 X125.227 Y114.468 E0.00949
G1 X125.495 Y114.777 E0.01284
G1 X125.625 Y115.067 E0.00996
G1 X125.691 Y115.370 E0.00971
G1 X125.668 Y115.791 E0.01324
G1 X125.506 Y116.211 E0.01411
G1 X125.227 Y116.532 E0.01333
G1 X124.977 Y116.702 E0.00949
G1 X124.898 Y116.735 E0.00268
G1 X125.065 Y116.898 E0.00733
G1 X125.239 Y117.141 E0.00938
G1 X125.376 Y117.536 E0.01310
G1 X125.393 Y117.849 E0.00982
G1 X125.349 Y118.138 E0.00919
G1 X125.242 Y118.411 E0.00919
G1 X125.071 Y118.674 E0.00982
G1 X124.755 Y118.947 E0.01310
G1 X124.483 Y119.071 E0.00938
G1 X124.260 Y119.128 E0.00720
G1 X124.378 Y119.325 E0.00720
G1 X124.483 Y119.605 E0.00939
G1 X124.512 Y120.022 E0.01309
G1 X124.448 Y120.328 E0.00982
G1 X124.330 Y120.597 E0.00919
G1 X124.157 Y120.833 E0.00919
G1 X123.923 Y121.042 E0.00982
G1 X123.548 Y121.225 E0.01310
G1 X123.252 Y121.274 E0.00938
G1 X123.023 Y121.271 E0.00720
G1 X123.085 Y121.492 E0.00720
G1 X123.114 Y121.790 E0.00938
G1 X123.035 Y122.200 E0.01310
G1 X122.893 Y122.479 E0.00982
G1 X122.710 Y122.708 E0.00919
G1 X122.481 Y122.891 E0.00919
G1 X122.202 Y123.033 E0.00982
G1 X121.792 Y123.112 E0.01310
G1 X121.494 Y123.083 E0.00938
G1 X121.273 Y123.021 E0.00720
G1 X121.276 Y123.250 E0.00720
G1 X121.227 Y123.546 E0.00939
G1 X121.044 Y123.921 E0.01310
G1 X120.835 Y124.155 E0.00982
G1 X120.599 Y124.328 E0.00919
G1 X120.331 Y124.446 E0.00919
G1 X120.024 Y124.510 E0.00982
G1 X119.607 Y124.480 E0.01309
G1 X119.327 Y124.375 E0.00938
G1 X119.130 Y124.258 E0.00720
G1 X119.073 Y124.481 E0.00720
G1 X118.949 Y124.753 E0.00938
G1 X118.676 Y125.069 E0.01310
G1 X118.413 Y125.240 E0.00982
G1 X118.140 Y125.347 E0.00919
G1 X117.851 Y125.391 E0.00919
G1 X117.538 Y125.374 E0.00982
G1 X117.143 Y125.237 E0.01310
G1 X116.900 Y125.063 E0.00938
G1 X116.739 Y124.899 E0.00720
G1 X116.627 Y125.099 E0.00720
G1 X116.437 Y125.330 E0.00938
G1 X116.091 Y125.564 E0.01310
G1 X115.793 Y125.662 E0.00982
G1 X115.502 Y125.694 E0.00919
G1 X115.211 Y125.662 E0.00919
G1 X114.913 Y125.564 E0.00982
G1 X114.567 Y125.330 E0.01310
G1 X114.377 Y125.099 E0.00938
G1 X114.263 Y124.895 E0.00733
G1 X114.203 Y124.974 E0.00311
G1 X113.889 Y125.221 E0.01253
G1 X113.597 Y125.343 E0.00991
G1 X113.300 Y125.390 E0.00943
G1 X113.007 Y125.377 E0.00919
G1 X112.724 Y125.301 E0.00918
G1 X112.449 Y125.158 E0.00972
G1 X112.139 Y124.876 E0.01316
G1 X111.982 Y124.609 E0.00970
G1 X111.888 Y124.341 E0.00891
G1 X111.878 Y124.256 E0.00268
G1 X111.773 Y124.325 E0.00393
G1 X111.410 Y124.479 E0.01236
G1 X110.965 Y124.511 E0.01400
G1 X110.549 Y124.402 E0.01348
G1 X110.282 Y124.248 E0.00966
G1 X110.053 Y124.039 E0.00972
G1 X109.827 Y123.686 E0.01316
G1 X109.744 Y123.388 E0.00970
G1 X109.731 Y123.017 E0.01164
G1 X109.653 Y123.050 E0.00268
G1 X109.355 Y123.107 E0.00949
G1 X108.947 Y123.077 E0.01284
G1 X108.650 Y122.964 E0.00997
G1 X108.403 Y122.806 E0.00919
G1 X108.196 Y122.599 E0.00918
G1 X108.029 Y122.338 E0.00972
G1 X107.902 Y121.938 E0.01316
G1 X107.899 Y121.629 E0.00970
G1 X107.981 Y121.271 E0.01151
G1 X107.860 Y121.278 E0.00380
G1 X107.469 Y121.231 E0.01236
G1 X107.067 Y121.035 E0.01400
G1 X106.762 Y120.733 E0.01348
G1 X106.608 Y120.466 E0.00966
G1 X106.514 Y120.171 E0.00972
G1 X106.494 Y119.751 E0.01316
G1 X106.572 Y119.452 E0.00970
G1 X106.746 Y119.124 E0.01164
G1 X106.661 Y119.114 E0.00268
G1 X106.375 Y119.014 E0.00949
G1 X106.036 Y118.785 E0.01284
G1 X105.836 Y118.538 E0.00996
G1 X105.701 Y118.278 E0.00919
G1 X105.625 Y117.995 E0.00918
G1 X105.611 Y117.685 E0.00972
G1 X105.701 Y117.275 E0.01316
G1 X105.853 Y117.006 E0.00970
G1 X106.112 Y116.730 E0.01188
G1 X105.904 Y116.631 E0.00721
G1 X105.583 Y116.336 E0.01369
G1 X105.375 Y115.935 E0.01414
G1 X105.304 Y115.500 E0.01383
G1 X105.375 Y115.065 E0.01383
G1 X105.575 Y114.678 E0.01365
G1 X105.792 Y114.457 E0.00970
G1 X106.114 Y114.257 E0.01188
G1 X105.938 Y114.109 E0.00721
G1 X105.704 Y113.740 E0.01369
G1 X105.608 Y113.299 E0.01414
G1 X105.651 Y112.860 E0.01383
G1 X105.826 Y112.474 E0.01330
G1 X106.036 Y112.215 E0.01045
G1 X106.386 Y111.979 E0.01325
G1 X106.743 Y111.871 E0.01169
G1 X106.678 Y111.771 E0.00377
G1 X106.530 Y111.425 E0.01177
G1 X106.486 Y111.097 E0.01039
G1 X106.552 Y110.669 E0.01358
G1 X106.750 Y110.279 E0.01372
G1 X107.067 Y109.965 E0.01400
G1 X107.463 Y109.772 E0.01380
G1 X107.818 Y109.722 E0.01123
G1 X107.982 Y109.738 E0.00518
G1 X107.899 Y109.384 E0.01140
G1 X107.902 Y109.079 E0.00958
G1 X107.981 Y108.769 E0.01002
G1 X108.185 Y108.412 E0.01290
G1 X108.414 Y108.183 E0.01013
G1 X108.771 Y107.979 E0.01290
G1 X109.081 Y107.899 E0.01002
G1 X109.373 Y107.897 E0.00918
G1 X109.594 Y107.939 E0.00703
G1 E-3.50000 F3600.000
;WIPE_START
G1 F7200.000
G1 X109.730 Y107.983 E-0.06807
G1 X109.741 Y107.625 E-0.17015
G1 X109.822 Y107.330 E-0.14518
G1 X109.972 Y107.065 E-0.14468
G1 X110.169 Y106.845 E-0.14003
G1 X110.405 Y106.672 E-0.13924
G1 X110.681 Y106.551 E-0.14305
G1 X111.029 Y106.488 E-0.16812
G1 X111.402 Y106.522 E-0.17796
G1 X111.656 Y106.617 E-0.12853
;WIPE_END
G1 E-0.07500 F3600.000
G1 X113.581 Y113.185 F9000.000
G1 E5.00000 F2400.000
;TYPE:External perimeter
G1 F1200.000
G1 X113.813 Y113.008 E0.00914
G1 X114.092 Y112.840 E0.01022
G1 X114.388 Y112.703 E0.01022
G1 X114.697 Y112.599 E0.01022
G1 X115.015 Y112.529 E0.01022
G1 X115.339 Y112.494 E0.01022
G1 X115.665 Y112.494 E0.01022
G1 X115.989 Y112.529 E0.01022
G1 X116.307 Y112.599 E0.01022
G1 X116.616 Y112.703 E0.01022
G1 X116.912 Y112.840 E0.01022
G1 X117.191 Y113.008 E0.01022
G1 X117.451 Y113.206 E0.01022
G1 X117.688 Y113.430 E0.01022
G1 X117.899 Y113.678 E0.01022
G1 X118.082 Y113.948 E0.01022
G1 X118.234 Y114.236 E0.01022
G1 X118.355 Y114.539 E0.01022
G1 X118.442 Y114.853 E0.01022
G1 X118.495 Y115.175 E0.01022
G1 X118.513 Y115.500 E0.01022
G1 X118.495 Y115.825 E0.01022
G1 X118.442 Y116.147 E0.01022
G1 X118.355 Y116.461 E0.01022
G1 X118.234 Y116.764 E0.01022
G1 X118.082 Y117.052 E0.01022
G1 X117.899 Y117.322 E0.01022
G1 X117.688 Y117.570 E0.01022
G1 X117.451 Y117.794 E0.01022
G1 X117.191 Y117.992 E0.01022
G1 X116.912 Y118.160 E0.01022
G1 X116.616 Y118.297 E0.01022
G1 X116.307 Y118.401 E0.01022
G1 X115.989 Y118.471 E0.01022
G1 X115.665 Y118.506 E0.01022
G1 X115.339 Y118.506 E0.01022
G1 X115.015 Y118.471 E0.01022
G1 X114.697 Y118.401 E0.01022
G1 X114.388 Y118.297 E0.01022
G1 X114.092 Y118.160 E0.01022
G1 X113.813 Y117.992 E0.01022
G1 X113.553 Y117.794 E0.01022
G1 X113.316 Y117.570 E0.01022
G1 X113.105 Y117.322 E0.01022
G1 X112.923 Y117.052 E0.01022
G1 X112.770 Y116.764 E0.01022
G1 X112.649 Y116.461 E0.01022
G1 X112.562 Y116.147 E0.01022
G1 X112.509 Y115.825 E0.01022
G1 X112.492 Y115.500 E0.01022
G1 X112.509 Y115.175 E0.01022
G1 X112.562 Y114.853 E0.01022
G1 X112.649 Y114.539 E0.01022
G1 X112.770 Y114.236 E0.01022
G1 X112.923 Y113.948 E0.01022
G1 X113.105 Y113.678 E0.01022
G1 X113.316 Y113.430 E0.01022
G1 X113.535 Y113.223 E0.00943
G1 X113.529 Y112.898 F9000.000
G1 E-3.50000 F3600.000
;WIPE_START
G1 F7200.000
G1 X113.813 Y113.008 E-0.16683
G1 X114.092 Y112.840 E-0.15482
G1 X114.388 Y112.703 E-0.15483
G1 X114.697 Y112.599 E-0.15485
G1 X115.015 Y112.529 E-0.15482
G1 X115.339 Y112.494 E-0.15484
G1 X115.665 Y112.494 E-0.15484
G1 X115.989 Y112.529 E-0.15482
G1 X116.307 Y112.599 E-0.15484
G1 X116.346 Y112.612 E-0.01951
;WIPE_END
G1 E-0.07500 F3600.000
G1 X111.976 Y115.986 F9000.000
G1 E5.00000 F2400.000
G1 F1200.000
G1 X112.205 Y116.842 E0.02777
G1 X108.185 Y118.328 E0.13441
G1 X107.258 Y118.708 E0.03139
G1 X106.970 Y118.772 E0.00925
G1 X106.748 Y118.744 E0.00704
G1 X106.546 Y118.674 E0.00670
G1 X106.294 Y118.504 E0.00955
G1 X106.153 Y118.330 E0.00700
G1 X106.055 Y118.141 E0.00669
G1 X106.000 Y117.937 E0.00662
G1 X105.990 Y117.717 E0.00688
G1 X106.057 Y117.411 E0.00982
G1 X106.163 Y117.224 E0.00675
G1 X106.293 Y117.074 E0.00622
G1 X106.383 Y116.993 E0.00379
G1 X106.576 Y116.888 E0.00689
G1 X106.842 Y116.831 E0.00853
G1 X107.797 Y116.701 E0.03024
G1 X111.917 Y115.996 E0.13105
G1 X112.366 Y115.896 F9000.000
G1 X112.222 Y116.882
G1 F1200.000
G1 X112.665 Y117.649 E0.02777
G1 X109.166 Y120.126 E0.13440
G1 X108.438 Y120.683 E0.02876
G1 X108.209 Y120.830 E0.00853
G1 X107.998 Y120.892 E0.00690
G1 X107.872 Y120.899 E0.00395
G1 X107.577 Y120.864 E0.00933
G1 X107.288 Y120.724 E0.01006
G1 X107.063 Y120.501 E0.00994
G1 X106.955 Y120.313 E0.00679
G1 X106.888 Y120.104 E0.00688
G1 X106.874 Y119.791 E0.00982
G1 X106.927 Y119.582 E0.00675
G1 X107.014 Y119.404 E0.00622
G1 X107.080 Y119.303 E0.00379
G1 X107.240 Y119.151 E0.00689
G1 X107.481 Y119.027 E0.00853
G1 X108.371 Y118.654 E0.03024
G1 X112.168 Y116.907 E0.13105
G1 X112.575 Y116.694 F9000.000
G1 X112.692 Y117.684
G1 F1200.000
G1 X113.318 Y118.310 E0.02777
G1 X110.579 Y121.608 E0.13441
G1 X109.967 Y122.400 E0.03139
G1 X109.750 Y122.600 E0.00925
G1 X109.543 Y122.687 E0.00704
G1 X109.333 Y122.727 E0.00670
G1 X109.029 Y122.705 E0.00955
G1 X108.821 Y122.626 E0.00700
G1 X108.641 Y122.510 E0.00669
G1 X108.492 Y122.361 E0.00662
