; generated by PrusaSlicer 2.3.0 on 2022-12-29 at 16:32:44 UTC

; 

; external perimeters extrusion width = 0.45mm
; perimeters extrusion width = 0.45mm
; infill extrusion width = 0.45mm
; solid infill extrusion width = 0.45mm
; top infill extrusion width = 0.40mm
; first layer extrusion width = 0.42mm

M201 X500 Y500 Z100 E5000 ; sets maximum accelerations, mm/sec^2
M203 X500 Y500 Z10 E60 ; sets maximum feedrates, mm/sec
M204 P500 R1000 T500 ; sets acceleration (P, T) and retract acceleration (R), mm/sec^2
M205 X8.00 Y8.00 Z0.40 E5.00 ; sets the jerk limits, mm/sec
M205 S0 T0 ; sets the minimum extruding and travel feed rate, mm/sec
M107
;TYPE:Custom
G90 ; use absolute coordinates
M83 ; extruder relative mode
M104 S210 ; set extruder temp
M140 S60 ; set bed temp
M190 S60 ; wait for bed temp
M109 S210 ; wait for extruder temp
G28 ; home all
G1 Z2 F240
G1 X2 Y10 F3000
G1 Z0.28 F240
G92 E0
G1 Y190 E15 F1500 ; intro line
G1 X2.3 F5000
G92 E0
G1 Y10 E15 F1200 ; intro line
G92 E0
G21 ; set units to millimeters
G90 ; use absolute coordinates
M83 ; use relative distances for extrusion
; Filament gcode
;LAYER_CHANGE
;Z:0.2
;HEIGHT:0.2
;BEFORE_LAYER_CHANGE
G92 E0
;0.2


G1 E-5.00000 F3600.000
G1 Z0.200 F9000.000
;AFTER_LAYER_CHANGE
;0.2
G1 X106.269 Y84.759
G1 E5.00000 F2400.000
;TYPE:Skirt
;WIDTH:0.42
G1 F1200.000
G1 X106.852 Y84.676 E0.01846
G1 X124.113 Y84.676 E0.54122
G1 X124.712 Y84.754 E0.01894
G1 X125.269 Y84.978 E0.01882
G1 X132.250 Y89.117 E0.25447
G1 X132.720 Y89.491 E0.01882
G1 X135.174 Y92.543 E0.12281
G1 X137.065 Y95.279 E0.10429
G1 X138.790 Y98.217 E0.10682
G1 X140.152 Y101.112 E0.10030
G1 X141.055 Y103.653 E0.08457
G1 X141.683 Y106.137 E0.08031
G1 X142.094 Y108.770 E0.08357
G1 X142.279 Y111.293 E0.07930
G1 X142.347 Y116.982 E0.17839
G1 X142.226 Y120.761 E0.11855
G1 X141.800 Y124.256 E0.11039
G1 X141.169 Y126.963 E0.08717
G1 X140.502 Y128.988 E0.06685
G1 X139.945 Y130.380 E0.04701
G1 X138.279 Y133.725 E0.11715
G1 X136.149 Y137.106 E0.12530
G1 X133.448 Y140.667 E0.14014
G1 X132.746 Y141.489 E0.03389
G1 X132.331 Y141.834 E0.01692
G1 X125.259 Y146.028 E0.25779
G1 X124.716 Y146.245 E0.01835
G1 X124.136 Y146.324 E0.01835
G1 X106.879 Y146.324 E0.54109
G1 X106.229 Y146.230 E0.02060
G1 X105.698 Y146.003 E0.01811
G1 X98.760 Y141.893 E0.25283
G1 X98.240 Y141.474 E0.02095
G1 X95.910 Y138.582 E0.11644
G1 X93.891 Y135.664 E0.11125
G1 X92.013 Y132.413 E0.11772
G1 X90.769 Y129.691 E0.09385
G1 X90.024 Y127.604 E0.06947
G1 X89.333 Y124.943 E0.08620
G1 X88.904 Y122.217 E0.08654
G1 X88.694 Y119.202 E0.09474
G1 X88.660 Y113.866 E0.16734
G1 X88.794 Y109.983 E0.12179
G1 X89.127 Y107.170 E0.08882
G1 X89.825 Y104.060 E0.09995
G1 X90.318 Y102.510 E0.05101
G1 X91.092 Y100.532 E0.06658
G1 X92.627 Y97.453 E0.10786
G1 X94.870 Y93.877 E0.13238
G1 X96.294 Y91.922 E0.07583
G1 X97.715 Y90.146 E0.07131
G1 X98.287 Y89.483 E0.02745
G1 X98.694 Y89.152 E0.01645
G1 X105.721 Y84.984 E0.25617
G1 X106.214 Y84.782 E0.01670
G1 E-3.50000 F3600.000
;WIPE_START
G1 F7200.000
G1 X106.852 Y84.676 E-0.30742
G1 X109.205 Y84.676 E-1.11758
;WIPE_END
G1 E-0.07500 F3600.000
G1 X124.655 Y114.037 F9000.000
G1 E5.00000 F2400.000
;TYPE:Perimeter
G1 F1200.000
G1 X124.922 Y113.912 E0.00923
G1 X125.207 Y113.836 E0.00924
G1 X125.480 Y113.812 E0.00859
G1 X125.789 Y113.835 E0.00974
G1 X126.078 Y113.912 E0.00937
G1 X126.345 Y114.037 E0.00923
G1 X126.586 Y114.206 E0.00923
G1 X126.794 Y114.414 E0.00924
G1 X126.963 Y114.655 E0.00923
G1 X127.088 Y114.922 E0.00923
G1 X127.164 Y115.207 E0.00924
G1 X127.190 Y115.500 E0.00924
G1 X127.164 Y115.793 E0.00923
G1 X127.088 Y116.078 E0.00923
G1 X126.963 Y116.345 E0.00924
G1 X126.794 Y116.586 E0.00923
G1 X126.586 Y116.794 E0.00923
G1 X126.345 Y116.963 E0.00923
G1 X126.078 Y117.088 E0.00923
G1 X125.793 Y117.164 E0.00924
G1 X125.500 Y117.190 E0.00924
G1 X125.207 Y117.164 E0.00924
G1 X124.922 Y117.088 E0.00923
G1 X124.655 Y116.963 E0.00923
G1 X124.414 Y116.794 E0.00924
G1 X124.206 Y116.586 E0.00923
G1 X124.037 Y116.345 E0.00923
G1 X123.912 Y116.078 E0.00924
G1 X123.836 Y115.793 E0.00923
G1 X123.810 Y115.500 E0.00923
G1 X123.836 Y115.207 E0.00924
G1 X123.912 Y114.922 E0.00924
G1 X124.037 Y114.655 E0.00923
G1 X124.206 Y114.414 E0.00923
G1 X124.414 Y114.206 E0.00924
G1 X124.606 Y114.071 E0.00735
G1 X124.822 Y114.380 F9000.000
;TYPE:External perimeter
G1 F1200.000
G1 X125.052 Y114.268 E0.00800
G1 X125.272 Y114.209 E0.00717
G1 X125.482 Y114.190 E0.00660
G1 X125.726 Y114.208 E0.00768
G1 X125.948 Y114.268 E0.00721
G1 X126.156 Y114.364 E0.00717
G1 X126.343 Y114.496 E0.00717
G1 X126.504 Y114.657 E0.00717
G1 X126.636 Y114.844 E0.00717
G1 X126.732 Y115.052 E0.00717
G1 X126.791 Y115.272 E0.00717
G1 X126.811 Y115.500 E0.00717
G1 X126.791 Y115.728 E0.00717
G1 X126.732 Y115.948 E0.00717
G1 X126.636 Y116.156 E0.00717
G1 X126.504 Y116.343 E0.00717
G1 X126.343 Y116.504 E0.00717
G1 X126.156 Y116.636 E0.00717
G1 X125.948 Y116.732 E0.00717
G1 X125.728 Y116.791 E0.00717
G1 X125.500 Y116.811 E0.00717
G1 X125.272 Y116.791 E0.00717
G1 X125.052 Y116.732 E0.00717
G1 X124.844 Y116.636 E0.00717
G1 X124.657 Y116.504 E0.00717
G1 X124.496 Y116.343 E0.00717
G1 X124.364 Y116.156 E0.00717
G1 X124.268 Y115.948 E0.00717
G1 X124.209 Y115.728 E0.00717
G1 X124.189 Y115.500 E0.00717
G1 X124.209 Y115.272 E0.00717
G1 X124.268 Y115.052 E0.00717
G1 X124.364 Y114.844 E0.00717
G1 X124.496 Y114.657 E0.00717
G1 X124.657 Y114.496 E0.00717
G1 X124.773 Y114.414 E0.00444
G1 X124.819 Y114.125 F9000.000
G1 E-3.50000 F3600.000
;WIPE_START
G1 F7200.000
G1 X125.052 Y114.268 E-0.14943
G1 X125.272 Y114.209 E-0.10857
G1 X125.482 Y114.190 E-0.10004
G1 X125.726 Y114.208 E-0.11628
G1 X125.948 Y114.268 E-0.10928
G1 X126.156 Y114.364 E-0.10855
G1 X126.343 Y114.496 E-0.10856
G1 X126.504 Y114.657 E-0.10857
G1 X126.636 Y114.844 E-0.10856
G1 X126.732 Y115.052 E-0.10856
G1 X126.791 Y115.272 E-0.10856
G1 X126.811 Y115.500 E-0.10858
G1 X126.796 Y115.671 E-0.08147
;WIPE_END
G1 E-0.07500 F3600.000
G1 X107.190 Y115.500 F9000.000
G1 E5.00000 F2400.000
;TYPE:Perimeter
G1 F1200.000
G1 X107.164 Y115.793 E0.00924
G1 X107.088 Y116.078 E0.00923
G1 X106.963 Y116.345 E0.00924
G1 X106.794 Y116.586 E0.00924
G1 X106.586 Y116.794 E0.00923
G1 X106.345 Y116.963 E0.00923
G1 X106.078 Y117.088 E0.00923
G1 X105.793 Y117.164 E0.00923
G1 X105.500 Y117.190 E0.00924
G1 X105.207 Y117.164 E0.00924
G1 X104.922 Y117.088 E0.00924
G1 X104.655 Y116.963 E0.00923
G1 X104.414 Y116.794 E0.00923
G1 X104.206 Y116.586 E0.00923
G1 X104.037 Y116.345 E0.00923
G1 X103.912 Y116.078 E0.00924
G1 X103.836 Y115.793 E0.00924
G1 X103.810 Y115.500 E0.00923
G1 X103.836 Y115.207 E0.00924
G1 X103.912 Y114.922 E0.00924
G1 X104.037 Y114.655 E0.00923
G1 X104.206 Y114.414 E0.00923
G1 X104.414 Y114.206 E0.00924
G1 X104.655 Y114.037 E0.00923
G1 X104.922 Y113.912 E0.00923
G1 X105.207 Y113.836 E0.00924
G1 X105.480 Y113.812 E0.00859
G1 X105.789 Y113.835 E0.00974
G1 X106.078 Y113.912 E0.00936
G1 X106.345 Y114.037 E0.00923
G1 X106.586 Y114.206 E0.00923
G1 X106.794 Y114.414 E0.00923
G1 X106.963 Y114.655 E0.00924
G1 X107.088 Y114.922 E0.00923
G1 X107.164 Y115.207 E0.00923
G1 X107.184 Y115.440 E0.00736
G1 X106.809 Y115.473 F9000.000
;TYPE:External perimeter
G1 F1200.000
G1 X106.791 Y115.728 E0.00800
G1 X106.732 Y115.948 E0.00717
G1 X106.636 Y116.156 E0.00717
G1 X106.504 Y116.343 E0.00717
G1 X106.343 Y116.504 E0.00717
G1 X106.156 Y116.636 E0.00717
G1 X105.948 Y116.732 E0.00717
G1 X105.728 Y116.791 E0.00717
G1 X105.500 Y116.811 E0.00717
G1 X105.272 Y116.791 E0.00717
G1 X105.052 Y116.732 E0.00717
G1 X104.844 Y116.636 E0.00717
G1 X104.657 Y116.504 E0.00717
G1 X104.496 Y116.343 E0.00717
G1 X104.364 Y116.156 E0.00717
G1 X104.268 Y115.948 E0.00717
G1 X104.209 Y115.728 E0.00717
G1 X104.189 Y115.500 E0.00717
G1 X104.209 Y115.272 E0.00717
G1 X104.268 Y115.052 E0.00717
G1 X104.364 Y114.844 E0.00717
G1 X104.496 Y114.657 E0.00717
G1 X104.657 Y114.496 E0.00717
G1 X104.844 Y114.364 E0.00717
G1 X105.052 Y114.268 E0.00717
G1 X105.272 Y114.209 E0.00717
G1 X105.482 Y114.190 E0.00660
G1 X105.726 Y114.208 E0.00768
G1 X105.948 Y114.268 E0.00721
G1 X106.156 Y114.364 E0.00717
G1 X106.343 Y114.496 E0.00717
G1 X106.504 Y114.657 E0.00717
G1 X106.636 Y114.844 E0.00717
G1 X106.732 Y115.052 E0.00717
G1 X106.791 Y115.272 E0.00717
G1 X106.804 Y115.413 E0.00444
G1 X107.032 Y115.598 F9000.000
G1 E-3.50000 F3600.000
;WIPE_START
G1 F7200.000
G1 X106.791 Y115.728 E-0.14943
G1 X106.732 Y115.948 E-0.10855
G1 X106.636 Y116.156 E-0.10857
G1 X106.504 Y116.343 E-0.10856
G1 X106.343 Y116.504 E-0.10856
G1 X106.156 Y116.636 E-0.10856
G1 X105.948 Y116.732 E-0.10856
G1 X105.728 Y116.791 E-0.10856
G1 X105.500 Y116.811 E-0.10857
G1 X105.272 Y116.791 E-0.10857
G1 X105.052 Y116.732 E-0.10857
G1 X104.844 Y116.636 E-0.10855
G1 X104.704 Y116.537 E-0.08138
;WIPE_END
G1 E-0.07500 F3600.000
G1 X123.423 Y91.837 F9000.000
G1 E5.00000 F2400.000
;TYPE:Perimeter
G1 F1200.000
G1 X125.202 Y91.837 E0.05581
G1 X124.922 Y91.912 E0.00910
G1 X124.655 Y92.037 E0.00923
G1 X124.414 Y92.206 E0.00924
G1 X124.206 Y92.414 E0.00924
G1 X124.037 Y92.655 E0.00923
G1 X123.912 Y92.922 E0.00924
G1 X123.836 Y93.207 E0.00924
G1 X123.810 Y93.500 E0.00923
G1 X123.836 Y93.793 E0.00923
G1 X123.912 Y94.078 E0.00923
G1 X124.037 Y94.345 E0.00924
G1 X124.206 Y94.586 E0.00924
G1 X124.414 Y94.794 E0.00923
G1 X124.655 Y94.963 E0.00923
G1 X124.922 Y95.088 E0.00924
G1 X125.207 Y95.164 E0.00923
G1 X125.500 Y95.190 E0.00923
G1 X125.793 Y95.164 E0.00923
G1 X126.078 Y95.088 E0.00924
G1 X126.345 Y94.963 E0.00924
G1 X126.586 Y94.794 E0.00923
G1 X126.794 Y94.586 E0.00923
G1 X126.963 Y94.345 E0.00924
G1 X127.088 Y94.078 E0.00924
G1 X127.164 Y93.793 E0.00923
G1 X127.190 Y93.500 E0.00923
G1 X127.164 Y93.207 E0.00923
G1 X127.088 Y92.922 E0.00924
G1 X126.963 Y92.655 E0.00924
G1 X126.794 Y92.414 E0.00923
G1 X126.586 Y92.206 E0.00924
G1 X126.345 Y92.037 E0.00923
G1 X126.078 Y91.912 E0.00923
G1 X125.798 Y91.837 E0.00910
G1 X130.695 Y91.837 E0.15356
G1 X131.822 Y93.203 E0.05553
G1 X132.720 Y94.379 E0.04638
G1 X133.614 Y95.626 E0.04811
G1 X134.484 Y96.930 E0.04914
G1 X135.312 Y98.276 E0.04957
G1 X136.082 Y99.651 E0.04940
G1 X136.897 Y101.313 E0.05804
G1 X132.484 Y101.313 E0.13836
G1 X132.103 Y101.331 E0.01196
G1 X131.709 Y101.388 E0.01247
G1 X131.322 Y101.481 E0.01247
G1 X130.946 Y101.611 E0.01247
G1 X130.585 Y101.776 E0.01247
G1 X130.240 Y101.974 E0.01247
G1 X129.916 Y102.205 E0.01247
G1 X129.615 Y102.465 E0.01247
G1 X129.340 Y102.752 E0.01247
G1 X129.093 Y103.064 E0.01247
G1 X128.883 Y103.390 E0.01215
G1 X128.695 Y103.751 E0.01277
G1 X128.546 Y104.121 E0.01250
G1 X128.433 Y104.502 E0.01247
G1 X128.356 Y104.892 E0.01247
G1 X128.317 Y105.288 E0.01247
G1 X128.316 Y105.686 E0.01247
G1 X128.353 Y106.082 E0.01247
G1 X128.427 Y106.473 E0.01247
G1 X128.537 Y106.855 E0.01247
G1 X128.684 Y107.225 E0.01247
G1 X128.865 Y107.579 E0.01247
G1 X129.078 Y107.914 E0.01247
G1 X129.323 Y108.228 E0.01247
G1 X129.596 Y108.517 E0.01247
G1 X129.895 Y108.779 E0.01247
G1 X130.218 Y109.011 E0.01247
G1 X130.561 Y109.212 E0.01247
G1 X130.922 Y109.379 E0.01247
G1 X131.297 Y109.511 E0.01247
G1 X131.683 Y109.607 E0.01247
G1 X132.077 Y109.666 E0.01247
G1 X132.474 Y109.688 E0.01247
G1 X132.871 Y109.671 E0.01247
G1 X133.265 Y109.617 E0.01247
G1 X133.653 Y109.526 E0.01247
G1 X134.029 Y109.399 E0.01247
G1 X134.392 Y109.236 E0.01247
G1 X134.738 Y109.040 E0.01247
G1 X135.064 Y108.811 E0.01247
G1 X135.366 Y108.553 E0.01247
G1 X135.643 Y108.267 E0.01247
G1 X135.885 Y107.965 E0.01215
G1 X136.109 Y107.625 E0.01277
G1 X136.295 Y107.272 E0.01249
G1 X136.445 Y106.904 E0.01247
G1 X136.561 Y106.523 E0.01247
G1 X136.640 Y106.133 E0.01247
G1 X136.681 Y105.738 E0.01247
G1 X136.685 Y105.340 E0.01247
G1 X136.651 Y104.944 E0.01247
G1 X136.579 Y104.552 E0.01248
G1 X136.453 Y104.126 E0.01395
G1 X137.147 Y104.182 E0.02181
G1 X138.008 Y104.185 E0.02700
G1 X138.359 Y105.376 E0.03891
G1 X138.584 Y106.297 E0.02974
G1 X138.772 Y107.220 E0.02953
G1 X138.992 Y108.640 E0.04505
G1 X139.111 Y109.730 E0.03438
G1 X139.203 Y111.093 E0.04283
G1 X139.253 Y112.531 E0.04511
G1 X139.280 Y114.417 E0.05914
G1 X139.282 Y116.962 E0.07981
G1 X139.244 Y119.090 E0.06671
G1 X139.169 Y120.543 E0.04563
G1 X139.050 Y121.879 E0.04205
G1 X138.884 Y123.125 E0.03941
G1 X138.664 Y124.332 E0.03847
G1 X138.387 Y125.518 E0.03819
G1 X138.048 Y126.701 E0.03858
G1 X137.619 Y127.952 E0.04146
G1 X137.383 Y128.561 E0.02050
G1 X136.856 Y129.789 E0.04188
G1 X136.574 Y130.388 E0.02075
G1 X135.959 Y131.589 E0.04233
G1 X135.244 Y132.850 E0.04543
G1 X134.113 Y134.649 E0.06663
G1 X132.899 Y136.390 E0.06654
G1 X131.789 Y137.849 E0.05750
G1 X130.702 Y139.163 E0.05347
G1 X127.550 Y139.168 E0.09882
G1 X126.982 Y139.203 E0.01784
G1 X127.044 Y139.122 E0.00321
G1 X127.180 Y138.554 E0.01831
G1 X127.162 Y138.221 E0.01045
G1 X127.088 Y137.929 E0.00944
G1 X126.965 Y137.658 E0.00932
G1 X126.795 Y137.415 E0.00931
G1 X126.586 Y137.206 E0.00925
G1 X126.345 Y137.037 E0.00924
G1 X126.078 Y136.912 E0.00924
G1 X125.789 Y136.835 E0.00937
G1 X125.480 Y136.812 E0.00974
G1 X125.207 Y136.836 E0.00859
G1 X124.922 Y136.912 E0.00924
G1 X124.655 Y137.037 E0.00924
G1 X124.414 Y137.206 E0.00924
G1 X124.205 Y137.415 E0.00925
G1 X124.035 Y137.658 E0.00931
G1 X123.912 Y137.929 E0.00932
G1 X123.838 Y138.221 E0.00944
G1 X123.820 Y138.554 E0.01045
G1 X123.956 Y139.122 E0.01831
G1 X124.015 Y139.200 E0.00309
G1 X123.494 Y139.147 E0.01642
G1 X123.424 Y140.747 E0.05023
G1 X123.423 Y143.260 E0.07877
G1 X107.577 Y143.260 E0.49683
G1 X107.576 Y140.747 E0.07877
G1 X107.506 Y139.147 E0.05023
G1 X106.985 Y139.200 E0.01642
G1 X107.044 Y139.122 E0.00309
G1 X107.180 Y138.554 E0.01831
G1 X107.162 Y138.221 E0.01045
G1 X107.088 Y137.929 E0.00944
G1 X106.965 Y137.658 E0.00932
G1 X106.795 Y137.415 E0.00931
G1 X106.586 Y137.206 E0.00925
G1 X106.345 Y137.037 E0.00924
G1 X106.078 Y136.912 E0.00924
G1 X105.789 Y136.835 E0.00936
G1 X105.480 Y136.812 E0.00974
G1 X105.207 Y136.836 E0.00859
G1 X104.922 Y136.912 E0.00924
G1 X104.655 Y137.037 E0.00924
G1 X104.414 Y137.206 E0.00924
G1 X104.205 Y137.415 E0.00925
G1 X104.035 Y137.658 E0.00931
G1 X103.912 Y137.929 E0.00932
G1 X103.838 Y138.221 E0.00945
G1 X103.820 Y138.554 E0.01045
G1 X103.956 Y139.122 E0.01831
G1 X104.018 Y139.203 E0.00321
G1 X103.450 Y139.168 E0.01784
G1 X100.298 Y139.163 E0.09882
G1 X99.211 Y137.849 E0.05347
G1 X98.101 Y136.390 E0.05750
G1 X96.870 Y134.624 E0.06748
G1 X96.097 Y133.415 E0.04499
G1 X95.375 Y132.194 E0.04449
G1 X95.043 Y131.592 E0.02155
G1 X94.427 Y130.391 E0.04233
G1 X93.873 Y129.177 E0.04183
G1 X93.380 Y127.948 E0.04152
G1 X92.952 Y126.701 E0.04134
G1 X92.613 Y125.518 E0.03858
G1 X92.336 Y124.332 E0.03819
G1 X92.116 Y123.125 E0.03847
G1 X91.950 Y121.879 E0.03941
G1 X91.827 Y120.490 E0.04372
G1 X91.756 Y119.089 E0.04400
G1 X91.724 Y117.663 E0.04472
G1 X91.717 Y114.973 E0.08434
G1 X91.747 Y112.547 E0.07607
G1 X91.813 Y110.788 E0.05520
G1 X91.918 Y109.421 E0.04299
G1 X92.073 Y108.162 E0.03975
G1 X92.318 Y106.759 E0.04466
G1 X92.641 Y105.376 E0.04454
G1 X93.050 Y103.994 E0.04520
G1 X93.541 Y102.631 E0.04540
G1 X93.911 Y101.734 E0.03042
G1 X94.222 Y101.043 E0.02377
G1 X94.918 Y99.651 E0.04881
G1 X95.688 Y98.276 E0.04940
G1 X96.518 Y96.928 E0.04965
G1 X96.946 Y96.274 E0.02450
G1 X97.830 Y94.996 E0.04872
G1 X99.180 Y93.202 E0.07040
G1 X100.305 Y91.837 E0.05545
G1 X105.202 Y91.837 E0.15356
G1 X104.922 Y91.912 E0.00910
G1 X104.655 Y92.037 E0.00923
G1 X104.414 Y92.206 E0.00923
G1 X104.206 Y92.414 E0.00924
G1 X104.037 Y92.655 E0.00923
G1 X103.912 Y92.922 E0.00923
G1 X103.836 Y93.207 E0.00924
G1 X103.810 Y93.500 E0.00923
G1 X103.836 Y93.793 E0.00923
G1 X103.912 Y94.078 E0.00924
G1 X104.037 Y94.345 E0.00923
G1 X104.206 Y94.586 E0.00924
G1 X104.414 Y94.794 E0.00923
G1 X104.655 Y94.963 E0.00923
G1 X104.922 Y95.088 E0.00924
G1 X105.207 Y95.164 E0.00924
G1 X105.500 Y95.190 E0.00923
G1 X105.793 Y95.164 E0.00923
G1 X106.078 Y95.088 E0.00923
G1 X106.345 Y94.963 E0.00924
G1 X106.586 Y94.794 E0.00923
G1 X106.794 Y94.586 E0.00923
G1 X106.963 Y94.345 E0.00924
G1 X107.088 Y94.078 E0.00924
G1 X107.164 Y93.793 E0.00923
G1 X107.190 Y93.496 E0.00936
G1 X107.159 Y93.187 E0.00975
