; generated by PrusaSlicer 2.3.0 on 2022-12-29 at 16:33:28 UTC

; 

; external perimeters extrusion width = 0.45mm
; perimeters extrusion width = 0.45mm
; infill extrusion width = 0.45mm
; solid infill extrusion width = 0.45mm
; top infill extrusion width = 0.40mm
; first layer extrusion width = 0.42mm

M201 X500 Y500 Z100 E5000 ; sets maximum accelerations, mm/sec^2
M203 X500 Y500 Z10 E60 ; sets maximum feedrates, mm/sec
M204 P500 R1000 T500 ; sets acceleration (P, T) and retract acceleration (R), mm/sec^2
M205 X8.00 Y8.00 Z0.40 E5.00 ; sets the jerk limits, mm/sec
M205 S0 T0 ; sets the minimum extruding and travel feed rate, mm/sec
M107
;TYPE:Custom
G90 ; use absolute coordinates
M83 ; extruder relative mode
M104 S210 ; set extruder temp
M140 S60 ; set bed temp
M190 S60 ; wait for bed temp
M109 S210 ; wait for extruder temp
G28 ; home all
G1 Z2 F240
G1 X2 Y10 F3000
G1 Z0.28 F240
G92 E0
G1 Y190 E15 F1500 ; intro line
G1 X2.3 F5000
G92 E0
G1 Y10 E15 F1200 ; intro line
G92 E0
G21 ; set units to millimeters
G90 ; use absolute coordinates
M83 ; use relative distances for extrusion
; Filament gcode
;LAYER_CHANGE
;Z:0.2
;HEIGHT:0.2
;BEFORE_LAYER_CHANGE
G92 E0
;0.2


G1 E-5.00000 F3600.000
G1 Z0.200 F9000.000
;AFTER_LAYER_CHANGE
;0.2
G1 X103.443 Y91.532
G1 E5.00000 F2400.000
;TYPE:Skirt
;WIDTH:0.42
G1 F1200.000
G1 X104.891 Y91.158 E0.04688
G1 X125.504 Y91.123 E0.64630
G1 X126.543 Y91.225 E0.03274
G1 X127.531 Y91.521 E0.03234
G1 X128.448 Y92.004 E0.03251
G1 X129.196 Y92.598 E0.02993
G1 X129.719 Y93.168 E0.02425
G1 X130.279 Y94.038 E0.03246
G1 X130.647 Y94.946 E0.03071
G1 X130.850 Y95.965 E0.03257
G1 X130.877 Y139.519 E1.36562
G1 X130.773 Y140.554 E0.03262
G1 X130.469 Y141.555 E0.03282
G1 X129.715 Y142.838 E0.04664
G1 X128.826 Y143.723 E0.03934
G1 X128.113 Y144.198 E0.02686
G1 X127.542 Y144.474 E0.01988
G1 X126.676 Y144.745 E0.02845
G1 X126.058 Y144.848 E0.01964
G1 X105.462 Y144.877 E0.64579
G1 X104.442 Y144.772 E0.03215
G1 X103.445 Y144.469 E0.03269
G1 X102.868 Y144.187 E0.02012
G1 X102.105 Y143.670 E0.02889
G1 X101.091 Y142.575 E0.04680
G1 X100.492 Y141.453 E0.03988
G1 X100.244 Y140.628 E0.02702
G1 X100.143 Y139.941 E0.02178
G1 X100.123 Y96.481 E1.36265
G1 X100.227 Y95.450 E0.03250
G1 X100.531 Y94.445 E0.03293
G1 X101.285 Y93.162 E0.04664
G1 X102.165 Y92.284 E0.03898
G1 X103.392 Y91.562 E0.04463
G1 E-3.50000 F3600.000
;WIPE_START
G1 F7200.000
G1 X104.891 Y91.158 E-0.73759
G1 X106.338 Y91.156 E-0.68741
;WIPE_END
G1 E-0.07500 F3600.000
G1 X124.414 Y117.206 F9000.000
G1 E5.00000 F2400.000
;TYPE:Perimeter
G1 F1200.000
G1 X124.655 Y117.037 E0.00924
G1 X124.922 Y116.912 E0.00924
G1 X125.207 Y116.836 E0.00923
G1 X125.482 Y116.812 E0.00866
G1 X125.790 Y116.835 E0.00969
G1 X126.078 Y116.912 E0.00935
G1 X126.345 Y117.037 E0.00924
G1 X126.586 Y117.206 E0.00924
G1 X126.794 Y117.414 E0.00924
G1 X126.963 Y117.655 E0.00924
G1 X127.088 Y117.922 E0.00924
G1 X127.164 Y118.207 E0.00923
G1 X127.190 Y118.500 E0.00923
G1 X127.164 Y118.793 E0.00923
G1 X127.088 Y119.078 E0.00924
G1 X126.963 Y119.345 E0.00923
G1 X126.794 Y119.586 E0.00923
G1 X126.599 Y119.782 E0.00867
G1 X126.348 Y119.962 E0.00969
G1 X126.078 Y120.088 E0.00935
G1 X125.793 Y120.164 E0.00923
G1 X125.500 Y120.190 E0.00923
G1 X125.207 Y120.164 E0.00923
G1 X124.940 Y120.093 E0.00866
G1 X124.658 Y119.965 E0.00969
G1 X124.414 Y119.794 E0.00935
G1 X124.206 Y119.586 E0.00924
G1 X124.037 Y119.345 E0.00923
G1 X123.912 Y119.078 E0.00923
G1 X123.836 Y118.793 E0.00924
G1 X123.810 Y118.500 E0.00923
G1 X123.836 Y118.207 E0.00923
G1 X123.912 Y117.922 E0.00923
G1 X124.037 Y117.655 E0.00924
G1 X124.206 Y117.414 E0.00924
G1 X124.371 Y117.248 E0.00735
G1 X124.638 Y117.515 F9000.000
;TYPE:External perimeter
G1 F1200.000
G1 X124.844 Y117.364 E0.00800
G1 X125.052 Y117.268 E0.00717
G1 X125.272 Y117.209 E0.00717
G1 X125.484 Y117.190 E0.00667
G1 X125.726 Y117.208 E0.00762
G1 X125.948 Y117.268 E0.00721
G1 X126.156 Y117.364 E0.00717
G1 X126.343 Y117.496 E0.00717
G1 X126.504 Y117.657 E0.00717
G1 X126.636 Y117.844 E0.00717
G1 X126.732 Y118.052 E0.00717
G1 X126.791 Y118.272 E0.00717
G1 X126.811 Y118.500 E0.00717
G1 X126.791 Y118.728 E0.00717
G1 X126.732 Y118.948 E0.00717
G1 X126.636 Y119.156 E0.00717
G1 X126.504 Y119.343 E0.00717
G1 X126.354 Y119.493 E0.00667
G1 X126.157 Y119.635 E0.00762
G1 X125.948 Y119.732 E0.00721
G1 X125.728 Y119.791 E0.00717
G1 X125.500 Y119.811 E0.00717
G1 X125.272 Y119.791 E0.00717
G1 X125.067 Y119.736 E0.00667
G1 X124.845 Y119.636 E0.00762
G1 X124.657 Y119.504 E0.00721
G1 X124.496 Y119.343 E0.00717
G1 X124.364 Y119.156 E0.00717
G1 X124.268 Y118.948 E0.00717
G1 X124.209 Y118.728 E0.00717
G1 X124.189 Y118.500 E0.00717
G1 X124.209 Y118.272 E0.00717
G1 X124.268 Y118.052 E0.00717
G1 X124.364 Y117.844 E0.00717
G1 X124.496 Y117.657 E0.00717
G1 X124.596 Y117.557 E0.00444
G1 X124.590 Y117.264 F9000.000
G1 E-3.50000 F3600.000
;WIPE_START
G1 F7200.000
G1 X124.844 Y117.364 E-0.14944
G1 X125.052 Y117.268 E-0.10857
G1 X125.272 Y117.209 E-0.10856
G1 X125.484 Y117.190 E-0.10103
G1 X125.726 Y117.208 E-0.11538
G1 X125.948 Y117.268 E-0.10917
G1 X126.156 Y117.364 E-0.10857
G1 X126.343 Y117.496 E-0.10856
G1 X126.504 Y117.657 E-0.10857
G1 X126.636 Y117.844 E-0.10856
G1 X126.732 Y118.052 E-0.10857
G1 X126.791 Y118.272 E-0.10856
G1 X126.806 Y118.443 E-0.08147
;WIPE_END
G1 E-0.07500 F3600.000
G1 X107.190 Y118.500 F9000.000
G1 E5.00000 F2400.000
;TYPE:Perimeter
G1 F1200.000
G1 X107.164 Y118.793 E0.00923
G1 X107.088 Y119.078 E0.00924
G1 X106.963 Y119.345 E0.00923
G1 X106.794 Y119.586 E0.00923
G1 X106.599 Y119.782 E0.00867
G1 X106.348 Y119.962 E0.00969
G1 X106.078 Y120.088 E0.00935
G1 X105.793 Y120.164 E0.00923
G1 X105.500 Y120.190 E0.00923
G1 X105.207 Y120.164 E0.00923
G1 X104.922 Y120.088 E0.00924
G1 X104.655 Y119.963 E0.00923
G1 X104.414 Y119.794 E0.00923
G1 X104.206 Y119.586 E0.00924
G1 X104.037 Y119.345 E0.00923
G1 X103.912 Y119.078 E0.00923
G1 X103.836 Y118.793 E0.00924
G1 X103.810 Y118.500 E0.00923
G1 X103.836 Y118.207 E0.00923
G1 X103.912 Y117.922 E0.00923
G1 X104.037 Y117.655 E0.00924
G1 X104.206 Y117.414 E0.00924
G1 X104.414 Y117.206 E0.00924
G1 X104.655 Y117.037 E0.00923
G1 X104.922 Y116.912 E0.00923
G1 X105.207 Y116.836 E0.00924
G1 X105.482 Y116.812 E0.00866
G1 X105.790 Y116.835 E0.00969
G1 X106.078 Y116.912 E0.00935
G1 X106.345 Y117.037 E0.00924
G1 X106.586 Y117.206 E0.00924
G1 X106.794 Y117.414 E0.00924
G1 X106.963 Y117.655 E0.00924
G1 X107.088 Y117.922 E0.00924
G1 X107.164 Y118.207 E0.00923
G1 X107.184 Y118.440 E0.00735
G1 X106.809 Y118.473 F9000.000
;TYPE:External perimeter
G1 F1200.000
G1 X106.791 Y118.728 E0.00800
G1 X106.732 Y118.948 E0.00717
G1 X106.636 Y119.156 E0.00717
G1 X106.504 Y119.343 E0.00717
G1 X106.354 Y119.493 E0.00667
G1 X106.157 Y119.635 E0.00762
G1 X105.948 Y119.732 E0.00721
G1 X105.728 Y119.791 E0.00717
G1 X105.500 Y119.811 E0.00717
G1 X105.272 Y119.791 E0.00717
G1 X105.052 Y119.732 E0.00717
G1 X104.844 Y119.636 E0.00717
G1 X104.657 Y119.504 E0.00717
G1 X104.496 Y119.343 E0.00717
G1 X104.364 Y119.156 E0.00717
G1 X104.268 Y118.948 E0.00717
G1 X104.209 Y118.728 E0.00717
G1 X104.189 Y118.500 E0.00717
G1 X104.209 Y118.272 E0.00717
G1 X104.268 Y118.052 E0.00717
G1 X104.364 Y117.844 E0.00717
G1 X104.496 Y117.657 E0.00717
G1 X104.657 Y117.496 E0.00717
G1 X104.844 Y117.364 E0.00717
G1 X105.052 Y117.268 E0.00717
G1 X105.272 Y117.209 E0.00717
G1 X105.484 Y117.190 E0.00667
G1 X105.726 Y117.208 E0.00762
G1 X105.948 Y117.268 E0.00721
G1 X106.156 Y117.364 E0.00717
G1 X106.343 Y117.496 E0.00717
G1 X106.504 Y117.657 E0.00717
G1 X106.636 Y117.844 E0.00717
G1 X106.732 Y118.052 E0.00717
G1 X106.791 Y118.272 E0.00717
G1 X106.804 Y118.413 E0.00444
G1 X107.032 Y118.598 F9000.000
G1 E-3.50000 F3600.000
;WIPE_START
G1 F7200.000
G1 X106.791 Y118.728 E-0.14943
G1 X106.732 Y118.948 E-0.10858
G1 X106.636 Y119.156 E-0.10856
G1 X106.504 Y119.343 E-0.10856
G1 X106.354 Y119.493 E-0.10104
G1 X106.157 Y119.635 E-0.11538
G1 X105.948 Y119.732 E-0.10919
G1 X105.728 Y119.791 E-0.10856
G1 X105.500 Y119.811 E-0.10856
G1 X105.272 Y119.791 E-0.10856
G1 X105.052 Y119.732 E-0.10858
G1 X104.844 Y119.636 E-0.10856
G1 X104.704 Y119.537 E-0.08146
;WIPE_END
G1 E-0.07500 F3600.000
G1 X103.865 Y141.135 F9000.000
G1 E5.00000 F2400.000
;TYPE:Perimeter
G1 F1200.000
G1 X103.578 Y140.785 E0.01421
G1 X103.364 Y140.385 E0.01421
G1 X103.232 Y139.951 E0.01421
G1 X103.187 Y139.483 E0.01474
G1 X103.187 Y96.517 E1.34718
G1 X103.232 Y96.049 E0.01474
G1 X103.287 Y95.829 E0.00711
G1 X103.461 Y95.410 E0.01421
G1 X103.713 Y95.033 E0.01421
G1 X103.993 Y94.749 E0.01250
G1 X103.912 Y94.922 E0.00597
G1 X103.836 Y95.207 E0.00923
G1 X103.810 Y95.500 E0.00923
G1 X103.836 Y95.793 E0.00923
G1 X103.912 Y96.078 E0.00924
G1 X104.037 Y96.345 E0.00924
G1 X104.206 Y96.586 E0.00923
G1 X104.414 Y96.794 E0.00924
G1 X104.655 Y96.963 E0.00923
G1 X104.922 Y97.088 E0.00923
G1 X105.207 Y97.164 E0.00924
G1 X105.500 Y97.190 E0.00923
G1 X105.793 Y97.164 E0.00923
G1 X106.078 Y97.088 E0.00924
G1 X106.345 Y96.963 E0.00923
G1 X106.586 Y96.794 E0.00924
G1 X106.794 Y96.586 E0.00924
G1 X106.963 Y96.345 E0.00923
G1 X107.088 Y96.078 E0.00924
G1 X107.164 Y95.793 E0.00924
G1 X107.190 Y95.500 E0.00923
G1 X107.164 Y95.207 E0.00923
G1 X107.088 Y94.922 E0.00923
G1 X106.963 Y94.655 E0.00924
G1 X106.794 Y94.414 E0.00924
G1 X106.560 Y94.187 E0.01023
G1 X124.440 Y94.187 E0.56062
G1 X124.206 Y94.414 E0.01022
G1 X124.037 Y94.655 E0.00924
G1 X123.912 Y94.922 E0.00924
G1 X123.836 Y95.207 E0.00923
G1 X123.810 Y95.500 E0.00923
G1 X123.836 Y95.793 E0.00923
G1 X123.912 Y96.078 E0.00924
G1 X124.037 Y96.345 E0.00924
G1 X124.206 Y96.586 E0.00923
G1 X124.414 Y96.794 E0.00924
G1 X124.655 Y96.963 E0.00923
G1 X124.922 Y97.088 E0.00923
G1 X125.207 Y97.164 E0.00924
G1 X125.500 Y97.190 E0.00923
G1 X125.793 Y97.164 E0.00923
G1 X126.078 Y97.088 E0.00924
G1 X126.345 Y96.963 E0.00923
G1 X126.586 Y96.794 E0.00924
G1 X126.794 Y96.586 E0.00924
G1 X126.963 Y96.345 E0.00923
G1 X127.088 Y96.078 E0.00924
G1 X127.164 Y95.793 E0.00924
G1 X127.190 Y95.500 E0.00923
G1 X127.164 Y95.207 E0.00923
G1 X127.088 Y94.922 E0.00923
G1 X127.007 Y94.749 E0.00597
G1 X127.287 Y95.033 E0.01250
G1 X127.422 Y95.215 E0.00711
G1 X127.636 Y95.615 E0.01421
G1 X127.768 Y96.049 E0.01421
G1 X127.813 Y96.517 E0.01474
G1 X127.813 Y139.483 E1.34718
G1 X127.768 Y139.951 E0.01474
G1 X127.636 Y140.385 E0.01421
G1 X127.539 Y140.590 E0.00712
G1 X127.287 Y140.967 E0.01421
G1 X127.007 Y141.251 E0.01250
G1 X127.088 Y141.078 E0.00597
G1 X127.164 Y140.793 E0.00923
G1 X127.190 Y140.500 E0.00923
G1 X127.164 Y140.207 E0.00923
G1 X127.088 Y139.922 E0.00923
G1 X126.963 Y139.655 E0.00924
G1 X126.794 Y139.414 E0.00924
G1 X126.586 Y139.206 E0.00924
G1 X126.345 Y139.037 E0.00924
G1 X126.078 Y138.912 E0.00924
G1 X125.790 Y138.835 E0.00935
G1 X125.482 Y138.812 E0.00968
G1 X125.207 Y138.836 E0.00866
G1 X124.922 Y138.912 E0.00923
G1 X124.655 Y139.037 E0.00924
G1 X124.414 Y139.206 E0.00924
G1 X124.206 Y139.414 E0.00924
G1 X124.037 Y139.655 E0.00924
G1 X123.912 Y139.922 E0.00924
G1 X123.836 Y140.207 E0.00923
G1 X123.810 Y140.500 E0.00923
G1 X123.836 Y140.793 E0.00923
G1 X123.912 Y141.078 E0.00923
G1 X124.037 Y141.345 E0.00924
G1 X124.206 Y141.586 E0.00924
G1 X124.440 Y141.813 E0.01022
G1 X106.560 Y141.813 E0.56062
G1 X106.797 Y141.584 E0.01035
G1 X106.971 Y141.328 E0.00969
G1 X107.088 Y141.078 E0.00867
G1 X107.164 Y140.793 E0.00923
G1 X107.190 Y140.500 E0.00923
G1 X107.164 Y140.207 E0.00923
G1 X107.088 Y139.922 E0.00923
G1 X106.963 Y139.655 E0.00924
G1 X106.794 Y139.414 E0.00924
G1 X106.586 Y139.206 E0.00924
G1 X106.345 Y139.037 E0.00924
G1 X106.078 Y138.912 E0.00924
G1 X105.790 Y138.835 E0.00935
G1 X105.482 Y138.812 E0.00968
G1 X105.207 Y138.836 E0.00866
G1 X104.922 Y138.912 E0.00924
G1 X104.655 Y139.037 E0.00923
G1 X104.414 Y139.206 E0.00923
G1 X104.206 Y139.414 E0.00924
G1 X104.037 Y139.655 E0.00924
G1 X103.912 Y139.922 E0.00924
G1 X103.836 Y140.207 E0.00923
G1 X103.810 Y140.500 E0.00923
G1 X103.836 Y140.793 E0.00923
G1 X103.912 Y141.078 E0.00923
G1 X103.993 Y141.251 E0.00597
G1 X103.910 Y141.175 E0.00352
G1 E-3.50000 F3600.000
;WIPE_START
G1 F7200.000
G1 X103.578 Y140.785 E-0.24352
G1 X103.364 Y140.385 E-0.21529
G1 X103.232 Y139.951 E-0.21531
G1 X103.187 Y139.483 E-0.22329
G1 X103.187 Y138.372 E-0.52759
;WIPE_END
G1 E-0.07500 F3600.000
G1 X124.844 Y96.636 F9000.000
G1 E5.00000 F2400.000
;TYPE:External perimeter
G1 F1200.000
G1 X124.657 Y96.504 E0.00717
G1 X124.496 Y96.343 E0.00717
G1 X124.364 Y96.156 E0.00717
G1 X124.268 Y95.948 E0.00717
G1 X124.209 Y95.728 E0.00717
G1 X124.189 Y95.500 E0.00717
G1 X124.209 Y95.272 E0.00717
G1 X124.268 Y95.052 E0.00717
G1 X124.364 Y94.844 E0.00717
G1 X124.496 Y94.657 E0.00717
G1 X124.657 Y94.496 E0.00717
G1 X124.844 Y94.364 E0.00717
G1 X125.052 Y94.268 E0.00717
G1 X125.272 Y94.209 E0.00717
G1 X125.484 Y94.190 E0.00667
G1 X125.726 Y94.208 E0.00762
G1 X125.948 Y94.268 E0.00721
G1 X126.156 Y94.364 E0.00717
G1 X126.343 Y94.496 E0.00717
G1 X126.504 Y94.657 E0.00717
G1 X126.636 Y94.844 E0.00717
G1 X126.732 Y95.052 E0.00717
G1 X126.791 Y95.272 E0.00717
G1 X126.811 Y95.500 E0.00717
G1 X126.791 Y95.728 E0.00717
G1 X126.732 Y95.948 E0.00717
G1 X126.636 Y96.156 E0.00717
G1 X126.504 Y96.343 E0.00717
G1 X126.343 Y96.504 E0.00717
G1 X126.156 Y96.636 E0.00717
G1 X125.948 Y96.732 E0.00717
G1 X125.728 Y96.791 E0.00717
G1 X125.500 Y96.811 E0.00717
G1 X125.272 Y96.791 E0.00717
G1 X125.052 Y96.732 E0.00717
G1 X124.899 Y96.661 E0.00528
G1 X124.646 Y96.750 F9000.000
G1 E-3.50000 F3600.000
;WIPE_START
G1 F7200.000
G1 X124.657 Y96.504 E-0.13672
G1 X124.496 Y96.343 E-0.10857
G1 X124.364 Y96.156 E-0.10856
G1 X124.268 Y95.948 E-0.10856
G1 X124.209 Y95.728 E-0.10857
G1 X124.189 Y95.500 E-0.10856
G1 X124.209 Y95.272 E-0.10856
G1 X124.268 Y95.052 E-0.10856
G1 X124.364 Y94.844 E-0.10857
G1 X124.496 Y94.657 E-0.10857
G1 X124.657 Y94.496 E-0.10856
G1 X124.844 Y94.364 E-0.10856
G1 X125.024 Y94.281 E-0.09408
;WIPE_END
G1 E-0.07500 F3600.000
G1 X106.811 Y95.500 F9000.000
G1 E5.00000 F2400.000
G1 F1200.000
G1 X106.791 Y95.728 E0.00717
G1 X106.732 Y95.948 E0.00717
G1 X106.636 Y96.156 E0.00717
G1 X106.504 Y96.343 E0.00717
G1 X106.343 Y96.504 E0.00717
G1 X106.156 Y96.636 E0.00717
G1 X105.948 Y96.732 E0.00717
G1 X105.728 Y96.791 E0.00717
G1 X105.500 Y96.811 E0.00717
G1 X105.272 Y96.791 E0.00717
G1 X105.052 Y96.732 E0.00717
G1 X104.844 Y96.636 E0.00717
G1 X104.657 Y96.504 E0.00717
G1 X104.496 Y96.343 E0.00717
G1 X104.364 Y96.156 E0.00717
G1 X104.268 Y95.948 E0.00717
G1 X104.209 Y95.728 E0.00717
G1 X104.189 Y95.500 E0.00717
G1 X104.209 Y95.272 E0.00717
G1 X104.268 Y95.052 E0.00717
G1 X104.364 Y94.844 E0.00717
G1 X104.496 Y94.657 E0.00717
G1 X104.657 Y94.496 E0.00717
G1 X104.844 Y94.364 E0.00717
G1 X105.052 Y94.268 E0.00717
G1 X105.272 Y94.209 E0.00717
G1 X105.484 Y94.190 E0.00667
G1 X105.726 Y94.208 E0.00762
G1 X105.948 Y94.268 E0.00721
G1 X106.156 Y94.364 E0.00717
G1 X106.343 Y94.496 E0.00717
G1 X106.504 Y94.657 E0.00717
G1 X106.636 Y94.844 E0.00717
G1 X106.732 Y95.052 E0.00717
G1 X106.791 Y95.272 E0.00717
G1 X106.806 Y95.440 E0.00528
G1 X107.009 Y95.614 F9000.000
G1 E-3.50000 F3600.000
;WIPE_START
G1 F7200.000
G1 X106.791 Y95.728 E-0.13671
G1 X106.732 Y95.948 E-0.10857
G1 X106.636 Y96.156 E-0.10856
G1 X106.504 Y96.343 E-0.10856
G1 X106.343 Y96.504 E-0.10857
G1 X106.156 Y96.636 E-0.10856
G1 X105.948 Y96.732 E-0.10856
G1 X105.728 Y96.791 E-0.10856
G1 X105.500 Y96.811 E-0.10856
G1 X105.272 Y96.791 E-0.10856
G1 X105.052 Y96.732 E-0.10858
G1 X104.844 Y96.636 E-0.10855
G1 X104.682 Y96.522 E-0.09408
;WIPE_END
G1 E-0.07500 F3600.000
G1 X105.484 Y139.190 F9000.000
G1 E5.00000 F2400.000
G1 F1200.000
G1 X105.726 Y139.208 E0.00762
G1 X105.948 Y139.268 E0.00721
G1 X106.156 Y139.364 E0.00717
G1 X106.343 Y139.496 E0.00717
G1 X106.504 Y139.657 E0.00717
G1 X106.636 Y139.844 E0.00717
G1 X106.732 Y140.052 E0.00717
G1 X106.791 Y140.272 E0.00717
G1 X106.811 Y140.500 E0.00717
G1 X106.791 Y140.728 E0.00717
G1 X106.732 Y140.948 E0.00717
G1 X106.642 Y141.141 E0.00667
G1 X106.505 Y141.342 E0.00762
G1 X106.343 Y141.504 E0.00721
G1 X106.156 Y141.636 E0.00717
