; generated by PrusaSlicer 2.3.0 on 2022-12-29 at 16:35:35 UTC

; 

; external perimeters extrusion width = 0.45mm
; perimeters extrusion width = 0.45mm
; infill extrusion width = 0.45mm
; solid infill extrusion width = 0.45mm
; top infill extrusion width = 0.40mm
; first layer extrusion width = 0.42mm

M201 X500 Y500 Z100 E5000 ; sets maximum accelerations, mm/sec^2
M203 X500 Y500 Z10 E60 ; sets maximum feedrates, mm/sec
M204 P500 R1000 T500 ; sets acceleration (P, T) and retract acceleration (R), mm/sec^2
M205 X8.00 Y8.00 Z0.40 E5.00 ; sets the jerk limits, mm/sec
M205 S0 T0 ; sets the minimum extruding and travel feed rate, mm/sec
M107
;TYPE:Custom
G90 ; use absolute coordinates
M83 ; extruder relative mode
M104 S210 ; set extruder temp
M140 S60 ; set bed temp
M190 S60 ; wait for bed temp
M109 S210 ; wait for extruder temp
G28 ; home all
G1 Z2 F240
G1 X2 Y10 F3000
G1 Z0.28 F240
G92 E0
G1 Y190 E15 F1500 ; intro line
G1 X2.3 F5000
G92 E0
G1 Y10 E15 F1200 ; intro line
G92 E0
G21 ; set units to millimeters
G90 ; use absolute coordinates
M83 ; use relative distances for extrusion
; Filament gcode
;LAYER_CHANGE
;Z:0.2
;HEIGHT:0.2
;BEFORE_LAYER_CHANGE
G92 E0
;0.2


G1 E-5.00000 F3600.000
G1 Z0.200 F9000.000
;AFTER_LAYER_CHANGE
;0.2
G1 X107.968 Y102.496
G1 E5.00000 F2400.000
;TYPE:Skirt
;WIDTH:0.42
G1 F1200.000
G1 X109.623 Y101.206 E0.06580
G1 X111.463 Y100.267 E0.06477
G1 X113.447 Y99.690 E0.06477
G1 X115.504 Y99.496 E0.06477
G1 X116.864 Y99.581 E0.04275
G1 X118.140 Y99.820 E0.04069
G1 X118.954 Y100.056 E0.02658
G1 X120.164 Y100.538 E0.04082
G1 X121.362 Y101.196 E0.04287
G1 X122.415 Y101.956 E0.04069
G1 X123.051 Y102.516 E0.02658
G1 X123.943 Y103.470 E0.04095
G1 X124.731 Y104.552 E0.04198
G1 X130.983 Y114.258 E0.36198
G1 X131.172 Y114.781 E0.01745
G1 X131.252 Y115.336 E0.01758
G1 X131.253 Y117.836 E0.07837
G1 X131.155 Y118.483 E0.02052
G1 X127.751 Y128.494 E0.33152
G1 X127.373 Y129.159 E0.02399
G1 X126.740 Y129.940 E0.03152
G1 X126.180 Y130.431 E0.02335
G1 X125.366 Y130.940 E0.03011
G1 X124.208 Y131.363 E0.03867
G1 X123.060 Y131.504 E0.03625
G1 X107.971 Y131.504 E0.47310
G1 X106.710 Y131.342 E0.03986
G1 X105.657 Y130.952 E0.03523
G1 X104.610 Y130.262 E0.03931
G1 X103.799 Y129.402 E0.03705
G1 X103.094 Y128.126 E0.04573
G1 X99.824 Y118.401 E0.32171
G1 X99.747 Y117.820 E0.01835
G1 X99.746 Y115.434 E0.07484
G1 X99.845 Y114.717 E0.02269
G1 X100.173 Y113.977 E0.02536
G1 X106.282 Y104.533 E0.35267
G1 X107.059 Y103.468 E0.04134
G1 X107.927 Y102.540 E0.03984
G1 E-3.50000 F3600.000
;WIPE_START
G1 F7200.000
G1 X109.623 Y101.206 E-1.02492
G1 X110.373 Y100.823 E-0.40008
;WIPE_END
G1 E-0.07500 F3600.000
G1 X109.827 Y101.523 F9000.000
G1 E5.00000 F2400.000
G1 F1200.000
G1 X111.601 Y100.618 E0.06242
G1 X113.520 Y100.060 E0.06266
G1 X115.505 Y99.873 E0.06254
G1 X116.820 Y99.956 E0.04129
G1 X118.058 Y100.188 E0.03950
G1 X120.005 Y100.880 E0.06480
G1 X121.162 Y101.516 E0.04141
G1 X122.184 Y102.253 E0.03950
G1 X123.651 Y103.709 E0.06479
G1 X124.413 Y104.755 E0.04057
G1 X130.638 Y114.411 E0.36022
G1 X130.807 Y114.875 E0.01550
G1 X130.875 Y115.361 E0.01538
G1 X130.876 Y117.819 E0.07705
G1 X130.789 Y118.390 E0.01811
G1 X127.414 Y128.325 E0.32900
G1 X127.067 Y128.940 E0.02215
G1 X126.470 Y129.677 E0.02973
G1 X125.956 Y130.128 E0.02144
G1 X125.191 Y130.607 E0.02830
G1 X124.115 Y130.998 E0.03590
G1 X123.046 Y131.127 E0.03377
G1 X107.977 Y131.127 E0.47247
G1 X106.804 Y130.977 E0.03708
G1 X105.829 Y130.617 E0.03258
G1 X104.857 Y129.977 E0.03648
G1 X103.942 Y128.952 E0.04308
G1 X103.440 Y127.975 E0.03447
G1 X100.191 Y118.315 E0.31955
G1 X100.124 Y117.806 E0.01609
G1 X100.123 Y115.439 E0.07423
G1 X100.211 Y114.810 E0.01989
G1 X100.493 Y114.176 E0.02178
G1 X106.597 Y104.740 E0.35238
G1 X107.351 Y103.707 E0.04009
G1 X108.225 Y102.773 E0.04010
G1 X109.780 Y101.560 E0.06184
G1 E-3.50000 F3600.000
;WIPE_START
G1 F7200.000
G1 X111.601 Y100.618 E-0.97360
G1 X112.513 Y100.353 E-0.45140
;WIPE_END
G1 E-0.07500 F3600.000
G1 X123.013 Y116.137 F9000.000
G1 E5.00000 F2400.000
;TYPE:Perimeter
G1 F1200.000
G1 X127.813 Y116.137 E0.15050
G1 X127.813 Y117.063 E0.02903
G1 X122.887 Y117.063 E0.15445
G1 X122.887 Y112.063 E0.15677
G1 X121.471 Y112.063 E0.04440
G1 X121.564 Y111.682 E0.01230
G1 X121.641 Y111.212 E0.01494
G1 X121.681 Y110.737 E0.01494
G1 X121.685 Y110.261 E0.01494
G1 X121.652 Y109.785 E0.01494
G1 X121.582 Y109.314 E0.01494
G1 X121.477 Y108.849 E0.01494
G1 X121.336 Y108.394 E0.01494
G1 X121.161 Y107.951 E0.01494
G1 X120.952 Y107.523 E0.01494
G1 X120.710 Y107.113 E0.01494
G1 X120.438 Y106.722 E0.01494
G1 X120.137 Y106.353 E0.01494
G1 X119.808 Y106.008 E0.01494
G1 X119.453 Y105.690 E0.01494
G1 X119.075 Y105.400 E0.01494
G1 X118.676 Y105.140 E0.01494
G1 X118.258 Y104.911 E0.01494
G1 X117.824 Y104.715 E0.01494
G1 X117.376 Y104.554 E0.01494
G1 X116.917 Y104.427 E0.01494
G1 X116.449 Y104.336 E0.01494
G1 X115.976 Y104.281 E0.01494
G1 X115.500 Y104.262 E0.01494
G1 X115.024 Y104.281 E0.01494
G1 X114.551 Y104.336 E0.01494
G1 X114.083 Y104.427 E0.01494
G1 X113.624 Y104.554 E0.01494
G1 X113.176 Y104.715 E0.01494
G1 X112.742 Y104.911 E0.01494
G1 X112.324 Y105.140 E0.01494
G1 X111.925 Y105.400 E0.01494
G1 X111.546 Y105.690 E0.01496
G1 X111.182 Y106.019 E0.01539
G1 X110.863 Y106.353 E0.01446
G1 X110.562 Y106.722 E0.01494
G1 X110.290 Y107.113 E0.01494
G1 X110.048 Y107.524 E0.01496
G1 X109.834 Y107.966 E0.01539
G1 X109.664 Y108.394 E0.01446
G1 X109.523 Y108.849 E0.01494
G1 X109.418 Y109.314 E0.01494
G1 X109.348 Y109.785 E0.01494
G1 X109.315 Y110.261 E0.01494
G1 X109.319 Y110.737 E0.01494
G1 X109.359 Y111.212 E0.01494
G1 X109.436 Y111.682 E0.01494
G1 X109.529 Y112.063 E0.01230
G1 X108.113 Y112.063 E0.04440
G1 X108.113 Y117.063 E0.15677
G1 X103.187 Y117.063 E0.15445
G1 X103.187 Y116.137 E0.02903
G1 X107.987 Y116.137 E0.15050
G1 X107.987 Y110.461 E0.17798
G1 X108.002 Y109.978 E0.01514
G1 X108.047 Y109.508 E0.01480
G1 X108.120 Y109.042 E0.01480
G1 X108.223 Y108.582 E0.01480
G1 X108.355 Y108.128 E0.01480
G1 X108.515 Y107.684 E0.01480
G1 X108.702 Y107.251 E0.01480
G1 X108.917 Y106.831 E0.01480
G1 X109.157 Y106.425 E0.01480
G1 X109.422 Y106.034 E0.01480
G1 X109.711 Y105.661 E0.01480
G1 X110.024 Y105.307 E0.01480
G1 X110.357 Y104.974 E0.01480
G1 X110.711 Y104.661 E0.01480
G1 X111.084 Y104.372 E0.01480
G1 X111.475 Y104.107 E0.01480
G1 X111.881 Y103.867 E0.01480
G1 X112.301 Y103.652 E0.01480
G1 X112.734 Y103.465 E0.01480
G1 X113.178 Y103.305 E0.01480
G1 X113.632 Y103.173 E0.01480
G1 X114.092 Y103.070 E0.01480
G1 X114.558 Y102.997 E0.01480
G1 X115.028 Y102.952 E0.01479
G1 X115.509 Y102.938 E0.01510
G1 X115.972 Y102.952 E0.01450
G1 X116.442 Y102.997 E0.01480
G1 X116.908 Y103.070 E0.01480
G1 X117.368 Y103.173 E0.01479
G1 X117.830 Y103.308 E0.01510
G1 X118.266 Y103.465 E0.01450
G1 X118.699 Y103.652 E0.01480
G1 X119.119 Y103.867 E0.01480
G1 X119.525 Y104.107 E0.01479
G1 X119.923 Y104.378 E0.01510
G1 X120.289 Y104.661 E0.01450
G1 X120.643 Y104.974 E0.01480
G1 X120.976 Y105.307 E0.01480
G1 X121.289 Y105.661 E0.01480
G1 X121.578 Y106.034 E0.01480
G1 X121.843 Y106.425 E0.01480
G1 X122.083 Y106.831 E0.01480
G1 X122.298 Y107.251 E0.01480
G1 X122.485 Y107.684 E0.01480
G1 X122.645 Y108.128 E0.01480
G1 X122.777 Y108.582 E0.01480
G1 X122.880 Y109.042 E0.01480
G1 X122.953 Y109.508 E0.01480
G1 X122.998 Y109.978 E0.01480
G1 X123.013 Y110.461 E0.01514
G1 X123.013 Y116.077 E0.17609
G1 X123.390 Y115.760 F9000.000
;TYPE:External perimeter
G1 F1200.000
G1 X128.190 Y115.760 E0.15050
G1 X128.190 Y117.440 E0.05268
G1 X122.510 Y117.440 E0.17809
G1 X122.510 Y112.440 E0.15677
G1 X120.958 Y112.440 E0.04867
G1 X121.088 Y112.041 E0.01315
G1 X121.194 Y111.607 E0.01403
G1 X121.266 Y111.165 E0.01403
G1 X121.304 Y110.719 E0.01403
G1 X121.307 Y110.272 E0.01403
G1 X121.277 Y109.826 E0.01403
G1 X121.211 Y109.383 E0.01403
G1 X121.112 Y108.947 E0.01403
G1 X120.980 Y108.520 E0.01403
G1 X120.815 Y108.104 E0.01403
G1 X120.619 Y107.702 E0.01403
G1 X120.393 Y107.316 E0.01403
G1 X120.137 Y106.949 E0.01403
G1 X119.854 Y106.603 E0.01403
G1 X119.545 Y106.279 E0.01403
G1 X119.212 Y105.980 E0.01403
G1 X118.857 Y105.708 E0.01403
G1 X118.483 Y105.464 E0.01403
G1 X118.090 Y105.249 E0.01403
G1 X117.682 Y105.065 E0.01403
G1 X117.262 Y104.913 E0.01403
G1 X116.830 Y104.794 E0.01403
G1 X116.391 Y104.709 E0.01403
G1 X115.947 Y104.657 E0.01403
G1 X115.500 Y104.640 E0.01403
G1 X115.053 Y104.657 E0.01403
G1 X114.609 Y104.709 E0.01403
G1 X114.170 Y104.794 E0.01403
G1 X113.738 Y104.913 E0.01403
G1 X113.318 Y105.065 E0.01403
G1 X112.910 Y105.249 E0.01403
G1 X112.517 Y105.464 E0.01403
G1 X112.143 Y105.708 E0.01403
G1 X111.788 Y105.980 E0.01403
G1 X111.445 Y106.290 E0.01448
G1 X111.146 Y106.603 E0.01356
G1 X110.863 Y106.949 E0.01403
G1 X110.607 Y107.316 E0.01403
G1 X110.381 Y107.702 E0.01403
G1 X110.179 Y108.117 E0.01448
G1 X110.020 Y108.520 E0.01356
G1 X109.887 Y108.947 E0.01403
G1 X109.789 Y109.383 E0.01403
G1 X109.723 Y109.826 E0.01403
G1 X109.692 Y110.272 E0.01403
G1 X109.696 Y110.719 E0.01403
G1 X109.734 Y111.165 E0.01403
G1 X109.806 Y111.607 E0.01403
G1 X109.912 Y112.041 E0.01403
G1 X110.042 Y112.440 E0.01315
G1 X108.490 Y112.440 E0.04867
G1 X108.490 Y117.440 E0.15677
G1 X102.810 Y117.440 E0.17809
G1 X102.810 Y115.760 E0.05268
G1 X107.610 Y115.760 E0.15050
G1 X107.610 Y110.455 E0.16634
G1 X107.626 Y109.955 E0.01569
G1 X107.672 Y109.461 E0.01554
G1 X107.750 Y108.972 E0.01554
G1 X107.858 Y108.488 E0.01554
G1 X107.996 Y108.012 E0.01554
G1 X108.164 Y107.546 E0.01554
G1 X108.361 Y107.091 E0.01554
G1 X108.586 Y106.649 E0.01554
G1 X108.838 Y106.222 E0.01554
G1 X109.117 Y105.812 E0.01554
G1 X109.421 Y105.421 E0.01554
G1 X109.749 Y105.049 E0.01554
G1 X110.099 Y104.698 E0.01554
G1 X110.471 Y104.371 E0.01554
G1 X110.862 Y104.067 E0.01554
G1 X111.272 Y103.788 E0.01554
G1 X111.699 Y103.536 E0.01554
G1 X112.141 Y103.311 E0.01554
G1 X112.596 Y103.114 E0.01554
G1 X113.062 Y102.946 E0.01554
G1 X113.538 Y102.808 E0.01554
G1 X114.022 Y102.700 E0.01554
G1 X114.511 Y102.622 E0.01554
G1 X115.004 Y102.576 E0.01554
G1 X115.510 Y102.560 E0.01585
G1 X115.995 Y102.576 E0.01524
G1 X116.489 Y102.622 E0.01554
G1 X116.978 Y102.700 E0.01554
G1 X117.462 Y102.808 E0.01554
G1 X117.947 Y102.950 E0.01585
G1 X118.404 Y103.114 E0.01524
G1 X118.859 Y103.311 E0.01554
G1 X119.301 Y103.536 E0.01554
G1 X119.727 Y103.788 E0.01554
G1 X120.145 Y104.073 E0.01585
G1 X120.529 Y104.371 E0.01524
G1 X120.901 Y104.698 E0.01554
G1 X121.251 Y105.049 E0.01554
G1 X121.579 Y105.421 E0.01554
G1 X121.883 Y105.812 E0.01554
G1 X122.162 Y106.222 E0.01554
G1 X122.414 Y106.649 E0.01554
G1 X122.639 Y107.091 E0.01554
G1 X122.836 Y107.546 E0.01554
G1 X123.004 Y108.012 E0.01554
G1 X123.142 Y108.488 E0.01554
G1 X123.250 Y108.972 E0.01554
G1 X123.328 Y109.461 E0.01554
G1 X123.374 Y109.955 E0.01554
G1 X123.390 Y110.455 E0.01569
G1 X123.390 Y115.700 E0.16446
G1 X123.390 Y116.160 F9000.000
G1 E-3.50000 F3600.000
;WIPE_START
G1 F7200.000
G1 X126.390 Y115.737 E-1.42500
;WIPE_END
G1 E-0.07500 F3600.000
G1 X127.616 Y116.950 F9000.000
G1 E5.00000 F2400.000
;TYPE:Solid infill
;WIDTH:0.430041
G1 F1200.000
G1 X127.086 Y116.420 E0.02413
G1 X126.538 Y116.420 E0.01762
G1 X126.899 Y116.780 E0.01640
G1 X126.351 Y116.780 E0.01762
G1 X125.991 Y116.420 E0.01640
G1 X125.444 Y116.420 E0.01762
G1 X125.804 Y116.780 E0.01640
G1 X125.256 Y116.780 E0.01762
G1 X124.896 Y116.420 E0.01640
G1 X124.349 Y116.420 E0.01762
G1 X124.709 Y116.780 E0.01640
G1 X124.161 Y116.780 E0.01762
G1 X123.801 Y116.420 E0.01640
G1 X123.254 Y116.420 E0.01762
G1 X123.784 Y116.950 E0.02413
G1 E-3.50000 F3600.000
;WIPE_START
G1 F7200.000
G1 X123.254 Y116.420 E-0.35601
G1 X123.801 Y116.420 E-0.26005
G1 X124.161 Y116.780 E-0.24202
G1 X124.709 Y116.780 E-0.26005
G1 X124.349 Y116.420 E-0.24202
G1 X124.485 Y116.420 E-0.06485
;WIPE_END
G1 E-0.07500 F3600.000
G1 X119.476 Y104.210 F9000.000
G1 E5.00000 F2400.000
;WIDTH:0.424428
G1 F1200.000
G1 X120.794 Y105.528 E0.05911
G1 X121.071 Y105.842 E0.01326
G1 X121.349 Y106.200 E0.01441
G1 X121.604 Y106.576 E0.01441
G1 X121.983 Y107.256 E0.02469
G1 X118.694 Y103.967 E0.14755
G1 X118.161 Y103.728 E0.01852
G1 X117.776 Y103.589 E0.01298
G1 X122.361 Y108.174 E0.20566
G1 X122.561 Y108.913 E0.02432
G1 X121.358 Y107.710 E0.05399
G1 X121.603 Y108.300 E0.02028
G1 X121.690 Y108.582 E0.00937
G1 X122.675 Y109.567 E0.04416
G1 X122.720 Y110.152 E0.01861
G1 X121.866 Y109.297 E0.03833
G1 X121.944 Y109.915 E0.01976
G1 X122.730 Y110.701 E0.03526
G1 X122.730 Y111.241 E0.01712
G1 X121.966 Y110.476 E0.03429
G1 X121.943 Y110.993 E0.01641
G1 X122.730 Y111.780 E0.03531
G1 X122.190 Y111.780 E0.01712
G1 X121.736 Y111.326 E0.02037
G1 E-3.50000 F3600.000
;WIPE_START
G1 F7200.000
G1 X122.190 Y111.780 E-0.30494
G1 X122.730 Y111.780 E-0.25628
G1 X121.943 Y110.993 E-0.52865
G1 X121.966 Y110.476 E-0.24567
G1 X122.099 Y110.610 E-0.08946
;WIPE_END
G1 E-0.07500 F3600.000
G1 X118.637 Y104.989 F9000.000
G1 E5.00000 F2400.000
G1 F1200.000
G1 X117.036 Y103.389 E0.07179
G1 X116.383 Y103.275 E0.02104
G1 X117.365 Y104.257 E0.04406
G1 X116.982 Y104.151 E0.01262
G1 X116.656 Y104.088 E0.01051
G1 X115.798 Y103.230 E0.03850
G1 X115.257 Y103.228 E0.01716
G1 X116.031 Y104.002 E0.03473
G1 X115.470 Y103.981 E0.01782
G1 X114.752 Y103.262 E0.03222
G1 X114.594 Y103.277 E0.00503
G1 X114.277 Y103.327 E0.01017
G1 X114.954 Y104.004 E0.03036
G1 X114.473 Y104.063 E0.01537
G1 X113.829 Y103.419 E0.02888
G1 X113.405 Y103.534 E0.01396
G1 X114.021 Y104.151 E0.02767
G1 X113.598 Y104.267 E0.01392
G1 X113.001 Y103.670 E0.02681
G1 X112.616 Y103.824 E0.01316
G1 X113.198 Y104.407 E0.02613
G1 X112.818 Y104.566 E0.01307
G1 X112.249 Y103.997 E0.02556
G1 X111.898 Y104.185 E0.01264
G1 X112.457 Y104.745 E0.02510
G1 X112.113 Y104.940 E0.01256
G1 X111.562 Y104.389 E0.02470
G1 X111.251 Y104.601 E0.01196
G1 X111.786 Y105.153 E0.02439
G1 X111.479 Y105.385 E0.01222
G1 X110.938 Y104.844 E0.02430
G1 X110.648 Y105.094 E0.01213
G1 X111.188 Y105.633 E0.02419
G1 X110.910 Y105.895 E0.01211
G1 X110.373 Y105.358 E0.02408
G1 X110.111 Y105.636 E0.01211
G1 X110.646 Y106.171 E0.02402
G1 X110.404 Y106.468 E0.01216
G1 X109.863 Y105.927 E0.02426
G1 X109.629 Y106.233 E0.01221
G1 X110.176 Y106.780 E0.02456
G1 X109.964 Y107.108 E0.01238
G1 X109.411 Y106.554 E0.02484
G1 X109.209 Y106.892 E0.01248
G1 X109.769 Y107.451 E0.02511
G1 X109.593 Y107.815 E0.01281
G1 X109.023 Y107.245 E0.02555
G1 X108.958 Y107.372 E0.00451
G1 X108.853 Y107.615 E0.00841
G1 X109.437 Y108.199 E0.02620
G1 X109.303 Y108.604 E0.01354
G1 X108.701 Y108.002 E0.02700
G1 X108.624 Y108.216 E0.00720
G1 X108.568 Y108.409 E0.00638
G1 X109.191 Y109.032 E0.02797
G1 X109.106 Y109.487 E0.01466
G1 X108.456 Y108.837 E0.02917
G1 X108.368 Y109.288 E0.01459
G1 X109.052 Y109.972 E0.03068
G1 X109.034 Y110.494 E0.01657
G1 X108.306 Y109.766 E0.03266
G1 X108.276 Y110.275 E0.01618
G1 X109.063 Y111.062 E0.03531
G1 X109.151 Y111.690 E0.02010
G1 X108.270 Y110.808 E0.03953
G1 X108.270 Y111.348 E0.01712
G1 X108.872 Y111.950 E0.02700
G1 E-3.50000 F3600.000
;WIPE_START
G1 F7200.000
G1 X108.270 Y111.348 E-0.40429
G1 X108.270 Y110.808 E-0.25628
G1 X109.151 Y111.690 E-0.59190
G1 X109.101 Y111.330 E-0.17253
;WIPE_END
G1 E-0.07500 F3600.000
G1 X107.916 Y116.950 F9000.000
G1 E5.00000 F2400.000
;WIDTH:0.430039
G1 F1200.000
G1 X107.386 Y116.420 E0.02413
G1 X106.838 Y116.420 E0.01762
G1 X107.199 Y116.780 E0.01640
G1 X106.651 Y116.780 E0.01762
G1 X106.291 Y116.420 E0.01640
G1 X105.744 Y116.420 E0.01762
G1 X106.104 Y116.780 E0.01640
G1 X105.556 Y116.780 E0.01762
G1 X105.196 Y116.420 E0.01640
G1 X104.649 Y116.420 E0.01762
G1 X105.009 Y116.780 E0.01640
G1 X104.461 Y116.780 E0.01762
G1 X104.101 Y116.420 E0.01640
G1 X103.554 Y116.420 E0.01762
G1 X104.084 Y116.950 E0.02413
G1 E-3.50000 F3600.000
;WIPE_START
G1 F7200.000
G1 X103.554 Y116.420 E-0.35601
G1 X104.101 Y116.420 E-0.26005
G1 X104.461 Y116.780 E-0.24202
G1 X105.009 Y116.780 E-0.26005
G1 X104.649 Y116.420 E-0.24202
G1 X104.785 Y116.420 E-0.06486
;WIPE_END
G1 E-0.07500 F3600.000
G1 X121.537 Y125.405 F9000.000
G1 E5.00000 F2400.000
;TYPE:Perimeter
;WIDTH:0.42
G1 F1200.000
G1 X121.706 Y125.164 E0.00923
G1 X121.914 Y124.956 E0.00923
