; generated by PrusaSlicer 2.3.0 on 2022-12-29 at 17:54:16 UTC

; 

; external perimeters extrusion width = 0.45mm
; perimeters extrusion width = 0.45mm
; infill extrusion width = 0.45mm
; solid infill extrusion width = 0.45mm
; top infill extrusion width = 0.40mm
; first layer extrusion width = 0.42mm

M201 X500 Y500 Z100 E5000 ; sets maximum accelerations, mm/sec^2
M203 X500 Y500 Z10 E60 ; sets maximum feedrates, mm/sec
M204 P500 R1000 T500 ; sets acceleration (P, T) and retract acceleration (R), mm/sec^2
M205 X8.00 Y8.00 Z0.40 E5.00 ; sets the jerk limits, mm/sec
M205 S0 T0 ; sets the minimum extruding and travel feed rate, mm/sec
M107
;TYPE:Custom
G90 ; use absolute coordinates
M83 ; extruder relative mode
M104 S210 ; set extruder temp
M140 S60 ; set bed temp
M190 S60 ; wait for bed temp
M109 S210 ; wait for extruder temp
G28 ; home all
G1 Z2 F240
G1 X2 Y10 F3000
G1 Z0.28 F240
G92 E0
G1 Y190 E15 F1500 ; intro line
G1 X2.3 F5000
G92 E0
G1 Y10 E15 F1200 ; intro line
G92 E0
G21 ; set units to millimeters
G90 ; use absolute coordinates
M83 ; use relative distances for extrusion
; Filament gcode
;LAYER_CHANGE
;Z:0.2
;HEIGHT:0.2
;BEFORE_LAYER_CHANGE
G92 E0
;0.2


G1 E-5.00000 F3600.000
G1 Z0.200 F9000.000
;AFTER_LAYER_CHANGE
;0.2
G1 X100.509 Y89.517
G1 E5.00000 F2400.000
;TYPE:Skirt
;WIDTH:0.42
G1 F1200.000
G1 X101.109 Y89.232 E0.02083
G1 X101.760 Y89.124 E0.02071
G1 X115.986 Y89.123 E0.44604
G1 X127.879 Y90.732 E0.37629
G1 X128.746 Y90.988 E0.02833
G1 X129.343 Y91.260 E0.02059
G1 X129.888 Y91.597 E0.02007
G1 X130.592 Y92.184 E0.02873
G1 X146.545 Y109.241 E0.73229
G1 X147.336 Y110.266 E0.04060
G1 X147.584 Y110.829 E0.01929
G1 X147.680 Y111.437 E0.01929
G1 X147.681 Y119.523 E0.25353
G1 X147.592 Y120.143 E0.01965
G1 X147.243 Y120.875 E0.02543
G1 X146.193 Y122.118 E0.05101
G1 X129.989 Y138.247 E0.71684
G1 X129.123 Y138.980 E0.03559
G1 X128.079 Y139.609 E0.03820
G1 X127.082 Y140.017 E0.03379
G1 X126.031 Y140.273 E0.03391
G1 X116.175 Y141.869 E0.31306
G1 X101.807 Y141.877 E0.45051
G1 X101.175 Y141.788 E0.02000
G1 X100.522 Y141.492 E0.02249
G1 X99.984 Y141.012 E0.02260
G1 X83.631 Y120.503 E0.82243
G1 X83.406 Y119.963 E0.01835
G1 X83.320 Y119.381 E0.01846
G1 X83.319 Y111.303 E0.25329
G1 X83.408 Y110.682 E0.01965
G1 X83.634 Y110.143 E0.01835
G1 X84.088 Y109.499 E0.02469
G1 X99.984 Y89.990 E0.78905
G1 X100.464 Y89.557 E0.02025
G1 E-3.50000 F3600.000
;WIPE_START
G1 F7200.000
G1 X101.109 Y89.232 E-0.34300
G1 X101.760 Y89.124 E-0.31380
G1 X103.378 Y89.124 E-0.76820
;WIPE_END
G1 E-0.07500 F3600.000
G1 X137.617 Y113.412 F9000.000
G1 E5.00000 F2400.000
;TYPE:External perimeter
G1 F1200.000
G1 X137.833 Y113.114 E0.01154
G1 X138.077 Y112.838 E0.01154
G1 X138.347 Y112.588 E0.01154
G1 X138.639 Y112.364 E0.01154
G1 X138.952 Y112.170 E0.01154
G1 X139.282 Y112.007 E0.01154
G1 X139.626 Y111.876 E0.01154
G1 X139.982 Y111.779 E0.01154
G1 X140.345 Y111.717 E0.01154
G1 X140.695 Y111.692 E0.01102
G1 X141.079 Y111.700 E0.01205
G1 X141.445 Y111.744 E0.01156
G1 X141.805 Y111.823 E0.01154
G1 X142.155 Y111.937 E0.01154
G1 X142.493 Y112.084 E0.01154
G1 X142.814 Y112.263 E0.01154
G1 X143.117 Y112.472 E0.01154
G1 X143.399 Y112.710 E0.01154
G1 X143.656 Y112.973 E0.01154
G1 X143.886 Y113.260 E0.01154
G1 X144.088 Y113.568 E0.01154
G1 X144.259 Y113.894 E0.01154
G1 X144.398 Y114.235 E0.01154
G1 X144.503 Y114.588 E0.01154
G1 X144.574 Y114.949 E0.01154
G1 X144.610 Y115.316 E0.01154
G1 X144.610 Y115.684 E0.01154
G1 X144.574 Y116.051 E0.01154
G1 X144.503 Y116.412 E0.01154
G1 X144.398 Y116.765 E0.01154
G1 X144.259 Y117.106 E0.01154
G1 X144.088 Y117.432 E0.01154
G1 X143.886 Y117.740 E0.01154
G1 X143.656 Y118.027 E0.01154
G1 X143.399 Y118.290 E0.01154
G1 X143.117 Y118.528 E0.01154
G1 X142.814 Y118.737 E0.01154
G1 X142.493 Y118.916 E0.01154
G1 X142.155 Y119.063 E0.01154
G1 X141.805 Y119.177 E0.01154
G1 X141.445 Y119.256 E0.01154
G1 X141.080 Y119.300 E0.01154
G1 X140.712 Y119.309 E0.01154
G1 X140.345 Y119.283 E0.01154
G1 X139.982 Y119.221 E0.01154
G1 X139.626 Y119.124 E0.01154
G1 X139.282 Y118.993 E0.01154
G1 X138.952 Y118.830 E0.01154
G1 X138.639 Y118.636 E0.01154
G1 X138.347 Y118.412 E0.01154
G1 X138.077 Y118.162 E0.01154
G1 X137.833 Y117.886 E0.01154
G1 X137.617 Y117.588 E0.01154
G1 X137.430 Y117.271 E0.01154
G1 X137.275 Y116.937 E0.01154
G1 X137.153 Y116.590 E0.01154
G1 X137.064 Y116.232 E0.01154
G1 X137.011 Y115.868 E0.01154
G1 X136.993 Y115.500 E0.01154
G1 X137.011 Y115.132 E0.01154
G1 X137.064 Y114.768 E0.01154
G1 X137.153 Y114.410 E0.01154
G1 X137.275 Y114.063 E0.01154
G1 X137.430 Y113.729 E0.01154
G1 X137.586 Y113.464 E0.00966
G1 X137.451 Y113.083 F9000.000
G1 X136.991 Y113.779
;TYPE:Perimeter
G1 F1200.000
G1 X136.991 Y111.722 E0.06449
G1 X137.315 Y111.320 E0.01621
G1 X137.565 Y111.065 E0.01119
G1 X137.834 Y110.830 E0.01119
G1 X138.120 Y110.617 E0.01119
G1 X138.421 Y110.425 E0.01119
G1 X138.735 Y110.257 E0.01118
G1 X139.067 Y110.110 E0.01139
G1 X139.398 Y109.993 E0.01100
G1 X139.742 Y109.900 E0.01119
G1 X140.093 Y109.833 E0.01119
G1 X140.447 Y109.793 E0.01118
G1 X140.810 Y109.779 E0.01139
G1 X141.160 Y109.793 E0.01100
G1 X141.515 Y109.833 E0.01119
G1 X141.865 Y109.900 E0.01119
G1 X142.210 Y109.993 E0.01119
G1 X142.546 Y110.112 E0.01119
G1 X142.872 Y110.257 E0.01119
G1 X143.187 Y110.425 E0.01119
G1 X143.488 Y110.617 E0.01119
G1 X143.774 Y110.830 E0.01119
G1 X144.042 Y111.065 E0.01119
G1 X144.293 Y111.320 E0.01119
G1 X144.617 Y111.722 E0.01621
G1 X144.617 Y113.772 E0.06427
G1 X144.414 Y113.377 E0.01393
G1 X144.192 Y113.038 E0.01269
G1 X143.938 Y112.723 E0.01269
G1 X143.656 Y112.433 E0.01269
G1 X143.347 Y112.172 E0.01269
G1 X143.014 Y111.943 E0.01269
G1 X142.660 Y111.746 E0.01269
G1 X142.289 Y111.584 E0.01269
G1 X141.904 Y111.459 E0.01269
G1 X141.509 Y111.372 E0.01269
G1 X141.106 Y111.323 E0.01273
G1 X140.685 Y111.315 E0.01319
G1 X140.299 Y111.343 E0.01214
G1 X139.900 Y111.411 E0.01269
G1 X139.510 Y111.517 E0.01269
G1 X139.131 Y111.661 E0.01269
G1 X138.769 Y111.840 E0.01269
G1 X138.425 Y112.053 E0.01269
G1 X138.103 Y112.299 E0.01269
G1 X137.807 Y112.575 E0.01269
G1 X137.539 Y112.878 E0.01269
G1 X137.301 Y113.205 E0.01269
G1 X137.016 Y113.725 E0.01858
G1 E-3.50000 F3600.000
;WIPE_START
G1 F7200.000
G1 X136.991 Y111.722 E-0.95126
G1 X137.315 Y111.320 E-0.24556
G1 X137.565 Y111.065 E-0.16948
G1 X137.658 Y110.984 E-0.05869
;WIPE_END
G1 E-0.07500 F3600.000
G1 X136.991 Y117.221 F9000.000
G1 E5.00000 F2400.000
G1 F1200.000
G1 X137.096 Y117.446 E0.00779
G1 X137.301 Y117.795 E0.01269
G1 X137.539 Y118.122 E0.01269
G1 X137.807 Y118.425 E0.01269
G1 X138.103 Y118.701 E0.01269
G1 X138.425 Y118.947 E0.01269
G1 X138.769 Y119.160 E0.01269
G1 X139.131 Y119.339 E0.01269
G1 X139.510 Y119.483 E0.01269
G1 X139.900 Y119.589 E0.01269
G1 X140.299 Y119.657 E0.01269
G1 X140.703 Y119.687 E0.01269
G1 X141.107 Y119.677 E0.01269
G1 X141.509 Y119.628 E0.01269
G1 X141.904 Y119.541 E0.01269
G1 X142.289 Y119.416 E0.01269
G1 X142.660 Y119.254 E0.01269
G1 X143.014 Y119.057 E0.01269
G1 X143.347 Y118.828 E0.01269
G1 X143.656 Y118.567 E0.01269
G1 X143.938 Y118.277 E0.01269
G1 X144.192 Y117.962 E0.01269
G1 X144.414 Y117.623 E0.01269
G1 X144.617 Y117.228 E0.01393
G1 X144.617 Y119.278 E0.06427
G1 X144.293 Y119.680 E0.01621
G1 X144.042 Y119.935 E0.01119
G1 X143.774 Y120.170 E0.01119
G1 X143.488 Y120.383 E0.01119
G1 X143.187 Y120.575 E0.01119
G1 X142.872 Y120.743 E0.01119
G1 X142.546 Y120.887 E0.01119
G1 X142.210 Y121.007 E0.01119
G1 X141.865 Y121.100 E0.01119
G1 X141.515 Y121.167 E0.01119
G1 X141.160 Y121.207 E0.01119
G1 X140.804 Y121.221 E0.01119
G1 X140.447 Y121.207 E0.01119
G1 X140.093 Y121.167 E0.01119
G1 X139.742 Y121.100 E0.01119
G1 X139.398 Y121.007 E0.01119
G1 X139.062 Y120.887 E0.01119
G1 X138.735 Y120.743 E0.01119
G1 X138.421 Y120.575 E0.01119
G1 X138.120 Y120.383 E0.01119
G1 X137.834 Y120.170 E0.01119
G1 X137.565 Y119.935 E0.01119
G1 X137.315 Y119.680 E0.01119
G1 X136.991 Y119.278 E0.01621
G1 X136.991 Y117.281 E0.06261
G1 E-3.50000 F3600.000
;WIPE_START
G1 F7200.000
G1 X137.096 Y117.446 E-0.09300
G1 X137.301 Y117.795 E-0.19222
G1 X137.539 Y118.122 E-0.19222
G1 X137.807 Y118.425 E-0.19220
G1 X138.103 Y118.701 E-0.19222
G1 X138.425 Y118.947 E-0.19222
G1 X138.769 Y119.160 E-0.19221
G1 X139.106 Y119.327 E-0.17872
;WIPE_END
G1 E-0.07500 F3600.000
G1 X136.614 Y119.400 F9000.000
G1 E5.00000 F2400.000
;TYPE:External perimeter
G1 F1200.000
G1 X136.614 Y111.600 E0.24454
G1 X136.788 Y111.360 E0.00930
G1 X137.036 Y111.065 E0.01208
G1 X137.306 Y110.791 E0.01208
G1 X137.597 Y110.537 E0.01208
G1 X137.905 Y110.306 E0.01208
G1 X138.230 Y110.099 E0.01208
G1 X138.570 Y109.917 E0.01208
G1 X138.928 Y109.760 E0.01228
G1 X139.286 Y109.633 E0.01188
G1 X139.657 Y109.532 E0.01208
G1 X140.036 Y109.460 E0.01208
G1 X140.419 Y109.416 E0.01208
G1 X140.810 Y109.402 E0.01228
G1 X141.189 Y109.416 E0.01188
G1 X141.572 Y109.460 E0.01208
G1 X141.950 Y109.532 E0.01208
G1 X142.322 Y109.633 E0.01208
G1 X142.685 Y109.762 E0.01208
G1 X143.038 Y109.917 E0.01208
G1 X143.378 Y110.099 E0.01208
G1 X143.703 Y110.306 E0.01208
G1 X144.011 Y110.537 E0.01208
G1 X144.301 Y110.791 E0.01208
G1 X144.571 Y111.065 E0.01208
G1 X144.820 Y111.360 E0.01208
G1 X144.994 Y111.600 E0.00930
G1 X144.994 Y119.400 E0.24454
G1 X144.820 Y119.640 E0.00930
G1 X144.571 Y119.935 E0.01208
G1 X144.301 Y120.209 E0.01208
G1 X144.011 Y120.463 E0.01208
G1 X143.703 Y120.694 E0.01208
G1 X143.378 Y120.901 E0.01208
G1 X143.038 Y121.083 E0.01208
G1 X142.685 Y121.238 E0.01208
G1 X142.322 Y121.367 E0.01208
G1 X141.950 Y121.468 E0.01208
G1 X141.572 Y121.540 E0.01208
G1 X141.189 Y121.584 E0.01208
G1 X140.804 Y121.598 E0.01208
G1 X140.419 Y121.584 E0.01208
G1 X140.036 Y121.540 E0.01208
G1 X139.657 Y121.468 E0.01208
G1 X139.286 Y121.367 E0.01208
G1 X138.922 Y121.238 E0.01208
G1 X138.570 Y121.083 E0.01208
G1 X138.230 Y120.901 E0.01208
G1 X137.905 Y120.694 E0.01208
G1 X137.597 Y120.463 E0.01208
G1 X137.306 Y120.209 E0.01208
G1 X137.036 Y119.935 E0.01208
G1 X136.649 Y119.448 E0.01949
G1 X136.904 Y119.124 F9000.000
G1 E-3.50000 F3600.000
;WIPE_START
G1 F7200.000
G1 X136.636 Y116.448 E-1.42500
;WIPE_END
G1 E-0.07500 F3600.000
G1 X136.952 Y117.036 F9000.000
G1 E5.00000 F2400.000
;TYPE:Gap fill
;WIDTH:0.29843
G1 F1200.000
G1 X136.921 Y116.854 E0.00392
;WIDTH:0.257808
G1 X136.890 Y116.672 E0.00330
;WIDTH:0.217188
G1 X136.865 Y116.471 E0.00294
;WIDTH:0.167825
G1 X136.841 Y116.278 E0.00202
;WIDTH:0.120906
G1 X136.826 Y116.064 E0.00139
G1 X136.826 Y114.936 F9000.000
;WIDTH:0.120907
G1 F1200.000
G1 X136.841 Y114.722 E0.00139
;WIDTH:0.167826
G1 X136.865 Y114.529 E0.00202
;WIDTH:0.217188
G1 X136.890 Y114.328 E0.00294
;WIDTH:0.257809
G1 X136.921 Y114.146 E0.00330
;WIDTH:0.298432
G1 X136.952 Y113.964 E0.00392
G1 E-3.50000 F3600.000
;WIPE_START
G1 F7200.000
G1 X136.921 Y114.146 E-0.08769
;WIPE_END
G1 E-1.41231 F3600.000
G1 X143.045 Y110.477 F9000.000
G1 E5.00000 F2400.000
;TYPE:Solid infill
;WIDTH:0.433332
G1 F1200.000
G1 X144.104 Y111.536 E0.04862
G1 X144.334 Y111.822 E0.01191
G1 X144.334 Y112.318 E0.01612
G1 X142.363 Y110.348 E0.09047
G1 X142.125 Y110.264 E0.00819
G1 X141.601 Y110.137 E0.01752
G1 X143.171 Y111.708 E0.07208
G1 X142.785 Y111.492 E0.01434
G1 X142.389 Y111.320 E0.01402
G1 X142.155 Y111.243 E0.00801
G1 X140.980 Y110.069 E0.05391
G1 X140.468 Y110.075 E0.01662
G1 X140.438 Y110.078 E0.00100
G1 X141.437 Y111.078 E0.04591
G1 X141.126 Y111.041 E0.01019
G1 X140.842 Y111.035 E0.00922
G1 X139.954 Y110.147 E0.04074
G1 X139.511 Y110.256 E0.01483
G1 X140.313 Y111.058 E0.03683
G1 X139.838 Y111.135 E0.01563
G1 X139.105 Y110.403 E0.03361
G1 X138.731 Y110.580 E0.01346
G1 X139.405 Y111.254 E0.03097
G1 X139.006 Y111.407 E0.01388
G1 X138.383 Y110.784 E0.02860
G1 X138.061 Y111.014 E0.01285
G1 X138.636 Y111.590 E0.02643
G1 X138.295 Y111.801 E0.01302
G1 X137.763 Y111.268 E0.02445
G1 X137.527 Y111.508 E0.01092
G1 X137.492 Y111.550 E0.00177
G1 X137.980 Y112.038 E0.02237
G1 X137.689 Y112.299 E0.01269
G1 X137.274 Y111.884 E0.01905
G1 X137.274 Y112.436 E0.01792
G1 X137.542 Y112.704 E0.01230
G1 E-3.50000 F3600.000
;WIPE_START
G1 F7200.000
G1 X137.274 Y112.436 E-0.17996
G1 X137.274 Y111.884 E-0.26226
G1 X137.689 Y112.299 E-0.27872
G1 X137.980 Y112.038 E-0.18572
G1 X137.492 Y111.550 E-0.32735
G1 X137.527 Y111.508 E-0.02587
G1 X137.763 Y111.268 E-0.15973
G1 X137.771 Y111.276 E-0.00539
;WIPE_END
G1 E-0.07500 F3600.000
G1 X144.308 Y112.672 F9000.000
G1 E5.00000 F2400.000
;TYPE:Gap fill
;WIDTH:0.13687
G1 F1200.000
G1 X144.412 Y112.994 E0.00265
G1 X144.653 Y113.957 F9000.000
;WIDTH:0.239217
G1 F1200.000
G1 X144.726 Y114.397 E0.00727
;WIDTH:0.127958
G1 X144.783 Y114.914 E0.00368
G1 X144.783 Y116.086 F9000.000
;WIDTH:0.127958
G1 F1200.000
G1 X144.764 Y116.277 E0.00136
;WIDTH:0.164006
G1 X144.745 Y116.474 E0.00199
;WIDTH:0.201612
G1 X144.726 Y116.603 E0.00172
;WIDTH:0.239217
G1 X144.707 Y116.732 E0.00212
;WIDTH:0.28072
G1 X144.686 Y116.872 E0.00280
;WIDTH:0.298453
G1 X144.653 Y117.043 E0.00370
G1 X144.412 Y118.006 F9000.000
;WIDTH:0.13687
G1 F1200.000
G1 X144.308 Y118.328 E0.00265
G1 X144.474 Y119.275 F9000.000
;TYPE:Solid infill
;WIDTH:0.432363
G1 F1200.000
G1 X143.910 Y118.711 E0.02582
G1 X143.617 Y118.969 E0.01264
G1 X144.108 Y119.459 E0.02245
G1 X143.837 Y119.739 E0.01261
G1 X143.301 Y119.203 E0.02455
G1 X142.958 Y119.412 E0.01298
G1 X143.539 Y119.992 E0.02658
G1 X143.217 Y120.221 E0.01279
G1 X142.589 Y119.593 E0.02874
G1 X142.190 Y119.745 E0.01382
G1 X142.869 Y120.424 E0.03110
G1 X142.495 Y120.601 E0.01340
G1 X141.757 Y119.863 E0.03380
G1 X141.284 Y119.940 E0.01553
G1 X142.090 Y120.746 E0.03690
G1 X141.647 Y120.854 E0.01476
G1 X140.761 Y119.968 E0.04056
G1 X140.163 Y119.921 E0.01942
G1 X141.164 Y120.922 E0.04585
G1 X140.622 Y120.931 E0.01755
G1 X139.452 Y119.760 E0.05361
G1 X139.018 Y119.599 E0.01497
G1 X138.631 Y119.408 E0.01399
G1 X138.413 Y119.272 E0.00833
G1 X140.002 Y120.862 E0.07281
G1 X139.482 Y120.736 E0.01733
G1 X139.241 Y120.651 E0.00829
G1 X137.274 Y118.684 E0.09009
G1 X137.274 Y119.186 E0.01627
G1 X137.499 Y119.460 E0.01148
G1 X138.561 Y120.522 E0.04864
G1 E-3.50000 F3600.000
;WIPE_START
G1 F7200.000
G1 X137.499 Y119.460 E-0.71347
G1 X137.274 Y119.186 E-0.16840
G1 X137.274 Y118.684 E-0.23868
G1 X137.727 Y119.137 E-0.30445
;WIPE_END
G1 E-0.07500 F3600.000
G1 X110.822 Y118.500 F9000.000
G1 E5.00000 F2400.000
;TYPE:Perimeter
;WIDTH:0.42
G1 F1200.000
G1 X110.798 Y118.798 E0.00936
G1 X110.735 Y119.050 E0.00814
G1 X110.609 Y119.360 E0.01050
G1 X110.443 Y119.617 E0.00960
G1 X110.242 Y119.840 E0.00940
G1 X110.011 Y120.024 E0.00927
G1 X109.788 Y120.152 E0.00806
G1 X109.513 Y120.261 E0.00927
G1 X109.220 Y120.324 E0.00940
G1 X108.914 Y120.338 E0.00960
G1 X108.582 Y120.293 E0.01050
G1 X108.333 Y120.221 E0.00814
G1 X108.063 Y120.093 E0.00936
G1 X107.816 Y119.922 E0.00940
G1 X107.601 Y119.714 E0.00941
G1 X107.422 Y119.473 E0.00940
G1 X107.285 Y119.206 E0.00941
G1 X107.194 Y118.924 E0.00929
G1 X107.152 Y118.671 E0.00806
G1 X107.148 Y118.371 E0.00940
G1 X107.203 Y118.039 E0.01056
G1 X107.286 Y117.791 E0.00818
G1 X107.422 Y117.527 E0.00931
G1 X107.601 Y117.286 E0.00941
G1 X107.816 Y117.078 E0.00941
G1 X108.063 Y116.907 E0.00940
G1 X108.334 Y116.779 E0.00940
G1 X108.621 Y116.697 E0.00935
G1 X108.879 Y116.666 E0.00815
G1 X109.214 Y116.675 E0.01052
G1 X109.513 Y116.739 E0.00958
G1 X109.792 Y116.849 E0.00940
G1 X110.045 Y117.000 E0.00925
G1 X110.244 Y117.163 E0.00806
G1 X110.443 Y117.383 E0.00929
G1 X110.606 Y117.635 E0.00941
G1 X110.725 Y117.910 E0.00941
G1 X110.797 Y118.201 E0.00941
G1 X110.817 Y118.440 E0.00752
G1 X110.441 Y118.471 F9000.000
;TYPE:External perimeter
G1 F1200.000
G1 X110.424 Y118.737 E0.00835
G1 X110.376 Y118.933 E0.00633
G1 X110.273 Y119.185 E0.00854
G1 X110.143 Y119.387 E0.00754
G1 X109.983 Y119.564 E0.00747
G1 X109.798 Y119.711 E0.00742
G1 X109.624 Y119.812 E0.00630
G1 X109.404 Y119.898 E0.00742
G1 X109.171 Y119.948 E0.00747
G1 X108.931 Y119.960 E0.00754
G1 X108.661 Y119.923 E0.00854
G1 X108.467 Y119.867 E0.00633
G1 X108.252 Y119.765 E0.00745
G1 X108.056 Y119.630 E0.00746
G1 X107.885 Y119.464 E0.00747
G1 X107.743 Y119.273 E0.00747
G1 X107.634 Y119.061 E0.00747
