; generated by PrusaSlicer 2.3.0 on 2022-12-29 at 18:02:41 UTC

; 

; external perimeters extrusion width = 0.45mm
; perimeters extrusion width = 0.45mm
; infill extrusion width = 0.45mm
; solid infill extrusion width = 0.45mm
; top infill extrusion width = 0.40mm
; first layer extrusion width = 0.42mm

M201 X500 Y500 Z100 E5000 ; sets maximum accelerations, mm/sec^2
M203 X500 Y500 Z10 E60 ; sets maximum feedrates, mm/sec
M204 P500 R1000 T500 ; sets acceleration (P, T) and retract acceleration (R), mm/sec^2
M205 X8.00 Y8.00 Z0.40 E5.00 ; sets the jerk limits, mm/sec
M205 S0 T0 ; sets the minimum extruding and travel feed rate, mm/sec
M107
;TYPE:Custom
G90 ; use absolute coordinates
M83 ; extruder relative mode
M104 S210 ; set extruder temp
M140 S60 ; set bed temp
M190 S60 ; wait for bed temp
M109 S210 ; wait for extruder temp
G28 ; home all
G1 Z2 F240
G1 X2 Y10 F3000
G1 Z0.28 F240
G92 E0
G1 Y190 E15 F1500 ; intro line
G1 X2.3 F5000
G92 E0
G1 Y10 E15 F1200 ; intro line
G92 E0
G21 ; set units to millimeters
G90 ; use absolute coordinates
M83 ; use relative distances for extrusion
; Filament gcode
;LAYER_CHANGE
;Z:0.2
;HEIGHT:0.2
;BEFORE_LAYER_CHANGE
G92 E0
;0.2


G1 E-5.00000 F3600.000
G1 Z0.200 F9000.000
;AFTER_LAYER_CHANGE
;0.2
G1 X102.035 Y91.073
G1 E5.00000 F2400.000
;TYPE:Skirt
;WIDTH:0.42
G1 F1200.000
G1 X103.261 Y90.705 E0.04013
G1 X114.838 Y89.129 E0.36636
G1 X129.174 Y89.123 E0.44949
G1 X129.681 Y89.178 E0.01597
G1 X130.167 Y89.342 E0.01609
G1 X130.604 Y89.604 E0.01597
G1 X130.975 Y89.953 E0.01597
G1 X147.361 Y110.309 E0.81934
G1 X147.598 Y110.877 E0.01929
G1 X147.681 Y111.490 E0.01941
G1 X147.680 Y119.572 E0.25341
G1 X147.603 Y120.103 E0.01680
G1 X147.410 Y120.603 E0.01680
G1 X146.923 Y121.312 E0.02698
G1 X131.009 Y141.009 E0.79395
G1 X130.597 Y141.403 E0.01787
G1 X130.103 Y141.687 E0.01787
G1 X129.200 Y141.877 E0.02896
G1 X114.821 Y141.870 E0.45082
G1 X104.955 Y140.273 E0.31337
G1 X103.891 Y140.011 E0.03438
G1 X102.815 Y139.562 E0.03653
G1 X101.849 Y138.967 E0.03558
G1 X100.977 Y138.223 E0.03594
G1 X84.502 Y121.633 E0.73309
G1 X83.709 Y120.630 E0.04009
G1 X83.422 Y120.018 E0.02119
G1 X83.319 Y119.354 E0.02107
G1 X83.320 Y111.257 E0.25388
G1 X83.397 Y110.723 E0.01692
G1 X83.590 Y110.223 E0.01680
G1 X84.459 Y109.062 E0.04546
G1 X100.346 Y92.237 E0.72556
G1 X101.166 Y91.552 E0.03351
G1 X101.982 Y91.102 E0.02922
G1 E-3.50000 F3600.000
;WIPE_START
G1 F7200.000
G1 X103.261 Y90.705 E-0.63580
G1 X104.907 Y90.481 E-0.78920
;WIPE_END
G1 E-0.07500 F3600.000
G1 X137.519 Y113.568 F9000.000
G1 E5.00000 F2400.000
;TYPE:External perimeter
G1 F1200.000
G1 X137.721 Y113.260 E0.01154
G1 X137.952 Y112.973 E0.01154
G1 X138.209 Y112.710 E0.01154
G1 X138.490 Y112.472 E0.01154
G1 X138.793 Y112.263 E0.01154
G1 X139.115 Y112.084 E0.01154
G1 X139.453 Y111.937 E0.01154
G1 X139.803 Y111.823 E0.01154
G1 X140.163 Y111.744 E0.01156
G1 X140.544 Y111.699 E0.01205
G1 X140.896 Y111.691 E0.01103
G1 X141.263 Y111.717 E0.01154
G1 X141.626 Y111.779 E0.01154
G1 X141.981 Y111.876 E0.01154
G1 X142.326 Y112.007 E0.01154
G1 X142.656 Y112.170 E0.01154
G1 X142.968 Y112.364 E0.01154
G1 X143.261 Y112.588 E0.01154
G1 X143.531 Y112.838 E0.01154
G1 X143.775 Y113.114 E0.01154
G1 X143.991 Y113.412 E0.01154
G1 X144.178 Y113.729 E0.01154
G1 X144.333 Y114.063 E0.01154
G1 X144.455 Y114.410 E0.01154
G1 X144.543 Y114.768 E0.01154
G1 X144.596 Y115.132 E0.01154
G1 X144.614 Y115.500 E0.01154
G1 X144.596 Y115.868 E0.01154
G1 X144.543 Y116.232 E0.01154
G1 X144.455 Y116.590 E0.01154
G1 X144.333 Y116.937 E0.01154
G1 X144.178 Y117.271 E0.01154
G1 X143.991 Y117.588 E0.01154
G1 X143.775 Y117.886 E0.01154
G1 X143.531 Y118.162 E0.01154
G1 X143.261 Y118.412 E0.01154
G1 X142.968 Y118.636 E0.01154
G1 X142.656 Y118.830 E0.01154
G1 X142.326 Y118.993 E0.01154
G1 X141.981 Y119.124 E0.01154
G1 X141.626 Y119.221 E0.01154
G1 X141.263 Y119.283 E0.01154
G1 X140.896 Y119.309 E0.01154
G1 X140.528 Y119.300 E0.01154
G1 X140.162 Y119.256 E0.01154
G1 X139.803 Y119.177 E0.01154
G1 X139.453 Y119.063 E0.01154
G1 X139.115 Y118.916 E0.01154
G1 X138.793 Y118.737 E0.01154
G1 X138.490 Y118.528 E0.01154
G1 X138.209 Y118.290 E0.01154
G1 X137.952 Y118.027 E0.01154
G1 X137.721 Y117.740 E0.01154
G1 X137.519 Y117.432 E0.01154
G1 X137.348 Y117.106 E0.01154
G1 X137.209 Y116.765 E0.01154
G1 X137.104 Y116.412 E0.01154
G1 X137.033 Y116.051 E0.01154
G1 X136.998 Y115.684 E0.01154
G1 X136.998 Y115.316 E0.01154
G1 X137.033 Y114.949 E0.01154
G1 X137.104 Y114.588 E0.01154
G1 X137.209 Y114.235 E0.01154
G1 X137.348 Y113.894 E0.01154
G1 X137.492 Y113.621 E0.00966
G1 X137.338 Y113.248 F9000.000
G1 X137.006 Y113.735
;TYPE:Perimeter
G1 F1200.000
G1 X136.991 Y113.772 E0.00125
G1 X136.991 Y111.722 E0.06427
G1 X137.315 Y111.320 E0.01621
G1 X137.565 Y111.065 E0.01119
G1 X137.834 Y110.830 E0.01119
G1 X138.120 Y110.617 E0.01119
G1 X138.421 Y110.425 E0.01119
G1 X138.735 Y110.257 E0.01119
G1 X139.062 Y110.112 E0.01119
G1 X139.398 Y109.993 E0.01119
G1 X139.742 Y109.900 E0.01119
G1 X140.093 Y109.833 E0.01119
G1 X140.447 Y109.793 E0.01119
G1 X140.804 Y109.779 E0.01119
G1 X141.154 Y109.792 E0.01100
G1 X141.515 Y109.833 E0.01139
G1 X141.865 Y109.900 E0.01118
G1 X142.210 Y109.993 E0.01119
G1 X142.546 Y110.112 E0.01119
G1 X142.872 Y110.257 E0.01119
G1 X143.187 Y110.425 E0.01119
G1 X143.488 Y110.617 E0.01119
G1 X143.774 Y110.830 E0.01119
G1 X144.042 Y111.065 E0.01119
G1 X144.293 Y111.320 E0.01119
G1 X144.617 Y111.722 E0.01621
G1 X144.617 Y113.779 E0.06449
G1 X144.512 Y113.554 E0.00779
G1 X144.307 Y113.205 E0.01269
G1 X144.069 Y112.878 E0.01269
G1 X143.801 Y112.575 E0.01269
G1 X143.504 Y112.299 E0.01269
G1 X143.183 Y112.053 E0.01269
G1 X142.839 Y111.840 E0.01269
G1 X142.476 Y111.661 E0.01269
G1 X142.098 Y111.517 E0.01269
G1 X141.708 Y111.411 E0.01269
G1 X141.309 Y111.343 E0.01269
G1 X140.905 Y111.313 E0.01269
G1 X140.518 Y111.323 E0.01214
G1 X140.100 Y111.372 E0.01319
G1 X139.704 Y111.459 E0.01273
G1 X139.319 Y111.584 E0.01269
G1 X138.948 Y111.746 E0.01269
G1 X138.594 Y111.943 E0.01269
G1 X138.261 Y112.172 E0.01269
G1 X137.952 Y112.433 E0.01269
G1 X137.669 Y112.723 E0.01269
G1 X137.416 Y113.038 E0.01269
G1 X137.194 Y113.377 E0.01269
G1 X137.034 Y113.682 E0.01081
G1 E-3.50000 F3600.000
;WIPE_START
G1 F7200.000
G1 X136.991 Y113.772 E-0.04738
G1 X136.991 Y111.722 E-0.97367
G1 X137.315 Y111.320 E-0.24556
G1 X137.549 Y111.082 E-0.15839
;WIPE_END
G1 E-0.07500 F3600.000
G1 X136.991 Y117.228 F9000.000
G1 E5.00000 F2400.000
G1 F1200.000
G1 X137.194 Y117.623 E0.01393
G1 X137.416 Y117.962 E0.01269
G1 X137.669 Y118.277 E0.01269
G1 X137.952 Y118.567 E0.01269
G1 X138.261 Y118.828 E0.01269
G1 X138.594 Y119.057 E0.01269
G1 X138.948 Y119.254 E0.01269
G1 X139.319 Y119.416 E0.01269
G1 X139.704 Y119.541 E0.01269
G1 X140.099 Y119.628 E0.01269
G1 X140.500 Y119.677 E0.01269
G1 X140.905 Y119.687 E0.01269
G1 X141.309 Y119.657 E0.01269
G1 X141.708 Y119.589 E0.01269
G1 X142.098 Y119.483 E0.01269
G1 X142.476 Y119.339 E0.01269
G1 X142.839 Y119.160 E0.01269
G1 X143.183 Y118.947 E0.01269
G1 X143.504 Y118.701 E0.01269
G1 X143.801 Y118.425 E0.01269
G1 X144.069 Y118.122 E0.01269
G1 X144.307 Y117.795 E0.01269
G1 X144.512 Y117.446 E0.01269
G1 X144.617 Y117.221 E0.00779
G1 X144.617 Y119.278 E0.06449
G1 X144.293 Y119.680 E0.01621
G1 X144.042 Y119.935 E0.01119
G1 X143.774 Y120.170 E0.01119
G1 X143.488 Y120.383 E0.01119
G1 X143.187 Y120.575 E0.01119
G1 X142.872 Y120.743 E0.01119
G1 X142.546 Y120.887 E0.01119
G1 X142.210 Y121.007 E0.01119
G1 X141.865 Y121.100 E0.01119
G1 X141.515 Y121.167 E0.01119
G1 X141.160 Y121.207 E0.01119
G1 X140.804 Y121.221 E0.01119
G1 X140.447 Y121.207 E0.01119
G1 X140.093 Y121.167 E0.01119
G1 X139.742 Y121.100 E0.01119
G1 X139.398 Y121.007 E0.01119
G1 X139.062 Y120.887 E0.01119
G1 X138.735 Y120.743 E0.01119
G1 X138.421 Y120.575 E0.01119
G1 X138.120 Y120.383 E0.01119
G1 X137.834 Y120.170 E0.01119
G1 X137.565 Y119.935 E0.01119
G1 X137.315 Y119.680 E0.01119
G1 X136.991 Y119.278 E0.01621
G1 X136.991 Y117.288 E0.06239
G1 E-3.50000 F3600.000
;WIPE_START
G1 F7200.000
G1 X137.194 Y117.623 E-0.18617
G1 X137.416 Y117.962 E-0.19222
G1 X137.669 Y118.277 E-0.19222
G1 X137.952 Y118.567 E-0.19221
G1 X138.261 Y118.828 E-0.19222
G1 X138.594 Y119.057 E-0.19221
G1 X138.948 Y119.254 E-0.19221
G1 X139.113 Y119.326 E-0.08555
;WIPE_END
G1 E-0.07500 F3600.000
G1 X136.614 Y119.400 F9000.000
G1 E5.00000 F2400.000
;TYPE:External perimeter
G1 F1200.000
G1 X136.614 Y111.600 E0.24454
G1 X136.788 Y111.360 E0.00930
G1 X137.036 Y111.065 E0.01208
G1 X137.306 Y110.791 E0.01208
G1 X137.597 Y110.537 E0.01208
G1 X137.905 Y110.306 E0.01208
G1 X138.230 Y110.099 E0.01208
G1 X138.570 Y109.917 E0.01208
G1 X138.922 Y109.762 E0.01208
G1 X139.286 Y109.633 E0.01208
G1 X139.657 Y109.532 E0.01208
G1 X140.036 Y109.460 E0.01208
G1 X140.419 Y109.416 E0.01208
G1 X140.804 Y109.402 E0.01208
G1 X141.183 Y109.416 E0.01188
G1 X141.572 Y109.460 E0.01228
G1 X141.950 Y109.532 E0.01208
G1 X142.322 Y109.633 E0.01208
G1 X142.685 Y109.762 E0.01208
G1 X143.038 Y109.917 E0.01208
G1 X143.378 Y110.099 E0.01208
G1 X143.703 Y110.306 E0.01208
G1 X144.011 Y110.537 E0.01208
G1 X144.301 Y110.791 E0.01208
G1 X144.571 Y111.065 E0.01208
G1 X144.820 Y111.360 E0.01208
G1 X144.994 Y111.600 E0.00930
G1 X144.994 Y119.400 E0.24454
G1 X144.820 Y119.640 E0.00930
G1 X144.571 Y119.935 E0.01208
G1 X144.301 Y120.209 E0.01208
G1 X144.011 Y120.463 E0.01208
G1 X143.703 Y120.694 E0.01208
G1 X143.378 Y120.901 E0.01208
G1 X143.038 Y121.083 E0.01208
G1 X142.685 Y121.238 E0.01208
G1 X142.322 Y121.367 E0.01208
G1 X141.950 Y121.468 E0.01208
G1 X141.572 Y121.540 E0.01208
G1 X141.189 Y121.584 E0.01208
G1 X140.804 Y121.598 E0.01208
G1 X140.419 Y121.584 E0.01208
G1 X140.036 Y121.540 E0.01208
G1 X139.657 Y121.468 E0.01208
G1 X139.286 Y121.367 E0.01208
G1 X138.922 Y121.238 E0.01208
G1 X138.570 Y121.083 E0.01208
G1 X138.230 Y120.901 E0.01208
G1 X137.905 Y120.694 E0.01208
G1 X137.597 Y120.463 E0.01208
G1 X137.306 Y120.209 E0.01208
G1 X137.036 Y119.935 E0.01208
G1 X136.649 Y119.448 E0.01949
G1 X136.904 Y119.124 F9000.000
G1 X137.300 Y118.328
;TYPE:Gap fill
;WIDTH:0.136874
G1 F1200.000
G1 X137.195 Y118.006 E0.00265
G1 X136.955 Y117.043 F9000.000
;WIDTH:0.298454
G1 F1200.000
G1 X136.921 Y116.872 E0.00370
;WIDTH:0.28072
G1 X136.901 Y116.732 E0.00280
;WIDTH:0.239219
G1 X136.882 Y116.603 E0.00212
;WIDTH:0.201613
G1 X136.863 Y116.474 E0.00172
;WIDTH:0.164008
G1 X136.844 Y116.277 E0.00199
;WIDTH:0.127959
G1 X136.825 Y116.086 E0.00136
G1 X136.825 Y114.914 F9000.000
;WIDTH:0.127959
G1 F1200.000
G1 X136.844 Y114.723 E0.00136
;WIDTH:0.164008
G1 X136.863 Y114.526 E0.00199
;WIDTH:0.201614
G1 X136.882 Y114.397 E0.00172
;WIDTH:0.239219
G1 X136.901 Y114.268 E0.00212
;WIDTH:0.280722
G1 X136.921 Y114.128 E0.00280
;WIDTH:0.298455
G1 X136.955 Y113.957 E0.00370
G1 X137.195 Y112.994 F9000.000
;WIDTH:0.136875
G1 F1200.000
G1 X137.300 Y112.672 E0.00265
G1 E-3.50000 F3600.000
;WIPE_START
G1 F7200.000
G1 X137.195 Y112.994 E-0.16103
;WIPE_END
G1 E-1.33897 F3600.000
G1 X143.046 Y110.478 F9000.000
G1 E5.00000 F2400.000
;TYPE:Solid infill
;WIDTH:0.432364
G1 F1200.000
G1 X144.101 Y111.533 E0.04830
G1 X144.334 Y111.822 E0.01203
G1 X144.334 Y112.316 E0.01601
G1 X142.366 Y110.349 E0.09010
G1 X142.125 Y110.264 E0.00828
G1 X141.605 Y110.138 E0.01733
G1 X143.195 Y111.728 E0.07280
G1 X142.977 Y111.592 E0.00831
G1 X142.589 Y111.401 E0.01399
G1 X142.156 Y111.240 E0.01498
G1 X140.985 Y110.069 E0.05361
G1 X140.443 Y110.078 E0.01755
G1 X141.444 Y111.079 E0.04585
G1 X140.846 Y111.032 E0.01942
G1 X139.961 Y110.146 E0.04056
G1 X139.518 Y110.254 E0.01476
G1 X140.324 Y111.061 E0.03694
G1 X139.850 Y111.137 E0.01555
G1 X139.112 Y110.399 E0.03380
G1 X138.738 Y110.576 E0.01340
G1 X139.417 Y111.255 E0.03110
G1 X139.018 Y111.407 E0.01382
G1 X138.391 Y110.779 E0.02874
G1 X138.069 Y111.008 E0.01279
G1 X138.649 Y111.588 E0.02658
G1 X138.307 Y111.797 E0.01298
G1 X137.771 Y111.261 E0.02455
G1 X137.500 Y111.541 E0.01261
G1 X137.990 Y112.031 E0.02245
G1 X137.698 Y112.289 E0.01264
G1 X137.134 Y111.725 E0.02582
G1 E-3.50000 F3600.000
;WIPE_START
G1 F7200.000
G1 X137.698 Y112.289 E-0.37872
G1 X137.990 Y112.031 E-0.18535
G1 X137.500 Y111.541 E-0.32924
G1 X137.771 Y111.261 E-0.18501
G1 X138.287 Y111.777 E-0.34668
;WIPE_END
G1 E-0.07500 F3600.000
G1 X144.656 Y113.964 F9000.000
G1 E5.00000 F2400.000
;TYPE:Gap fill
;WIDTH:0.214742
G1 F1200.000
G1 X144.743 Y114.529 E0.00817
;WIDTH:0.120176
G1 X144.782 Y114.936 E0.00263
G1 X144.782 Y116.064 F9000.000
;WIDTH:0.120904
G1 F1200.000
G1 X144.766 Y116.278 E0.00139
;WIDTH:0.167824
G1 X144.743 Y116.471 E0.00202
;WIDTH:0.217184
G1 X144.718 Y116.672 E0.00294
;WIDTH:0.257808
G1 X144.687 Y116.854 E0.00330
;WIDTH:0.298429
G1 X144.656 Y117.036 E0.00392
G1 X144.066 Y118.296 F9000.000
;TYPE:Solid infill
;WIDTH:0.433332
G1 F1200.000
G1 X144.334 Y118.564 E0.01230
G1 X144.334 Y119.116 E0.01792
G1 X143.919 Y118.701 E0.01905
G1 X143.628 Y118.962 E0.01269
G1 X144.115 Y119.450 E0.02237
G1 X144.081 Y119.492 E0.00176
G1 X143.845 Y119.732 E0.01092
G1 X143.312 Y119.199 E0.02445
G1 X142.971 Y119.410 E0.01302
G1 X143.547 Y119.986 E0.02643
G1 X143.225 Y120.216 E0.01285
G1 X142.602 Y119.593 E0.02860
G1 X142.203 Y119.746 E0.01388
G1 X142.877 Y120.420 E0.03097
G1 X142.502 Y120.598 E0.01346
G1 X141.770 Y119.865 E0.03362
G1 X141.295 Y119.942 E0.01564
G1 X142.097 Y120.744 E0.03683
G1 X141.653 Y120.853 E0.01483
G1 X140.767 Y119.966 E0.04069
G1 X140.480 Y119.959 E0.00931
G1 X140.170 Y119.922 E0.01014
G1 X141.170 Y120.922 E0.04591
G1 X141.139 Y120.925 E0.00101
G1 X140.627 Y120.931 E0.01661
G1 X139.453 Y119.757 E0.05392
G1 X139.218 Y119.680 E0.00801
G1 X138.822 Y119.508 E0.01402
G1 X138.436 Y119.292 E0.01436
G1 X140.007 Y120.863 E0.07210
G1 X139.482 Y120.736 E0.01751
G1 X139.244 Y120.652 E0.00820
G1 X137.274 Y118.682 E0.09046
G1 X137.274 Y119.178 E0.01611
G1 X137.504 Y119.465 E0.01194
G1 X138.563 Y120.523 E0.04858
G1 E-3.50000 F3600.000
;WIPE_START
G1 F7200.000
G1 X137.504 Y119.465 E-0.71085
G1 X137.274 Y119.178 E-0.17477
G1 X137.274 Y118.682 E-0.23575
G1 X137.726 Y119.134 E-0.30363
;WIPE_END
G1 E-0.07500 F3600.000
G1 X123.842 Y118.629 F9000.000
G1 E5.00000 F2400.000
;TYPE:Perimeter
;WIDTH:0.42
G1 F1200.000
G1 X123.798 Y118.921 E0.00927
G1 X123.706 Y119.206 E0.00940
G1 X123.569 Y119.473 E0.00941
G1 X123.390 Y119.714 E0.00940
G1 X123.174 Y119.922 E0.00941
G1 X122.928 Y120.093 E0.00939
G1 X122.694 Y120.204 E0.00811
G1 X122.375 Y120.303 E0.01048
G1 X122.070 Y120.338 E0.00962
G1 X121.771 Y120.324 E0.00941
G1 X121.477 Y120.261 E0.00940
G1 X121.202 Y120.152 E0.00927
G1 X120.980 Y120.024 E0.00806
G1 X120.748 Y119.840 E0.00927
G1 X120.543 Y119.613 E0.00958
G1 X120.367 Y119.327 E0.01052
G1 X120.265 Y119.088 E0.00815
G1 X120.193 Y118.799 E0.00935
G1 X120.169 Y118.500 E0.00940
G1 X120.193 Y118.201 E0.00940
G1 X120.266 Y117.910 E0.00941
G1 X120.385 Y117.635 E0.00941
G1 X120.546 Y117.385 E0.00931
G1 X120.716 Y117.193 E0.00806
G1 X120.941 Y117.003 E0.00922
G1 X121.198 Y116.849 E0.00940
G1 X121.482 Y116.737 E0.00957
G1 X121.812 Y116.673 E0.01054
G1 X122.073 Y116.662 E0.00817
G1 X122.368 Y116.696 E0.00933
G1 X122.657 Y116.779 E0.00940
G1 X122.928 Y116.907 E0.00940
G1 X123.174 Y117.078 E0.00940
G1 X123.390 Y117.286 E0.00941
G1 X123.567 Y117.525 E0.00933
G1 X123.688 Y117.756 E0.00817
G1 X123.797 Y118.074 E0.01054
G1 X123.842 Y118.371 E0.00943
G1 X123.842 Y118.569 E0.00618
G1 X123.465 Y118.569 F9000.000
;TYPE:External perimeter
G1 F1200.000
G1 X123.430 Y118.834 E0.00841
G1 X123.356 Y119.061 E0.00747
G1 X123.247 Y119.273 E0.00747
G1 X123.105 Y119.464 E0.00747
G1 X122.934 Y119.630 E0.00747
G1 X122.738 Y119.765 E0.00746
G1 X122.557 Y119.852 E0.00631
G1 X122.297 Y119.932 E0.00854
G1 X122.058 Y119.960 E0.00755
G1 X121.820 Y119.948 E0.00747
G1 X121.587 Y119.898 E0.00747
G1 X121.366 Y119.812 E0.00742
G1 X121.192 Y119.711 E0.00630
G1 X121.007 Y119.564 E0.00742
G1 X120.846 Y119.386 E0.00753
G1 X120.703 Y119.154 E0.00855
G1 X120.624 Y118.968 E0.00633
G1 X120.566 Y118.737 E0.00745
G1 X120.547 Y118.500 E0.00746
G1 X120.566 Y118.263 E0.00746
G1 X120.624 Y118.032 E0.00747
G1 X120.719 Y117.813 E0.00747
