; generated by PrusaSlicer 2.3.0 on 2023-01-02 at 18:21:42 UTC

; 

; external perimeters extrusion width = 0.45mm
; perimeters extrusion width = 0.45mm
; infill extrusion width = 0.45mm
; solid infill extrusion width = 0.45mm
; top infill extrusion width = 0.40mm
; first layer extrusion width = 0.42mm

M201 X500 Y500 Z100 E5000 ; sets maximum accelerations, mm/sec^2
M203 X500 Y500 Z10 E60 ; sets maximum feedrates, mm/sec
M204 P500 R1000 T500 ; sets acceleration (P, T) and retract acceleration (R), mm/sec^2
M205 X8.00 Y8.00 Z0.40 E5.00 ; sets the jerk limits, mm/sec
M205 S0 T0 ; sets the minimum extruding and travel feed rate, mm/sec
M107
;TYPE:Custom
G90 ; use absolute coordinates
M83 ; extruder relative mode
M104 S210 ; set extruder temp
M140 S60 ; set bed temp
M190 S60 ; wait for bed temp
M109 S210 ; wait for extruder temp
G28 ; home all
G1 Z2 F240
G1 X2 Y10 F3000
G1 Z0.28 F240
G92 E0
G1 Y190 E15 F1500 ; intro line
G1 X2.3 F5000
G92 E0
G1 Y10 E15 F1200 ; intro line
G92 E0
G21 ; set units to millimeters
G90 ; use absolute coordinates
M83 ; use relative distances for extrusion
; Filament gcode
;LAYER_CHANGE
;Z:0.2
;HEIGHT:0.2
;BEFORE_LAYER_CHANGE
G92 E0
;0.2


G1 E-3.00000 F3600.000
G1 Z0.200 F9000.000
;AFTER_LAYER_CHANGE
;0.2
G1 X108.986 Y111.771
G1 E3.00000 F2400.000
;TYPE:Skirt
;WIDTH:0.42
G1 F900
G1 X109.671 Y110.755 E0.03842
G1 X110.222 Y110.215 E0.02420
G1 X112.210 Y108.777 E0.07692
G1 X113.167 Y108.354 E0.03281
G1 X114.197 Y108.128 E0.03305
G1 X116.593 Y108.121 E0.07514
G1 X117.539 Y108.265 E0.02999
G1 X118.678 Y108.710 E0.03833
G1 X120.826 Y110.252 E0.08294
G1 X121.466 Y110.928 E0.02917
G1 X122.098 Y111.958 E0.03791
G1 X122.896 Y114.394 E0.08035
G1 X123.014 Y115.308 E0.02891
G1 X122.954 Y116.355 E0.03289
G1 X122.138 Y118.940 E0.08498
G1 X121.675 Y119.787 E0.03027
G1 X120.910 Y120.678 E0.03682
G1 X118.928 Y122.130 E0.07705
G1 X118.124 Y122.544 E0.02835
G1 X117.012 Y122.850 E0.03616
G1 X113.833 Y122.825 E0.09967
G1 X112.772 Y122.504 E0.03475
G1 X112.155 Y122.187 E0.02175
G1 X110.116 Y120.701 E0.07911
G1 X109.396 Y119.888 E0.03405
G1 X108.882 Y118.993 E0.03236
G1 X108.092 Y116.560 E0.08021
G1 X107.985 Y115.674 E0.02796
G1 X108.046 Y114.645 E0.03234
G1 X108.967 Y111.828 E0.09292
G1 X109.320 Y111.947 F9000.000
G1 F900
G1 X109.962 Y110.995 E0.03601
G1 X110.455 Y110.511 E0.02167
G1 X112.408 Y109.098 E0.07556
G1 X113.287 Y108.711 E0.03013
G1 X114.232 Y108.504 E0.03034
G1 X116.593 Y108.498 E0.07402
G1 X117.443 Y108.630 E0.02695
G1 X118.503 Y109.044 E0.03569
G1 X120.591 Y110.547 E0.08069
G1 X121.173 Y111.166 E0.02662
G1 X121.753 Y112.110 E0.03473
G1 X122.532 Y114.494 E0.07864
G1 X122.637 Y115.324 E0.02625
G1 X122.580 Y116.301 E0.03066
G1 X121.778 Y118.827 E0.08312
G1 X121.304 Y119.658 E0.03000
G1 X120.641 Y120.412 E0.03149
G1 X118.708 Y121.824 E0.07504
G1 X117.982 Y122.194 E0.02555
G1 X116.943 Y122.479 E0.03378
G1 X113.885 Y122.451 E0.09587
G1 X112.904 Y122.150 E0.03219
G1 X112.358 Y121.869 E0.01924
G1 X110.364 Y120.416 E0.07736
G1 X109.701 Y119.665 E0.03141
G1 X109.231 Y118.848 E0.02956
G1 X108.457 Y116.467 E0.07851
G1 X108.362 Y115.659 E0.02549
G1 X108.420 Y114.700 E0.03015
G1 X109.301 Y112.004 E0.08891
G1 X109.653 Y112.124 F9000.000
G1 F900
G1 X110.254 Y111.234 E0.03366
G1 X110.691 Y110.806 E0.01917
G1 X112.603 Y109.421 E0.07405
G1 X113.407 Y109.069 E0.02752
G1 X114.265 Y108.880 E0.02755
G1 X116.593 Y108.875 E0.07298
G1 X117.422 Y109.016 E0.02637
G1 X118.324 Y109.377 E0.03046
G1 X120.354 Y110.840 E0.07846
G1 X120.880 Y111.402 E0.02413
G1 X121.408 Y112.262 E0.03164
G1 X122.169 Y114.594 E0.07692
G1 X122.261 Y115.344 E0.02367
G1 X122.207 Y116.246 E0.02833
G1 X121.425 Y118.694 E0.08060
G1 X120.991 Y119.448 E0.02727
G1 X120.393 Y120.128 E0.02838
G1 X118.485 Y121.520 E0.07405
G1 X117.838 Y121.845 E0.02271
G1 X116.879 Y122.107 E0.03118
G1 X113.942 Y122.078 E0.09209
G1 X113.039 Y121.798 E0.02963
G1 X112.563 Y121.553 E0.01680
G1 X110.611 Y120.131 E0.07572
G1 X110.006 Y119.443 E0.02871
G1 X109.578 Y118.702 E0.02683
G1 X108.822 Y116.373 E0.07680
G1 X108.739 Y115.642 E0.02307
G1 X108.793 Y114.755 E0.02786
G1 X109.635 Y112.181 E0.08490
G1 E-2.10000 F3600.000
;WIPE_START
G1 F7200.000
G1 X110.254 Y111.234 E-0.53734
G1 X110.691 Y110.806 E-0.29049
G1 X110.737 Y110.773 E-0.02717
;WIPE_END
G1 E-0.04500 F3600.000
G1 X113.888 Y114.575 F9000.000
G1 E3.00000 F2400.000
;TYPE:Perimeter
G1 F900
G1 X113.956 Y114.455 E0.00433
G1 X114.149 Y114.215 E0.00965
G1 X114.379 Y114.010 E0.00966
G1 X114.640 Y113.846 E0.00965
G1 X114.924 Y113.727 E0.00965
G1 X115.224 Y113.656 E0.00966
G1 X115.507 Y113.637 E0.00889
G1 X115.833 Y113.665 E0.01028
G1 X116.134 Y113.747 E0.00979
G1 X116.414 Y113.875 E0.00966
G1 X116.669 Y114.048 E0.00965
G1 X116.892 Y114.260 E0.00966
G1 X117.077 Y114.506 E0.00965
G1 X117.220 Y114.779 E0.00965
G1 X117.315 Y115.072 E0.00966
G1 X117.360 Y115.377 E0.00966
G1 X117.355 Y115.685 E0.00965
G1 X117.300 Y115.988 E0.00965
G1 X117.195 Y116.277 E0.00965
G1 X117.044 Y116.545 E0.00966
G1 X116.851 Y116.785 E0.00966
G1 X116.621 Y116.990 E0.00965
G1 X116.360 Y117.154 E0.00966
G1 X116.076 Y117.273 E0.00965
G1 X115.800 Y117.338 E0.00889
G1 X115.473 Y117.365 E0.01028
G1 X115.163 Y117.334 E0.00979
G1 X114.866 Y117.253 E0.00965
G1 X114.586 Y117.125 E0.00965
G1 X114.331 Y116.952 E0.00965
G1 X114.108 Y116.740 E0.00966
G1 X113.923 Y116.494 E0.00965
G1 X113.780 Y116.221 E0.00965
G1 X113.685 Y115.928 E0.00966
G1 X113.640 Y115.623 E0.00965
G1 X113.645 Y115.315 E0.00966
G1 X113.700 Y115.013 E0.00965
G1 X113.805 Y114.723 E0.00965
G1 X113.859 Y114.627 E0.00344
G1 X114.188 Y114.812 F9000.000
;TYPE:External perimeter
G1 F900
G1 X114.270 Y114.667 E0.00524
G1 X114.423 Y114.476 E0.00770
G1 X114.607 Y114.312 E0.00770
G1 X114.814 Y114.182 E0.00770
G1 X115.041 Y114.087 E0.00769
G1 X115.280 Y114.030 E0.00770
G1 X115.503 Y114.016 E0.00702
G1 X115.767 Y114.038 E0.00832
G1 X116.006 Y114.103 E0.00774
G1 X116.229 Y114.205 E0.00770
G1 X116.432 Y114.343 E0.00769
G1 X116.610 Y114.512 E0.00770
G1 X116.757 Y114.708 E0.00770
G1 X116.871 Y114.926 E0.00770
G1 X116.946 Y115.159 E0.00770
G1 X116.983 Y115.402 E0.00770
G1 X116.979 Y115.647 E0.00770
G1 X116.934 Y115.889 E0.00769
G1 X116.851 Y116.119 E0.00770
G1 X116.730 Y116.333 E0.00770
G1 X116.577 Y116.524 E0.00770
G1 X116.393 Y116.688 E0.00770
G1 X116.186 Y116.819 E0.00770
G1 X115.959 Y116.913 E0.00770
G1 X115.741 Y116.965 E0.00702
G1 X115.477 Y116.986 E0.00832
G1 X115.231 Y116.962 E0.00774
G1 X114.994 Y116.897 E0.00770
G1 X114.771 Y116.795 E0.00769
G1 X114.568 Y116.658 E0.00770
G1 X114.390 Y116.488 E0.00770
G1 X114.243 Y116.292 E0.00769
G1 X114.129 Y116.074 E0.00770
G1 X114.054 Y115.841 E0.00770
G1 X114.017 Y115.598 E0.00770
G1 X114.021 Y115.353 E0.00770
G1 X114.066 Y115.111 E0.00769
G1 X114.158 Y114.865 E0.00827
G1 X114.093 Y114.675 F9000.000
G1 X113.826 Y114.271
;TYPE:Perimeter
G1 F900
G1 X114.241 Y114.014 E0.01531
G1 X114.859 Y113.529 E0.02466
G1 X115.645 Y113.558 E0.02465
G1 X116.143 Y113.521 E0.01565
G1 X116.524 Y113.843 E0.01564
G1 X117.186 Y114.288 E0.02499
G1 X117.302 Y114.762 E0.01531
G1 X117.576 Y115.510 E0.02499
G1 X117.392 Y115.962 E0.01531
G1 X117.177 Y116.718 E0.02466
G1 X116.524 Y117.157 E0.02466
G1 X116.151 Y117.472 E0.01531
G1 X115.355 Y117.442 E0.02499
G1 X114.857 Y117.479 E0.01565
G1 X114.476 Y117.157 E0.01565
G1 X113.814 Y116.713 E0.02499
G1 X113.698 Y116.238 E0.01531
G1 X113.424 Y115.490 E0.02499
G1 X113.608 Y115.038 E0.01531
G1 X113.810 Y114.329 E0.02311
G1 X113.447 Y114.226 F9000.000
;TYPE:External perimeter
G1 F900
G1 X112.554 Y113.660 E0.03314
G1 X112.331 Y113.386 E0.01107
G1 X112.239 Y113.222 E0.00590
G1 X112.325 Y113.104 E0.00460
G1 X112.569 Y113.157 E0.00783
G1 X112.849 Y113.272 E0.00949
G1 X113.649 Y113.938 E0.03263
G1 X114.025 Y113.705 E0.01386
G1 X114.588 Y113.262 E0.02248
G1 X114.198 Y112.280 E0.03314
G1 X114.179 Y111.927 E0.01107
G1 X114.200 Y111.740 E0.00590
G1 X114.340 Y111.695 E0.00460
G1 X114.506 Y111.881 E0.00783
G1 X114.665 Y112.139 E0.00949
G1 X114.922 Y113.154 E0.03281
G1 X115.638 Y113.180 E0.02248
G1 X116.079 Y113.148 E0.01386
G1 X116.304 Y112.223 E0.02984
G1 X116.389 Y112.038 E0.00640
G1 X116.545 Y111.815 E0.00852
G1 X116.661 Y111.690 E0.00535
G1 X116.802 Y111.738 E0.00465
G1 X116.821 Y112.106 E0.01155
G1 X116.777 Y112.374 E0.00854
G1 X116.414 Y113.257 E0.02991
G1 X116.751 Y113.542 E0.01386
G1 X117.347 Y113.942 E0.02248
G1 X118.160 Y113.267 E0.03314
G1 X118.490 Y113.139 E0.01107
G1 X118.674 Y113.102 E0.00590
G1 X118.764 Y113.226 E0.00480
G1 X118.628 Y113.446 E0.00811
G1 X118.438 Y113.667 E0.00912
G1 X117.558 Y114.222 E0.03264
G1 X117.663 Y114.652 E0.01386
G1 X117.910 Y115.325 E0.02248
G1 X118.965 Y115.257 E0.03314
G1 X119.306 Y115.348 E0.01107
G1 X119.477 Y115.426 E0.00590
G1 X119.477 Y115.573 E0.00460
G1 X119.249 Y115.673 E0.00783
G1 X118.954 Y115.744 E0.00949
G1 X117.916 Y115.676 E0.03263
G1 X117.749 Y116.085 E0.01386
G1 X117.553 Y116.775 E0.02248
G1 X118.446 Y117.340 E0.03314
G1 X118.669 Y117.614 E0.01107
G1 X118.761 Y117.778 E0.00590
G1 X118.675 Y117.896 E0.00460
G1 X118.431 Y117.844 E0.00783
G1 X118.151 Y117.728 E0.00949
G1 X117.347 Y117.059 E0.03281
G1 X116.751 Y117.458 E0.02248
G1 X116.414 Y117.744 E0.01386
G1 X116.802 Y118.720 E0.03295
G1 X116.821 Y119.073 E0.01107
G1 X116.800 Y119.260 E0.00590
G1 X116.660 Y119.305 E0.00460
G1 X116.494 Y119.119 E0.00783
G1 X116.335 Y118.861 E0.00949
G1 X116.078 Y117.846 E0.03281
G1 X115.362 Y117.820 E0.02248
G1 X114.922 Y117.852 E0.01383
G1 X114.681 Y118.822 E0.03133
G1 X114.613 Y118.960 E0.00484
G1 X114.455 Y119.185 E0.00861
G1 X114.339 Y119.310 E0.00534
G1 X114.198 Y119.263 E0.00464
G1 X114.179 Y118.895 E0.01158
G1 X114.223 Y118.626 E0.00854
G1 X114.586 Y117.743 E0.02991
G1 X114.249 Y117.458 E0.01386
G1 X113.653 Y117.059 E0.02248
G1 X112.840 Y117.733 E0.03314
G1 X112.510 Y117.861 E0.01107
G1 X112.326 Y117.898 E0.00590
G1 X112.236 Y117.774 E0.00480
G1 X112.372 Y117.554 E0.00811
G1 X112.562 Y117.333 E0.00912
G1 X113.442 Y116.778 E0.03264
G1 X113.337 Y116.349 E0.01386
G1 X113.090 Y115.675 E0.02248
G1 X112.035 Y115.743 E0.03314
G1 X111.694 Y115.653 E0.01107
G1 X111.523 Y115.574 E0.00590
G1 X111.523 Y115.427 E0.00460
G1 X111.751 Y115.327 E0.00783
G1 X112.046 Y115.256 E0.00949
G1 X113.084 Y115.324 E0.03263
G1 X113.251 Y114.915 E0.01386
G1 X113.430 Y114.284 E0.02057
G1 X113.633 Y113.872 F9000.000
G1 X113.160 Y113.800
;TYPE:Gap fill
;WIDTH:0.127073
G1 F900
G1 X112.598 Y113.410 E0.00479
G1 E-2.10000 F3600.000
;WIPE_START
G1 F7200.000
G1 X113.160 Y113.800 E-0.32494
;WIPE_END
G1 E-0.57506 F3600.000
G1 X114.381 Y112.103 F9000.000
G1 E3.00000 F2400.000
;WIDTH:0.127066
G1 F900
G1 X114.606 Y112.749 E0.00479
G1 X116.395 Y112.746 F9000.000
;WIDTH:0.126506
G1 F900
G1 X116.466 Y112.526 E0.00161
;WIDTH:0.159538
G1
G1 X116.608 Y112.076 E0.00458
G1 E-2.10000 F3600.000
;WIPE_START
G1 F7200.000
G1 X116.466 Y112.526 E-0.22434
;WIPE_END
G1 E-0.67566 F3600.000
G1 X118.386 Y113.386 F9000.000
G1 E3.00000 F2400.000
;WIDTH:0.155473
G1 F900
G1 X118.028 Y113.663 E0.00424
;WIDTH:0.127066
G1
G1 X117.840 Y113.800 E0.00163
G1 X118.392 Y115.500 F9000.000
;WIDTH:0.127067
G1 F900
G1 X118.625 Y115.500 E0.00163
;WIDTH:0.155543
G1
G1 X119.076 Y115.486 E0.00423
G1 E-2.10000 F3600.000
;WIPE_START
G1 F7200.000
G1 X118.625 Y115.500 E-0.21445
;WIPE_END
G1 E-0.68555 F3600.000
G1 X118.401 Y117.590 F9000.000
G1 E3.00000 F2400.000
;WIDTH:0.155538
G1 F900
G1 X118.028 Y117.337 E0.00423
;WIDTH:0.127067
G1
G1 X117.840 Y117.200 E0.00163
G1 X116.394 Y118.251 F9000.000
;WIDTH:0.127067
G1 F900
G1 X116.466 Y118.472 E0.00163
;WIDTH:0.155533
G1
G1 X116.619 Y118.897 E0.00423
G1 E-2.10000 F3600.000
;WIPE_START
G1 F7200.000
G1 X116.466 Y118.472 E-0.21444
;WIPE_END
G1 E-0.68556 F3600.000
G1 X114.392 Y118.924 F9000.000
G1 E3.00000 F2400.000
;WIDTH:0.124553
G1 F900
G1 X114.601 Y118.265 E0.00469
G1 E-2.10000 F3600.000
;WIPE_START
G1 F7200.000
G1 X114.392 Y118.924 E-0.32855
;WIPE_END
G1 E-0.57145 F3600.000
G1 X112.614 Y117.614 F9000.000
G1 E3.00000 F2400.000
;WIDTH:0.127066
G1 F900
G1 X113.160 Y117.200 E0.00480
G1 X112.608 Y115.500 F9000.000
;WIDTH:0.127063
G1 F900
G1 X111.924 Y115.514 E0.00479
M106 S255
;LAYER_CHANGE
;Z:0.36
;HEIGHT:0.16
;BEFORE_LAYER_CHANGE
G92 E0
;0.36


G1 E-2.10000 F3600.000
;WIPE_START
G1 F7200.000
G1 X112.608 Y115.500 E-0.32492
;WIPE_END
G1 E-0.57508 F3600.000
G1 Z0.360 F9000.000
;AFTER_LAYER_CHANGE
;0.36
M104 S205 ; set temperature
G1 X108.046 Y114.645
G1 E3.00000 F2400.000
;TYPE:Skirt
;WIDTH:0.42
G1 F900
G1 X108.986 Y111.771 E0.07757
G1 X109.671 Y110.755 E0.03144
G1 X110.222 Y110.215 E0.01980
G1 X112.210 Y108.777 E0.06294
G1 X113.167 Y108.354 E0.02685
G1 X114.197 Y108.128 E0.02704
G1 X116.593 Y108.121 E0.06148
G1 X117.539 Y108.265 E0.02453
G1 X118.678 Y108.710 E0.03136
G1 X120.826 Y110.252 E0.06786
G1 X121.466 Y110.928 E0.02387
G1 X122.098 Y111.958 E0.03102
G1 X122.896 Y114.394 E0.06574
G1 X123.014 Y115.308 E0.02365
G1 X122.954 Y116.355 E0.02691
G1 X122.138 Y118.940 E0.06953
G1 X121.675 Y119.787 E0.02477
G1 X120.910 Y120.678 E0.03012
G1 X118.928 Y122.130 E0.06305
G1 X118.124 Y122.544 E0.02320
G1 X117.012 Y122.850 E0.02959
G1 X113.833 Y122.825 E0.08155
G1 X112.772 Y122.504 E0.02843
G1 X112.155 Y122.187 E0.01780
G1 X110.116 Y120.701 E0.06473
G1 X109.396 Y119.888 E0.02786
G1 X108.882 Y118.993 E0.02648
G1 X108.092 Y116.560 E0.06563
G1 X107.985 Y115.674 E0.02288
G1 X108.043 Y114.705 E0.02492
G1 X108.418 Y114.727 F9000.000
G1 F900
G1 X109.320 Y111.947 E0.07498
G1 X109.962 Y110.995 E0.02947
G1 X110.455 Y110.511 E0.01773
G1 X112.408 Y109.098 E0.06182
G1 X113.287 Y108.711 E0.02466
G1 X114.232 Y108.504 E0.02482
G1 X116.593 Y108.498 E0.06056
G1 X117.443 Y108.630 E0.02205
G1 X118.503 Y109.044 E0.02920
G1 X120.591 Y110.547 E0.06602
G1 X121.173 Y111.166 E0.02178
G1 X121.753 Y112.110 E0.02842
G1 X122.532 Y114.494 E0.06435
G1 X122.637 Y115.324 E0.02148
G1 X122.580 Y116.301 E0.02509
G1 X121.778 Y118.827 E0.06801
G1 X121.304 Y119.658 E0.02454
G1 X120.641 Y120.412 E0.02576
G1 X118.708 Y121.824 E0.06140
G1 X117.982 Y122.194 E0.02090
G1 X116.943 Y122.479 E0.02764
G1 X113.885 Y122.451 E0.07844
G1 X112.904 Y122.150 E0.02634
G1 X112.358 Y121.869 E0.01574
G1 X110.364 Y120.416 E0.06329
G1 X109.701 Y119.665 E0.02570
G1 X109.231 Y118.848 E0.02419
G1 X108.457 Y116.467 E0.06424
G1 X108.362 Y115.659 E0.02085
G1 X108.414 Y114.787 E0.02242
G1 X108.790 Y114.810 F9000.000
G1 F900
G1 X108.793 Y114.755 E0.00143
G1 X109.653 Y112.124 E0.07101
G1 X110.254 Y111.234 E0.02754
G1 X110.691 Y110.806 E0.01569
G1 X112.603 Y109.421 E0.06059
G1 X113.407 Y109.069 E0.02252
G1 X114.265 Y108.880 E0.02254
G1 X116.593 Y108.875 E0.05971
G1 X117.422 Y109.016 E0.02158
G1 X118.324 Y109.377 E0.02493
G1 X120.354 Y110.840 E0.06420
G1 X120.880 Y111.402 E0.01975
G1 X121.408 Y112.262 E0.02589
G1 X122.169 Y114.594 E0.06293
G1 X122.261 Y115.344 E0.01936
G1 X122.207 Y116.246 E0.02318
G1 X121.425 Y118.694 E0.06595
G1 X120.991 Y119.448 E0.02232
G1 X120.393 Y120.128 E0.02322
G1 X118.485 Y121.520 E0.06059
G1 X117.838 Y121.845 E0.01858
G1 X116.879 Y122.107 E0.02551
G1 X113.942 Y122.078 E0.07535
G1 X113.039 Y121.798 E0.02424
G1 X112.563 Y121.553 E0.01375
G1 X110.611 Y120.131 E0.06196
G1 X110.006 Y119.443 E0.02349
G1 X109.578 Y118.702 E0.02195
G1 X108.822 Y116.373 E0.06284
G1 X108.739 Y115.642 E0.01887
G1 X108.786 Y114.870 E0.01983
G1 E-2.10000 F3600.000
;WIPE_START
G1 F7200.000
G1 X108.793 Y114.755 E-0.05490
G1 X109.317 Y113.154 E-0.80010
;WIPE_END
G1 E-0.04500 F3600.000
G1 X113.691 Y115.320 F9000.000
G1 E3.00000 F2400.000
;TYPE:Perimeter
;WIDTH:0.45
G1 F900
G1 X113.745 Y115.025 E0.00830
G1 X113.848 Y114.742 E0.00830
G1 X113.995 Y114.481 E0.00830
G1 X114.183 Y114.247 E0.00830
G1 X114.407 Y114.047 E0.00830
G1 X114.661 Y113.887 E0.00830
G1 X114.938 Y113.771 E0.00830
G1 X115.230 Y113.702 E0.00830
G1 X115.489 Y113.685 E0.00717
G1 X115.821 Y113.710 E0.00921
G1 X116.119 Y113.791 E0.00852
G1 X116.392 Y113.916 E0.00830
G1 X116.640 Y114.084 E0.00830
G1 X116.858 Y114.291 E0.00830
G1 X117.038 Y114.531 E0.00830
G1 X117.177 Y114.797 E0.00830
G1 X117.269 Y115.083 E0.00830
G1 X117.314 Y115.380 E0.00830
G1 X117.309 Y115.680 E0.00830
