; generated by PrusaSlicer 2.3.0 on 2023-01-02 at 18:10:46 UTC

; 

; external perimeters extrusion width = 0.45mm
; perimeters extrusion width = 0.45mm
; infill extrusion width = 0.45mm
; solid infill extrusion width = 0.45mm
; top infill extrusion width = 0.40mm
; first layer extrusion width = 0.42mm

M201 X500 Y500 Z100 E5000 ; sets maximum accelerations, mm/sec^2
M203 X500 Y500 Z10 E60 ; sets maximum feedrates, mm/sec
M204 P500 R1000 T500 ; sets acceleration (P, T) and retract acceleration (R), mm/sec^2
M205 X8.00 Y8.00 Z0.40 E5.00 ; sets the jerk limits, mm/sec
M205 S0 T0 ; sets the minimum extruding and travel feed rate, mm/sec
M107
;TYPE:Custom
G90 ; use absolute coordinates
M83 ; extruder relative mode
M104 S210 ; set extruder temp
M140 S60 ; set bed temp
M190 S60 ; wait for bed temp
M109 S210 ; wait for extruder temp
G28 ; home all
G1 Z2 F240
G1 X2 Y10 F3000
G1 Z0.28 F240
G92 E0
G1 Y190 E15 F1500 ; intro line
G1 X2.3 F5000
G92 E0
G1 Y10 E15 F1200 ; intro line
G92 E0
G21 ; set units to millimeters
G90 ; use absolute coordinates
M83 ; use relative distances for extrusion
; Filament gcode
;LAYER_CHANGE
;Z:0.2
;HEIGHT:0.2
;BEFORE_LAYER_CHANGE
G92 E0
;0.2


G1 E-3.00000 F3600.000
G1 Z0.200 F9000.000
;AFTER_LAYER_CHANGE
;0.2
G1 X138.219 Y107.960
G1 E3.00000 F2400.000
;TYPE:Skirt
;WIDTH:0.42
G1 F1200.000
G1 X138.246 Y122.683 E0.46162
G1 X138.099 Y123.504 E0.02614
G1 X137.027 Y125.989 E0.08487
G1 X136.121 Y127.626 E0.05866
G1 X135.115 Y129.149 E0.05723
G1 X133.975 Y130.608 E0.05806
G1 X132.734 Y131.962 E0.05759
G1 X131.390 Y133.214 E0.05759
G1 X129.952 Y134.357 E0.05759
G1 X128.430 Y135.384 E0.05759
G1 X126.819 Y136.294 E0.05800
G1 X125.152 Y137.069 E0.05763
G1 X123.430 Y137.711 E0.05763
G1 X121.663 Y138.216 E0.05763
G1 X119.861 Y138.580 E0.05763
G1 X118.036 Y138.801 E0.05763
G1 X116.177 Y138.879 E0.05835
G1 X113.494 Y138.729 E0.08424
G1 X111.617 Y138.439 E0.05956
G1 X109.008 Y137.766 E0.08449
G1 X107.223 Y137.114 E0.05957
G1 X104.795 Y135.945 E0.08448
G1 X103.167 Y134.953 E0.05979
G1 X101.046 Y133.358 E0.08321
G1 X99.618 Y132.048 E0.06074
G1 X97.851 Y130.070 E0.08318
G1 X96.704 Y128.503 E0.06090
G1 X95.359 Y126.221 E0.08305
G1 X94.538 Y124.456 E0.06103
G1 X93.666 Y121.959 E0.08292
G1 X93.205 Y120.068 E0.06104
G1 X92.837 Y117.449 E0.08290
G1 X92.754 Y115.500 E0.06117
G1 X92.837 Y113.551 E0.06119
G1 X93.204 Y110.938 E0.08273
G1 X93.666 Y109.041 E0.06120
G1 X94.535 Y106.550 E0.08273
G1 X95.358 Y104.780 E0.06121
G1 X96.698 Y102.506 E0.08273
G1 X97.850 Y100.931 E0.06121
G1 X99.619 Y98.951 E0.08323
G1 X101.046 Y97.642 E0.06071
G1 X103.167 Y96.046 E0.08323
G1 X104.795 Y95.055 E0.05977
G1 X107.218 Y93.888 E0.08432
G1 X109.000 Y93.236 E0.05950
G1 X111.623 Y92.560 E0.08492
G1 X114.297 Y92.194 E0.08461
G1 X116.195 Y92.121 E0.05956
G1 X118.946 Y92.291 E0.08643
G1 X121.656 Y92.783 E0.08635
G1 X124.293 Y93.591 E0.08648
G1 X126.817 Y94.705 E0.08648
G1 X129.193 Y96.109 E0.08654
G1 X131.384 Y97.780 E0.08641
G1 X133.363 Y99.698 E0.08641
G1 X135.101 Y101.832 E0.08629
G1 X136.117 Y103.366 E0.05766
G1 X137.005 Y104.967 E0.05743
G1 X137.774 Y106.654 E0.05814
G1 X138.199 Y107.904 E0.04138
G1 E-2.10000 F3600.000
;WIPE_START
G1 F7200.000
G1 X138.205 Y109.704 E-0.85500
;WIPE_END
G1 E-0.04500 F3600.000
G1 X119.748 Y114.366 F9000.000
G1 E3.00000 F2400.000
;TYPE:Perimeter
G1 F1200.000
G1 X119.844 Y114.737 E0.01203
G1 X119.902 Y115.117 E0.01203
G1 X119.921 Y115.500 E0.01203
G1 X119.902 Y115.883 E0.01203
G1 X119.844 Y116.263 E0.01203
G1 X119.748 Y116.634 E0.01203
G1 X119.614 Y116.994 E0.01203
G1 X119.445 Y117.338 E0.01203
G1 X119.242 Y117.664 E0.01203
G1 X119.007 Y117.967 E0.01203
G1 X118.743 Y118.245 E0.01203
G1 X118.452 Y118.495 E0.01203
G1 X118.137 Y118.715 E0.01203
G1 X117.801 Y118.901 E0.01203
G1 X117.449 Y119.052 E0.01203
G1 X117.083 Y119.167 E0.01203
G1 X116.707 Y119.244 E0.01203
G1 X116.325 Y119.283 E0.01203
G1 X115.941 Y119.283 E0.01203
G1 X115.560 Y119.244 E0.01203
G1 X115.184 Y119.167 E0.01203
G1 X114.818 Y119.052 E0.01203
G1 X114.465 Y118.901 E0.01203
G1 X114.130 Y118.715 E0.01203
G1 X113.815 Y118.495 E0.01203
G1 X113.524 Y118.245 E0.01203
G1 X113.259 Y117.967 E0.01203
G1 X113.024 Y117.664 E0.01203
G1 X112.821 Y117.338 E0.01203
G1 X112.652 Y116.994 E0.01203
G1 X112.519 Y116.634 E0.01203
G1 X112.423 Y116.263 E0.01203
G1 X112.365 Y115.883 E0.01203
G1 X112.345 Y115.500 E0.01203
G1 X112.365 Y115.117 E0.01203
G1 X112.423 Y114.737 E0.01203
G1 X112.519 Y114.366 E0.01203
G1 X112.652 Y114.006 E0.01203
G1 X112.821 Y113.662 E0.01203
G1 X113.024 Y113.336 E0.01203
G1 X113.259 Y113.033 E0.01203
G1 X113.524 Y112.755 E0.01203
G1 X113.815 Y112.505 E0.01203
G1 X114.130 Y112.285 E0.01203
G1 X114.465 Y112.099 E0.01203
G1 X114.818 Y111.948 E0.01203
G1 X115.184 Y111.833 E0.01203
G1 X115.560 Y111.756 E0.01203
G1 X115.941 Y111.717 E0.01203
G1 X116.325 Y111.717 E0.01203
G1 X116.707 Y111.756 E0.01203
G1 X117.083 Y111.833 E0.01203
G1 X117.449 Y111.948 E0.01203
G1 X117.801 Y112.099 E0.01203
G1 X118.137 Y112.285 E0.01203
G1 X118.452 Y112.505 E0.01203
G1 X118.743 Y112.755 E0.01203
G1 X119.007 Y113.033 E0.01203
G1 X119.242 Y113.336 E0.01203
G1 X119.445 Y113.662 E0.01203
G1 X119.614 Y114.006 E0.01203
G1 X119.727 Y114.310 E0.01015
G1 X119.373 Y114.441 F9000.000
;TYPE:External perimeter
G1 F1200.000
G1 X119.474 Y114.813 E0.01211
G1 X119.526 Y115.155 E0.01083
G1 X119.544 Y115.500 E0.01083
G1 X119.526 Y115.845 E0.01083
G1 X119.474 Y116.187 E0.01083
G1 X119.387 Y116.521 E0.01083
G1 X119.267 Y116.845 E0.01083
G1 X119.115 Y117.155 E0.01083
G1 X118.932 Y117.448 E0.01083
G1 X118.721 Y117.721 E0.01083
G1 X118.483 Y117.972 E0.01083
G1 X118.221 Y118.197 E0.01083
G1 X117.937 Y118.394 E0.01083
G1 X117.635 Y118.562 E0.01083
G1 X117.318 Y118.698 E0.01083
G1 X116.988 Y118.802 E0.01083
G1 X116.650 Y118.871 E0.01083
G1 X116.306 Y118.906 E0.01083
G1 X115.961 Y118.906 E0.01083
G1 X115.617 Y118.871 E0.01083
G1 X115.278 Y118.802 E0.01083
G1 X114.949 Y118.698 E0.01083
G1 X114.631 Y118.562 E0.01083
G1 X114.329 Y118.394 E0.01083
G1 X114.046 Y118.197 E0.01083
G1 X113.784 Y117.972 E0.01083
G1 X113.546 Y117.721 E0.01083
G1 X113.334 Y117.448 E0.01083
G1 X113.151 Y117.155 E0.01083
G1 X112.999 Y116.845 E0.01083
G1 X112.879 Y116.521 E0.01083
G1 X112.793 Y116.187 E0.01083
G1 X112.740 Y115.845 E0.01083
G1 X112.723 Y115.500 E0.01083
G1 X112.740 Y115.155 E0.01083
G1 X112.793 Y114.813 E0.01083
G1 X112.879 Y114.479 E0.01083
G1 X112.999 Y114.155 E0.01083
G1 X113.151 Y113.845 E0.01083
G1 X113.334 Y113.552 E0.01083
G1 X113.546 Y113.279 E0.01083
G1 X113.784 Y113.028 E0.01083
G1 X114.046 Y112.803 E0.01083
G1 X114.329 Y112.606 E0.01083
G1 X114.631 Y112.438 E0.01083
G1 X114.949 Y112.302 E0.01083
G1 X115.278 Y112.198 E0.01083
G1 X115.617 Y112.129 E0.01083
G1 X115.961 Y112.094 E0.01083
G1 X116.306 Y112.094 E0.01083
G1 X116.650 Y112.129 E0.01083
G1 X116.988 Y112.198 E0.01083
G1 X117.318 Y112.302 E0.01083
G1 X117.635 Y112.438 E0.01083
G1 X117.937 Y112.606 E0.01083
G1 X118.221 Y112.803 E0.01083
G1 X118.483 Y113.028 E0.01083
G1 X118.721 Y113.279 E0.01083
G1 X118.932 Y113.552 E0.01083
G1 X119.115 Y113.845 E0.01083
G1 X119.267 Y114.155 E0.01083
G1 X119.352 Y114.384 E0.00767
G1 X119.751 Y114.522 F9000.000
G1 E-2.10000 F3600.000
;WIPE_START
G1 F7200.000
G1 X119.474 Y114.813 E-0.21181
G1 X119.526 Y115.155 E-0.16409
G1 X119.544 Y115.500 E-0.16410
G1 X119.526 Y115.845 E-0.16410
G1 X119.478 Y116.159 E-0.15089
;WIPE_END
G1 E-0.04500 F3600.000
G1 X122.732 Y112.367 F9000.000
G1 E3.00000 F2400.000
;TYPE:Perimeter
G1 F1200.000
G1 X123.090 Y113.457 E0.03598
G1 X123.206 Y113.903 E0.01443
G1 X123.293 Y114.354 E0.01443
G1 X123.351 Y114.811 E0.01443
G1 X123.380 Y115.270 E0.01443
G1 X123.380 Y115.730 E0.01443
G1 X123.351 Y116.189 E0.01443
G1 X123.293 Y116.646 E0.01443
G1 X123.206 Y117.097 E0.01443
G1 X123.090 Y117.543 E0.01443
G1 X122.732 Y118.633 E0.03598
G1 X134.975 Y123.089 E0.40851
G1 X134.618 Y123.926 E0.02853
G1 X134.273 Y124.646 E0.02504
G1 X133.899 Y125.352 E0.02504
G1 X133.498 Y126.043 E0.02504
G1 X133.070 Y126.717 E0.02504
G1 X132.616 Y127.374 E0.02504
G1 X132.137 Y128.013 E0.02505
G1 X131.632 Y128.632 E0.02504
G1 X131.104 Y129.232 E0.02504
G1 X130.553 Y129.809 E0.02504
G1 X129.979 Y130.365 E0.02504
G1 X129.384 Y130.898 E0.02504
G1 X128.769 Y131.407 E0.02504
G1 X128.134 Y131.891 E0.02504
G1 X127.480 Y132.350 E0.02504
G1 X126.809 Y132.783 E0.02504
G1 X126.119 Y133.191 E0.02515
G1 X125.415 Y133.570 E0.02505
G1 X124.698 Y133.921 E0.02505
G1 X123.967 Y134.244 E0.02505
G1 X123.224 Y134.537 E0.02505
G1 X122.470 Y134.801 E0.02505
G1 X121.706 Y135.035 E0.02505
G1 X120.933 Y135.239 E0.02505
G1 X120.154 Y135.413 E0.02505
G1 X119.368 Y135.555 E0.02505
G1 X118.577 Y135.667 E0.02505
G1 X117.781 Y135.748 E0.02507
G1 X116.987 Y135.797 E0.02495
G1 X116.188 Y135.815 E0.02504
G1 X115.390 Y135.801 E0.02504
G1 X114.589 Y135.756 E0.02516
G1 X113.789 Y135.679 E0.02519
G1 X112.998 Y135.571 E0.02505
G1 X112.215 Y135.433 E0.02491
G1 X111.430 Y135.263 E0.02519
G1 X110.657 Y135.063 E0.02505
G1 X109.892 Y134.832 E0.02505
G1 X109.141 Y134.573 E0.02491
G1 X108.392 Y134.282 E0.02519
G1 X107.660 Y133.963 E0.02505
G1 X106.940 Y133.615 E0.02507
G1 X106.234 Y133.240 E0.02505
G1 X105.558 Y132.845 E0.02457
G1 X104.867 Y132.404 E0.02568
G1 X104.211 Y131.948 E0.02504
G1 X103.574 Y131.467 E0.02504
G1 X102.956 Y130.961 E0.02504
G1 X102.374 Y130.445 E0.02440
G1 X101.782 Y129.878 E0.02569
G1 X101.228 Y129.303 E0.02503
G1 X100.697 Y128.707 E0.02504
G1 X100.190 Y128.090 E0.02504
G1 X99.720 Y127.469 E0.02440
G1 X99.250 Y126.798 E0.02569
G1 X98.819 Y126.126 E0.02503
G1 X98.415 Y125.437 E0.02504
G1 X98.038 Y124.733 E0.02504
G1 X97.698 Y124.033 E0.02440
G1 X97.369 Y123.283 E0.02569
G1 X97.077 Y122.539 E0.02503
G1 X96.815 Y121.785 E0.02504
G1 X96.583 Y121.021 E0.02505
G1 X96.386 Y120.268 E0.02440
G1 X96.210 Y119.468 E0.02569
G1 X96.069 Y118.682 E0.02503
G1 X95.960 Y117.891 E0.02504
G1 X95.881 Y117.096 E0.02504
G1 X95.836 Y116.319 E0.02440
G1 X95.819 Y115.500 E0.02569
G1 X95.834 Y114.702 E0.02503
G1 X95.881 Y113.905 E0.02503
G1 X95.963 Y113.089 E0.02569
G1 X96.069 Y112.318 E0.02440
G1 X96.210 Y111.532 E0.02504
G1 X96.381 Y110.752 E0.02504
G1 X96.583 Y109.980 E0.02503
G1 X96.822 Y109.196 E0.02569
G1 X97.077 Y108.461 E0.02440
G1 X97.369 Y107.717 E0.02504
G1 X97.689 Y106.985 E0.02504
G1 X98.038 Y106.267 E0.02503
G1 X98.425 Y105.545 E0.02569
G1 X98.819 Y104.874 E0.02440
G1 X99.250 Y104.202 E0.02504
G1 X99.707 Y103.547 E0.02504
G1 X100.190 Y102.911 E0.02503
G1 X100.711 Y102.278 E0.02569
G1 X101.228 Y101.697 E0.02440
G1 X101.782 Y101.122 E0.02504
G1 X102.359 Y100.569 E0.02504
G1 X102.956 Y100.039 E0.02504
G1 X103.590 Y99.520 E0.02569
G1 X104.211 Y99.052 E0.02440
G1 X104.867 Y98.596 E0.02504
G1 X105.540 Y98.166 E0.02504
G1 X106.234 Y97.760 E0.02521
G1 X106.944 Y97.382 E0.02521
G1 X107.660 Y97.037 E0.02491
G1 X108.392 Y96.718 E0.02505
G1 X109.137 Y96.428 E0.02505
G1 X109.892 Y96.168 E0.02505
G1 X110.661 Y95.936 E0.02519
G1 X111.435 Y95.736 E0.02505
G1 X112.211 Y95.568 E0.02491
G1 X112.998 Y95.429 E0.02505
G1 X113.794 Y95.321 E0.02519
G1 X114.593 Y95.244 E0.02517
G1 X115.386 Y95.199 E0.02492
G1 X116.581 Y95.194 E0.03748
G1 X117.785 Y95.253 E0.03778
G1 X118.577 Y95.333 E0.02495
G1 X119.368 Y95.445 E0.02505
G1 X120.154 Y95.587 E0.02505
G1 X120.929 Y95.759 E0.02489
G1 X121.706 Y95.965 E0.02521
G1 X122.470 Y96.199 E0.02505
G1 X123.219 Y96.461 E0.02489
G1 X123.967 Y96.756 E0.02521
G1 X124.698 Y97.079 E0.02505
G1 X125.411 Y97.428 E0.02489
G1 X126.119 Y97.809 E0.02521
G1 X126.809 Y98.217 E0.02515
G1 X127.463 Y98.639 E0.02440
G1 X128.134 Y99.109 E0.02569
G1 X128.769 Y99.593 E0.02504
G1 X129.369 Y100.089 E0.02440
G1 X129.980 Y100.635 E0.02569
G1 X130.553 Y101.191 E0.02504
G1 X131.090 Y101.754 E0.02440
G1 X131.633 Y102.368 E0.02569
G1 X132.137 Y102.987 E0.02504
G1 X132.604 Y103.609 E0.02440
G1 X133.070 Y104.283 E0.02569
G1 X133.498 Y104.957 E0.02503
G1 X133.889 Y105.630 E0.02440
G1 X134.273 Y106.354 E0.02569
G1 X134.618 Y107.074 E0.02503
G1 X134.975 Y107.911 E0.02853
G1 X122.788 Y112.347 E0.40663
G1 X123.204 Y112.596 F9000.000
;TYPE:External perimeter
G1 F1200.000
G1 X123.452 Y113.351 E0.02490
G1 X123.574 Y113.820 E0.01518
G1 X123.665 Y114.295 E0.01518
G1 X123.727 Y114.775 E0.01518
G1 X123.757 Y115.258 E0.01518
G1 X123.757 Y115.742 E0.01518
G1 X123.727 Y116.225 E0.01518
G1 X123.665 Y116.705 E0.01518
G1 X123.574 Y117.180 E0.01518
G1 X123.452 Y117.649 E0.01518
G1 X123.204 Y118.404 E0.02490
G1 X135.465 Y122.866 E0.40911
G1 X134.961 Y124.082 E0.04128
G1 X134.609 Y124.816 E0.02551
G1 X134.229 Y125.535 E0.02551
G1 X133.820 Y126.238 E0.02551
G1 X133.385 Y126.925 E0.02551
G1 X132.922 Y127.595 E0.02551
G1 X132.434 Y128.245 E0.02551
G1 X131.920 Y128.876 E0.02551
G1 X131.382 Y129.486 E0.02551
G1 X130.821 Y130.075 E0.02551
G1 X130.236 Y130.641 E0.02551
G1 X129.630 Y131.184 E0.02551
G1 X129.003 Y131.702 E0.02551
G1 X128.357 Y132.196 E0.02551
G1 X127.691 Y132.663 E0.02551
G1 X127.007 Y133.104 E0.02551
G1 X126.304 Y133.520 E0.02562
G1 X125.588 Y133.906 E0.02551
G1 X124.857 Y134.263 E0.02551
G1 X124.112 Y134.592 E0.02551
G1 X123.355 Y134.891 E0.02551
G1 X122.587 Y135.159 E0.02551
G1 X121.809 Y135.398 E0.02551
G1 X121.023 Y135.606 E0.02551
G1 X120.228 Y135.783 E0.02551
G1 X119.428 Y135.928 E0.02551
G1 X118.622 Y136.042 E0.02551
G1 X117.812 Y136.124 E0.02553
G1 X117.003 Y136.173 E0.02542
G1 X116.189 Y136.192 E0.02550
G1 X115.376 Y136.178 E0.02550
G1 X114.560 Y136.132 E0.02563
G1 X113.746 Y136.054 E0.02565
G1 X112.939 Y135.944 E0.02551
G1 X112.142 Y135.803 E0.02537
G1 X111.343 Y135.630 E0.02565
G1 X110.555 Y135.426 E0.02551
G1 X109.776 Y135.191 E0.02551
G1 X109.011 Y134.927 E0.02537
G1 X108.248 Y134.631 E0.02566
G1 X107.502 Y134.306 E0.02551
G1 X106.769 Y133.952 E0.02554
G1 X106.051 Y133.569 E0.02551
G1 X105.361 Y133.167 E0.02503
G1 X104.658 Y132.718 E0.02615
G1 X103.990 Y132.254 E0.02550
G1 X103.341 Y131.764 E0.02551
G1 X102.711 Y131.248 E0.02551
G1 X102.118 Y130.722 E0.02486
G1 X101.516 Y130.145 E0.02615
G1 X100.952 Y129.559 E0.02550
G1 X100.411 Y128.952 E0.02551
G1 X99.894 Y128.323 E0.02551
G1 X99.415 Y127.692 E0.02486
G1 X98.937 Y127.008 E0.02615
G1 X98.498 Y126.323 E0.02550
G1 X98.086 Y125.622 E0.02551
G1 X97.702 Y124.904 E0.02551
G1 X97.356 Y124.191 E0.02486
G1 X97.020 Y123.427 E0.02615
G1 X96.723 Y122.670 E0.02550
G1 X96.457 Y121.902 E0.02551
G1 X96.220 Y121.123 E0.02551
G1 X96.020 Y120.356 E0.02486
G1 X95.840 Y119.541 E0.02616
G1 X95.697 Y118.741 E0.02550
G1 X95.585 Y117.935 E0.02551
G1 X95.505 Y117.125 E0.02551
G1 X95.459 Y116.334 E0.02486
G1 X95.441 Y115.500 E0.02615
G1 X95.457 Y114.687 E0.02550
G1 X95.505 Y113.875 E0.02550
G1 X95.588 Y113.045 E0.02616
G1 X95.697 Y112.259 E0.02486
G1 X95.840 Y111.459 E0.02551
G1 X96.015 Y110.664 E0.02551
G1 X96.220 Y109.877 E0.02550
G1 X96.463 Y109.079 E0.02616
G1 X96.723 Y108.330 E0.02486
G1 X97.020 Y107.573 E0.02551
G1 X97.347 Y106.827 E0.02551
G1 X97.702 Y106.096 E0.02550
G1 X98.096 Y105.361 E0.02615
G1 X98.498 Y104.677 E0.02486
G1 X98.937 Y103.992 E0.02551
G1 X99.403 Y103.325 E0.02551
G1 X99.894 Y102.677 E0.02550
G1 X100.424 Y102.033 E0.02615
G1 X100.952 Y101.441 E0.02486
G1 X101.516 Y100.855 E0.02551
G1 X102.103 Y100.292 E0.02551
G1 X102.711 Y99.752 E0.02550
G1 X103.357 Y99.224 E0.02615
G1 X103.990 Y98.746 E0.02486
G1 X104.658 Y98.282 E0.02551
G1 X105.344 Y97.844 E0.02551
G1 X106.051 Y97.431 E0.02567
G1 X106.774 Y97.046 E0.02568
G1 X107.502 Y96.694 E0.02537
G1 X108.248 Y96.369 E0.02551
G1 X109.007 Y96.074 E0.02551
G1 X109.776 Y95.809 E0.02551
G1 X110.559 Y95.573 E0.02565
G1 X111.347 Y95.369 E0.02551
G1 X112.138 Y95.198 E0.02537
G1 X112.939 Y95.056 E0.02551
G1 X113.750 Y94.946 E0.02565
G1 X114.564 Y94.868 E0.02563
G1 X115.375 Y94.822 E0.02547
G1 X116.590 Y94.817 E0.03809
G1 X117.813 Y94.877 E0.03840
G1 X118.622 Y94.958 E0.02549
G1 X119.428 Y95.072 E0.02551
G1 X120.228 Y95.217 E0.02551
G1 X121.018 Y95.393 E0.02535
G1 X121.809 Y95.602 E0.02568
G1 X122.587 Y95.841 E0.02551
G1 X123.351 Y96.108 E0.02535
G1 X124.112 Y96.408 E0.02567
G1 X124.857 Y96.737 E0.02551
G1 X125.583 Y97.092 E0.02536
G1 X126.304 Y97.480 E0.02567
