; generated by PrusaSlicer 2.3.0 on 2023-01-02 at 18:05:49 UTC

; 

; external perimeters extrusion width = 0.45mm
; perimeters extrusion width = 0.45mm
; infill extrusion width = 0.45mm
; solid infill extrusion width = 0.45mm
; top infill extrusion width = 0.40mm
; first layer extrusion width = 0.42mm

M201 X500 Y500 Z100 E5000 ; sets maximum accelerations, mm/sec^2
M203 X500 Y500 Z10 E60 ; sets maximum feedrates, mm/sec
M204 P500 R1000 T500 ; sets acceleration (P, T) and retract acceleration (R), mm/sec^2
M205 X8.00 Y8.00 Z0.40 E5.00 ; sets the jerk limits, mm/sec
M205 S0 T0 ; sets the minimum extruding and travel feed rate, mm/sec
M107
;TYPE:Custom
G90 ; use absolute coordinates
M83 ; extruder relative mode
M104 S210 ; set extruder temp
M140 S60 ; set bed temp
M190 S60 ; wait for bed temp
M109 S210 ; wait for extruder temp
G28 ; home all
G1 Z2 F240
G1 X2 Y10 F3000
G1 Z0.28 F240
G92 E0
G1 Y190 E15 F1500 ; intro line
G1 X2.3 F5000
G92 E0
G1 Y10 E15 F1200 ; intro line
G92 E0
G21 ; set units to millimeters
G90 ; use absolute coordinates
M83 ; use relative distances for extrusion
; Filament gcode
;LAYER_CHANGE
;Z:0.2
;HEIGHT:0.2
;BEFORE_LAYER_CHANGE
G92 E0
;0.2


G1 E-3.00000 F3600.000
G1 Z0.200 F9000.000
;AFTER_LAYER_CHANGE
;0.2
G1 X101.009 Y83.997
G1 E3.00000 F2400.000
;TYPE:Skirt
;WIDTH:0.42
G1 F1200.000
G1 X101.801 Y83.137 E0.03663
G1 X102.447 Y82.691 E0.02465
G1 X102.954 Y82.445 E0.01763
G1 X104.096 Y82.152 E0.03700
G1 X126.404 Y82.123 E0.69943
G1 X127.042 Y82.172 E0.02006
G1 X127.853 Y82.372 E0.02619
G1 X128.989 Y82.973 E0.04029
G1 X129.603 Y83.519 E0.02577
G1 X130.008 Y84.023 E0.02029
G1 X130.332 Y84.581 E0.02024
G1 X130.632 Y85.385 E0.02690
G1 X135.012 Y112.195 E0.85174
G1 X135.234 Y114.018 E0.05758
G1 X135.284 Y116.647 E0.08244
G1 X135.017 Y119.274 E0.08280
G1 X130.729 Y145.137 E0.82200
G1 X130.513 Y145.996 E0.02776
G1 X129.951 Y147.058 E0.03769
G1 X129.587 Y147.498 E0.01789
G1 X129.002 Y148.017 E0.02451
G1 X127.976 Y148.583 E0.03675
G1 X126.866 Y148.852 E0.03581
G1 X104.577 Y148.877 E0.69884
G1 X103.939 Y148.825 E0.02006
G1 X103.104 Y148.613 E0.02703
G1 X102.128 Y148.112 E0.03438
G1 X101.328 Y147.407 E0.03344
G1 X100.720 Y146.526 E0.03356
G1 X100.342 Y145.513 E0.03392
G1 X95.988 Y119.305 E0.83300
G1 X95.716 Y116.645 E0.08385
G1 X95.718 Y114.807 E0.05763
G1 X95.984 Y112.219 E0.08157
G1 X100.270 Y85.870 E0.83701
G1 X100.487 Y85.004 E0.02798
G1 X100.982 Y84.050 E0.03370
G1 E-2.10000 F3600.000
;WIPE_START
G1 F7200.000
G1 X101.801 Y83.137 E-0.58249
G1 X102.273 Y82.811 E-0.27251
;WIPE_END
G1 E-0.04500 F3600.000
G1 X113.886 Y125.925 F9000.000
G1 E3.00000 F2400.000
;TYPE:Perimeter
G1 F1200.000
G1 X114.307 Y125.804 E0.01373
G1 X114.737 Y125.720 E0.01373
G1 X115.172 Y125.673 E0.01373
G1 X115.599 Y125.664 E0.01341
G1 X116.046 Y125.692 E0.01402
G1 X116.479 Y125.757 E0.01374
G1 X116.905 Y125.860 E0.01373
G1 X117.320 Y125.999 E0.01373
G1 X117.722 Y126.173 E0.01373
G1 X118.107 Y126.381 E0.01373
G1 X118.473 Y126.621 E0.01373
G1 X118.817 Y126.892 E0.01373
G1 X119.136 Y127.191 E0.01373
G1 X119.428 Y127.517 E0.01373
G1 X119.692 Y127.867 E0.01373
G1 X119.924 Y128.238 E0.01373
G1 X120.124 Y128.627 E0.01373
G1 X120.289 Y129.033 E0.01373
G1 X120.419 Y129.451 E0.01373
G1 X120.513 Y129.879 E0.01373
G1 X120.569 Y130.313 E0.01373
G1 X120.588 Y130.750 E0.01373
G1 X120.569 Y131.187 E0.01373
G1 X120.513 Y131.621 E0.01373
G1 X120.419 Y132.049 E0.01373
G1 X120.289 Y132.467 E0.01373
G1 X120.124 Y132.873 E0.01373
G1 X119.924 Y133.262 E0.01373
G1 X119.692 Y133.633 E0.01373
G1 X119.428 Y133.983 E0.01373
G1 X119.136 Y134.309 E0.01373
G1 X118.817 Y134.608 E0.01373
G1 X118.473 Y134.879 E0.01373
G1 X118.107 Y135.119 E0.01373
G1 X117.722 Y135.327 E0.01373
G1 X117.320 Y135.501 E0.01373
G1 X116.905 Y135.640 E0.01373
G1 X116.479 Y135.743 E0.01373
G1 X116.046 Y135.808 E0.01373
G1 X115.609 Y135.837 E0.01373
G1 X115.172 Y135.827 E0.01373
G1 X114.737 Y135.780 E0.01373
G1 X114.307 Y135.696 E0.01373
G1 X113.886 Y135.575 E0.01373
G1 X113.477 Y135.418 E0.01373
G1 X113.084 Y135.227 E0.01373
G1 X112.716 Y135.008 E0.01341
G1 X112.353 Y134.748 E0.01402
G1 X112.020 Y134.462 E0.01374
G1 X111.714 Y134.149 E0.01373
G1 X111.436 Y133.811 E0.01373
G1 X111.188 Y133.450 E0.01373
G1 X110.972 Y133.070 E0.01373
G1 X110.789 Y132.672 E0.01373
G1 X110.641 Y132.260 E0.01373
G1 X110.530 Y131.836 E0.01373
G1 X110.455 Y131.405 E0.01373
G1 X110.417 Y130.969 E0.01373
G1 X110.417 Y130.531 E0.01373
G1 X110.455 Y130.095 E0.01373
G1 X110.530 Y129.664 E0.01373
G1 X110.641 Y129.240 E0.01373
G1 X110.789 Y128.828 E0.01373
G1 X110.972 Y128.430 E0.01373
G1 X111.188 Y128.050 E0.01373
G1 X111.436 Y127.689 E0.01373
G1 X111.714 Y127.351 E0.01373
G1 X112.020 Y127.038 E0.01373
G1 X112.352 Y126.753 E0.01373
G1 X112.699 Y126.503 E0.01341
G1 X113.083 Y126.273 E0.01402
G1 X113.477 Y126.082 E0.01374
G1 X113.830 Y125.946 E0.01185
G1 X113.965 Y126.299 F9000.000
;TYPE:External perimeter
G1 F1200.000
G1 X114.395 Y126.171 E0.01408
G1 X114.793 Y126.093 E0.01271
G1 X115.196 Y126.050 E0.01271
G1 X115.592 Y126.041 E0.01240
G1 X116.006 Y126.067 E0.01300
G1 X116.406 Y126.128 E0.01271
G1 X116.800 Y126.223 E0.01271
G1 X117.185 Y126.351 E0.01271
G1 X117.557 Y126.512 E0.01271
G1 X117.913 Y126.705 E0.01271
G1 X118.252 Y126.927 E0.01271
G1 X118.571 Y127.178 E0.01271
G1 X118.866 Y127.455 E0.01271
G1 X119.137 Y127.757 E0.01271
G1 X119.381 Y128.081 E0.01271
G1 X119.596 Y128.424 E0.01271
G1 X119.781 Y128.785 E0.01271
G1 X119.934 Y129.160 E0.01271
G1 X120.054 Y129.547 E0.01271
G1 X120.141 Y129.943 E0.01271
G1 X120.193 Y130.345 E0.01271
G1 X120.210 Y130.750 E0.01271
G1 X120.193 Y131.155 E0.01271
G1 X120.141 Y131.557 E0.01271
G1 X120.054 Y131.953 E0.01271
G1 X119.934 Y132.340 E0.01271
G1 X119.781 Y132.715 E0.01271
G1 X119.596 Y133.076 E0.01271
G1 X119.381 Y133.419 E0.01271
G1 X119.137 Y133.743 E0.01271
G1 X118.866 Y134.045 E0.01271
G1 X118.571 Y134.322 E0.01271
G1 X118.252 Y134.573 E0.01271
G1 X117.913 Y134.795 E0.01271
G1 X117.557 Y134.988 E0.01271
G1 X117.185 Y135.149 E0.01271
G1 X116.800 Y135.277 E0.01271
G1 X116.406 Y135.372 E0.01271
G1 X116.006 Y135.433 E0.01271
G1 X115.601 Y135.459 E0.01271
G1 X115.196 Y135.450 E0.01271
G1 X114.793 Y135.407 E0.01271
G1 X114.395 Y135.329 E0.01271
G1 X114.006 Y135.217 E0.01271
G1 X113.627 Y135.072 E0.01271
G1 X113.263 Y134.895 E0.01271
G1 X112.923 Y134.692 E0.01240
G1 X112.586 Y134.451 E0.01300
G1 X112.279 Y134.186 E0.01271
G1 X111.995 Y133.897 E0.01271
G1 X111.738 Y133.584 E0.01271
G1 X111.508 Y133.250 E0.01271
G1 X111.308 Y132.897 E0.01271
G1 X111.139 Y132.529 E0.01271
G1 X111.002 Y132.148 E0.01271
G1 X110.898 Y131.756 E0.01271
G1 X110.829 Y131.356 E0.01271
G1 X110.794 Y130.953 E0.01271
G1 X110.794 Y130.547 E0.01271
G1 X110.829 Y130.144 E0.01271
G1 X110.898 Y129.744 E0.01271
G1 X111.002 Y129.352 E0.01271
G1 X111.139 Y128.971 E0.01271
G1 X111.308 Y128.603 E0.01271
G1 X111.508 Y128.250 E0.01271
G1 X111.738 Y127.916 E0.01271
G1 X111.995 Y127.603 E0.01271
G1 X112.279 Y127.314 E0.01271
G1 X112.586 Y127.049 E0.01271
G1 X112.907 Y126.818 E0.01240
G1 X113.263 Y126.605 E0.01300
G1 X113.627 Y126.428 E0.01271
G1 X113.909 Y126.320 E0.00946
G1 X114.042 Y125.906 F9000.000
G1 E-2.10000 F3600.000
;WIPE_START
G1 F7200.000
G1 X114.395 Y126.171 E-0.24166
G1 X114.793 Y126.093 E-0.19252
G1 X115.196 Y126.050 E-0.19252
G1 X115.592 Y126.041 E-0.18790
G1 X115.677 Y126.046 E-0.04041
;WIPE_END
G1 E-0.04500 F3600.000
G1 X103.287 Y128.009 F9000.000
G1 E3.00000 F2400.000
;TYPE:Perimeter
G1 F1200.000
G1 X102.649 Y127.211 E0.03205
G1 X102.191 Y126.588 E0.02424
G1 X101.762 Y125.949 E0.02412
G1 X101.358 Y125.294 E0.02414
G1 X100.982 Y124.622 E0.02414
G1 X100.633 Y123.936 E0.02414
G1 X100.313 Y123.236 E0.02414
G1 X100.021 Y122.523 E0.02414
G1 X99.759 Y121.800 E0.02413
G1 X99.527 Y121.066 E0.02414
G1 X99.325 Y120.323 E0.02414
G1 X99.153 Y119.573 E0.02414
G1 X99.013 Y118.816 E0.02414
G1 X98.903 Y118.054 E0.02414
G1 X98.824 Y117.288 E0.02414
G1 X98.777 Y116.520 E0.02412
G1 X98.762 Y115.748 E0.02420
G1 X98.777 Y114.980 E0.02410
G1 X98.824 Y114.216 E0.02400
G1 X98.903 Y113.446 E0.02426
G1 X99.013 Y112.684 E0.02413
G1 X99.153 Y111.927 E0.02414
G1 X99.325 Y111.177 E0.02414
G1 X99.527 Y110.434 E0.02414
G1 X99.759 Y109.700 E0.02414
G1 X100.021 Y108.977 E0.02414
G1 X100.313 Y108.264 E0.02414
G1 X100.633 Y107.564 E0.02414
G1 X100.982 Y106.878 E0.02414
G1 X101.358 Y106.206 E0.02414
G1 X101.762 Y105.551 E0.02414
G1 X102.191 Y104.912 E0.02412
G1 X102.649 Y104.289 E0.02424
G1 X103.287 Y103.491 E0.03205
G1 X103.287 Y86.521 E0.53208
G1 X103.326 Y86.186 E0.01057
G1 X103.439 Y85.890 E0.00991
G1 X103.618 Y85.630 E0.00992
G1 X103.855 Y85.421 E0.00991
G1 X104.135 Y85.274 E0.00992
G1 X104.442 Y85.198 E0.00991
G1 X109.813 Y85.187 E0.16841
G1 X109.813 Y93.412 E0.25789
G1 X121.187 Y93.412 E0.35663
G1 X121.187 Y85.187 E0.25789
G1 X126.379 Y85.187 E0.16280
G1 X126.714 Y85.226 E0.01057
G1 X127.010 Y85.339 E0.00992
G1 X127.270 Y85.518 E0.00991
G1 X127.382 Y85.630 E0.00497
G1 X127.561 Y85.890 E0.00991
G1 X127.674 Y86.186 E0.00991
G1 X127.713 Y86.521 E0.01057
G1 X127.713 Y103.491 E0.53208
G1 X128.351 Y104.289 E0.03205
G1 X128.809 Y104.912 E0.02424
G1 X129.238 Y105.551 E0.02412
G1 X129.642 Y106.206 E0.02414
G1 X130.018 Y106.878 E0.02413
G1 X130.367 Y107.564 E0.02414
G1 X130.687 Y108.264 E0.02414
G1 X130.979 Y108.977 E0.02414
G1 X131.241 Y109.700 E0.02414
G1 X131.473 Y110.434 E0.02414
G1 X131.675 Y111.177 E0.02414
G1 X131.847 Y111.927 E0.02414
G1 X131.987 Y112.684 E0.02414
G1 X132.097 Y113.446 E0.02413
G1 X132.176 Y114.216 E0.02426
G1 X132.223 Y114.983 E0.02411
G1 X132.238 Y115.750 E0.02404
G1 X132.223 Y116.517 E0.02404
G1 X132.176 Y117.288 E0.02423
G1 X132.097 Y118.054 E0.02414
G1 X131.987 Y118.816 E0.02414
G1 X131.847 Y119.573 E0.02414
G1 X131.675 Y120.323 E0.02414
G1 X131.473 Y121.066 E0.02414
G1 X131.241 Y121.800 E0.02414
G1 X130.979 Y122.523 E0.02414
G1 X130.687 Y123.236 E0.02414
G1 X130.367 Y123.936 E0.02414
G1 X130.018 Y124.622 E0.02414
G1 X129.642 Y125.294 E0.02414
G1 X129.238 Y125.949 E0.02414
G1 X128.809 Y126.588 E0.02412
G1 X128.351 Y127.211 E0.02424
G1 X127.713 Y128.009 E0.03205
G1 X127.713 Y144.479 E0.51641
G1 X127.674 Y144.814 E0.01057
G1 X127.626 Y144.965 E0.00497
G1 X127.479 Y145.245 E0.00991
G1 X127.270 Y145.482 E0.00991
G1 X127.145 Y145.580 E0.00498
G1 X126.865 Y145.726 E0.00990
G1 X126.558 Y145.802 E0.00991
G1 X121.187 Y145.813 E0.16841
G1 X121.187 Y137.588 E0.25789
G1 X109.813 Y137.588 E0.35663
G1 X109.813 Y145.813 E0.25789
G1 X104.621 Y145.813 E0.16280
G1 X104.286 Y145.774 E0.01057
G1 X103.990 Y145.661 E0.00991
G1 X103.855 Y145.579 E0.00497
G1 X103.618 Y145.370 E0.00991
G1 X103.439 Y145.110 E0.00991
G1 X103.326 Y144.814 E0.00991
G1 X103.287 Y144.479 E0.01057
G1 X103.287 Y128.069 E0.51452
G1 X102.910 Y128.141 F9000.000
;TYPE:External perimeter
G1 F1200.000
G1 X102.349 Y127.440 E0.02815
G1 X101.883 Y126.805 E0.02472
G1 X101.444 Y126.154 E0.02461
G1 X101.033 Y125.485 E0.02462
G1 X100.649 Y124.800 E0.02462
G1 X100.293 Y124.100 E0.02462
G1 X99.967 Y123.386 E0.02462
G1 X99.670 Y122.659 E0.02462
G1 X99.402 Y121.921 E0.02462
G1 X99.165 Y121.172 E0.02462
G1 X98.959 Y120.415 E0.02462
G1 X98.784 Y119.649 E0.02462
G1 X98.641 Y118.877 E0.02462
G1 X98.529 Y118.100 E0.02462
G1 X98.449 Y117.319 E0.02462
G1 X98.401 Y116.536 E0.02460
G1 X98.384 Y115.748 E0.02469
G1 X98.400 Y114.964 E0.02458
G1 X98.448 Y114.185 E0.02448
G1 X98.529 Y113.400 E0.02474
G1 X98.641 Y112.623 E0.02462
G1 X98.784 Y111.851 E0.02462
G1 X98.959 Y111.085 E0.02462
G1 X99.165 Y110.328 E0.02462
G1 X99.402 Y109.579 E0.02462
G1 X99.670 Y108.841 E0.02462
G1 X99.967 Y108.114 E0.02462
G1 X100.293 Y107.400 E0.02462
G1 X100.649 Y106.700 E0.02462
G1 X101.033 Y106.015 E0.02462
G1 X101.444 Y105.346 E0.02462
G1 X101.883 Y104.695 E0.02461
G1 X102.349 Y104.060 E0.02472
G1 X102.910 Y103.359 E0.02815
G1 X102.910 Y86.509 E0.52830
G1 X102.923 Y86.296 E0.00669
G1 X102.960 Y86.096 E0.00640
G1 X103.104 Y85.715 E0.01277
G1 X103.335 Y85.380 E0.01277
G1 X103.640 Y85.110 E0.01277
G1 X104.001 Y84.920 E0.01277
G1 X104.396 Y84.823 E0.01277
G1 X110.190 Y84.810 E0.18166
G1 X110.190 Y93.035 E0.25789
G1 X120.810 Y93.035 E0.33298
G1 X120.810 Y84.810 E0.25789
G1 X126.391 Y84.810 E0.17498
G1 X126.604 Y84.823 E0.00669
G1 X126.804 Y84.860 E0.00640
G1 X127.185 Y85.004 E0.01277
G1 X127.520 Y85.235 E0.01277
G1 X127.665 Y85.380 E0.00640
G1 X127.896 Y85.715 E0.01277
G1 X128.040 Y86.096 E0.01277
G1 X128.077 Y86.296 E0.00640
G1 X128.090 Y86.509 E0.00669
G1 X128.090 Y103.359 E0.52830
G1 X128.651 Y104.060 E0.02815
G1 X129.117 Y104.695 E0.02472
G1 X129.556 Y105.346 E0.02461
G1 X129.967 Y106.015 E0.02462
G1 X130.351 Y106.700 E0.02462
G1 X130.707 Y107.400 E0.02462
G1 X131.033 Y108.114 E0.02462
G1 X131.330 Y108.841 E0.02462
G1 X131.598 Y109.579 E0.02462
G1 X131.835 Y110.328 E0.02462
G1 X132.041 Y111.085 E0.02462
G1 X132.216 Y111.851 E0.02462
G1 X132.359 Y112.623 E0.02462
G1 X132.471 Y113.400 E0.02462
G1 X132.552 Y114.185 E0.02474
G1 X132.600 Y114.968 E0.02460
G1 X132.616 Y115.750 E0.02452
G1 X132.600 Y116.532 E0.02452
G1 X132.551 Y117.319 E0.02472
G1 X132.471 Y118.100 E0.02462
G1 X132.359 Y118.877 E0.02462
G1 X132.216 Y119.649 E0.02462
G1 X132.041 Y120.415 E0.02462
G1 X131.835 Y121.172 E0.02462
G1 X131.598 Y121.921 E0.02462
G1 X131.330 Y122.659 E0.02462
G1 X131.033 Y123.386 E0.02462
G1 X130.707 Y124.100 E0.02462
G1 X130.351 Y124.800 E0.02462
G1 X129.967 Y125.485 E0.02462
G1 X129.556 Y126.154 E0.02462
G1 X129.117 Y126.805 E0.02461
G1 X128.651 Y127.440 E0.02472
G1 X128.090 Y128.141 E0.02815
G1 X128.090 Y144.491 E0.51262
G1 X128.077 Y144.704 E0.00669
G1 X128.040 Y144.904 E0.00640
G1 X127.896 Y145.285 E0.01277
G1 X127.790 Y145.460 E0.00640
G1 X127.520 Y145.765 E0.01277
G1 X127.359 Y145.891 E0.00641
G1 X126.999 Y146.080 E0.01275
G1 X126.604 Y146.177 E0.01277
G1 X120.810 Y146.190 E0.18166
G1 X120.810 Y137.965 E0.25789
G1 X110.190 Y137.965 E0.33298
G1 X110.190 Y146.190 E0.25789
G1 X104.609 Y146.190 E0.17498
G1 X104.396 Y146.177 E0.00669
G1 X104.196 Y146.140 E0.00640
G1 X104.001 Y146.080 E0.00640
G1 X103.640 Y145.890 E0.01277
G1 X103.335 Y145.620 E0.01277
G1 X103.104 Y145.285 E0.01277
G1 X102.960 Y144.904 E0.01277
G1 X102.923 Y144.704 E0.00640
G1 X102.910 Y144.491 E0.00669
G1 X102.910 Y128.201 E0.51074
G1 X103.135 Y127.811 F9000.000
G1 E-2.10000 F3600.000
;WIPE_START
G1 F7200.000
G1 X102.349 Y127.440 E-0.44908
G1 X101.883 Y126.805 E-0.37449
G1 X101.846 Y126.750 E-0.03143
;WIPE_END
G1 E-0.04500 F3600.000
G1 X126.127 Y85.310 F9000.000
G1 E3.00000 F2400.000
;TYPE:Solid infill
;WIDTH:0.420203
G1 F1200.000
G1 X127.430 Y86.613 E0.05780
G1 X127.430 Y87.147 E0.01674
G1 X125.763 Y85.479 E0.07398
G1 X125.228 Y85.478 E0.01677
G1 X127.430 Y87.680 E0.09770
G1 X127.430 Y88.214 E0.01674
G1 X124.693 Y85.477 E0.12142
G1 X124.159 Y85.476 E0.01677
G1 X127.430 Y88.747 E0.14513
G1 X127.430 Y89.281 E0.01674
G1 X123.624 Y85.475 E0.16885
G1 X123.090 Y85.474 E0.01677
G1 X127.430 Y89.814 E0.19257
G1 X127.430 Y90.348 E0.01674
G1 X122.555 Y85.473 E0.21629
G1 X122.020 Y85.472 E0.01677
G1 X127.430 Y90.881 E0.24001
G1 X127.430 Y91.415 E0.01674
G1 X121.486 Y85.470 E0.26373
G1 X121.470 Y85.470 E0.00049
G1 X121.470 Y85.988 E0.01625
G1 X127.430 Y91.949 E0.26443
G1 X127.430 Y92.482 E0.01674
G1 X121.470 Y86.522 E0.26443
G1 X121.470 Y87.055 E0.01674
G1 X127.430 Y93.016 E0.26443
G1 X127.430 Y93.549 E0.01674
G1 X121.470 Y87.589 E0.26443
G1 X121.470 Y88.123 E0.01674
G1 X127.430 Y94.083 E0.26443
G1 X127.430 Y94.616 E0.01674
G1 X121.470 Y88.656 E0.26443
G1 X121.470 Y89.190 E0.01674
G1 X127.430 Y95.150 E0.26443
G1 X127.430 Y95.683 E0.01674
G1 X121.470 Y89.723 E0.26443
G1 X121.470 Y90.257 E0.01674
G1 X127.430 Y96.217 E0.26443
G1 X127.430 Y96.751 E0.01674
G1 X121.470 Y90.790 E0.26443
G1 X121.470 Y91.324 E0.01674
G1 X127.430 Y97.284 E0.26443
G1 X127.430 Y97.818 E0.01674
G1 X121.470 Y91.857 E0.26443
G1 X121.470 Y92.391 E0.01674
G1 X127.430 Y98.351 E0.26443
G1 X127.430 Y98.885 E0.01674
G1 X121.470 Y92.925 E0.26443
G1 X121.470 Y93.458 E0.01674
G1 X127.430 Y99.418 E0.26443
G1 X127.430 Y99.952 E0.01674
G1 X121.173 Y93.695 E0.27759
G1 X120.640 Y93.695 E0.01674
