; generated by PrusaSlicer 2.3.0 on 2022-12-30 at 21:52:19 UTC

; 

; external perimeters extrusion width = 0.45mm
; perimeters extrusion width = 0.45mm
; infill extrusion width = 0.45mm
; solid infill extrusion width = 0.45mm
; top infill extrusion width = 0.40mm
; first layer extrusion width = 0.42mm

M201 X500 Y500 Z100 E5000 ; sets maximum accelerations, mm/sec^2
M203 X500 Y500 Z10 E60 ; sets maximum feedrates, mm/sec
M204 P500 R1000 T500 ; sets acceleration (P, T) and retract acceleration (R), mm/sec^2
M205 X8.00 Y8.00 Z0.40 E5.00 ; sets the jerk limits, mm/sec
M205 S0 T0 ; sets the minimum extruding and travel feed rate, mm/sec
M107
;TYPE:Custom
G90 ; use absolute coordinates
M83 ; extruder relative mode
M104 S210 ; set extruder temp
M140 S60 ; set bed temp
M190 S60 ; wait for bed temp
M109 S210 ; wait for extruder temp
G28 ; home all
G1 Z2 F240
G1 X2 Y10 F3000
G1 Z0.28 F240
G92 E0
G1 Y190 E15 F1500 ; intro line
G1 X2.3 F5000
G92 E0
G1 Y10 E15 F1200 ; intro line
G92 E0
G21 ; set units to millimeters
G90 ; use absolute coordinates
M83 ; use relative distances for extrusion
; Filament gcode
;LAYER_CHANGE
;Z:0.2
;HEIGHT:0.2
;BEFORE_LAYER_CHANGE
G92 E0
;0.2


G1 E-3.00000 F3600.000
G1 Z0.200 F9000.000
;AFTER_LAYER_CHANGE
;0.2
G1 X102.006 Y102.477
G1 E3.00000 F2400.000
;TYPE:Skirt
;WIDTH:0.42
G1 F1200.000
G1 X103.783 Y100.858 E0.07538
G1 X105.148 Y99.862 E0.05299
G1 X106.641 Y98.970 E0.05452
G1 X108.169 Y98.238 E0.05312
G1 X109.799 Y97.634 E0.05453
G1 X112.136 Y97.051 E0.07553
G1 X113.864 Y96.817 E0.05466
G1 X115.548 Y96.746 E0.05286
G1 X117.240 Y96.827 E0.05312
G1 X118.938 Y97.064 E0.05375
G1 X120.584 Y97.448 E0.05299
G1 X122.582 Y98.135 E0.06625
G1 X124.209 Y98.892 E0.05625
G1 X126.086 Y100.021 E0.06868
G1 X127.535 Y101.117 E0.05696
G1 X128.782 Y102.260 E0.05305
G1 X129.986 Y103.589 E0.05623
G1 X131.054 Y105.023 E0.05607
G1 X131.942 Y106.480 E0.05347
G1 X132.882 Y108.463 E0.06880
G1 X133.508 Y110.264 E0.05981
G1 X133.909 Y111.920 E0.05340
G1 X134.158 Y113.609 E0.05353
G1 X134.253 Y115.367 E0.05520
G1 X134.187 Y117.075 E0.05360
G1 X133.872 Y119.254 E0.06905
G1 X133.393 Y121.117 E0.06031
G1 X132.811 Y122.714 E0.05327
G1 X132.082 Y124.262 E0.05366
G1 X131.191 Y125.771 E0.05494
G1 X130.201 Y127.144 E0.05309
G1 X128.732 Y128.786 E0.06906
G1 X127.291 Y130.084 E0.06080
G1 X125.923 Y131.091 E0.05327
G1 X124.455 Y131.978 E0.05379
G1 X122.896 Y132.734 E0.05430
G1 X121.296 Y133.335 E0.05359
G1 X118.963 Y133.931 E0.07551
G1 X117.241 Y134.173 E0.05452
G1 X115.545 Y134.254 E0.05324
G1 X113.812 Y134.177 E0.05440
G1 X111.431 Y133.807 E0.07553
G1 X109.749 Y133.351 E0.05466
G1 X108.169 Y132.762 E0.05286
G1 X106.642 Y132.030 E0.05312
G1 X105.149 Y131.138 E0.05453
G1 X103.783 Y130.142 E0.05301
G1 X102.006 Y128.523 E0.07538
G1 X100.854 Y127.214 E0.05465
G1 X99.859 Y125.848 E0.05299
G1 X98.991 Y124.398 E0.05299
G1 X98.238 Y122.831 E0.05452
G1 X97.649 Y121.246 E0.05301
G1 X97.059 Y118.911 E0.07551
G1 X96.822 Y117.189 E0.05453
G1 X96.746 Y115.500 E0.05299
G1 X96.822 Y113.812 E0.05299
G1 X97.059 Y112.089 E0.05453
G1 X97.441 Y110.443 E0.05301
G1 X98.238 Y108.170 E0.07551
G1 X98.991 Y106.602 E0.05452
G1 X99.859 Y105.152 E0.05299
G1 X100.854 Y103.786 E0.05299
G1 X101.966 Y102.522 E0.05280
G1 X102.249 Y102.770 F9000.000
G1 F1200.000
G1 X104.024 Y101.148 E0.07541
G1 X105.362 Y100.173 E0.05191
G1 X106.819 Y99.302 E0.05322
G1 X108.316 Y98.585 E0.05203
G1 X109.908 Y97.995 E0.05323
G1 X112.211 Y97.420 E0.07444
G1 X113.897 Y97.193 E0.05335
G1 X115.548 Y97.123 E0.05179
G1 X117.202 Y97.202 E0.05192
G1 X118.868 Y97.434 E0.05275
G1 X120.477 Y97.810 E0.05180
G1 X122.437 Y98.483 E0.06500
G1 X124.028 Y99.223 E0.05501
G1 X125.877 Y100.335 E0.06766
G1 X127.291 Y101.405 E0.05561
G1 X128.514 Y102.525 E0.05199
G1 X129.693 Y103.827 E0.05506
G1 X130.740 Y105.232 E0.05497
G1 X131.610 Y106.659 E0.05237
G1 X132.534 Y108.608 E0.06763
G1 X133.147 Y110.372 E0.05856
G1 X133.539 Y111.990 E0.05220
G1 X133.783 Y113.648 E0.05256
G1 X133.876 Y115.368 E0.05398
G1 X133.812 Y117.040 E0.05249
G1 X133.502 Y119.182 E0.06785
G1 X133.033 Y121.004 E0.05898
G1 X132.463 Y122.568 E0.05220
G1 X131.749 Y124.084 E0.05256
G1 X130.879 Y125.559 E0.05369
G1 X129.907 Y126.908 E0.05214
G1 X128.463 Y128.522 E0.06788
G1 X127.050 Y129.793 E0.05959
G1 X125.710 Y130.780 E0.05220
G1 X124.275 Y131.647 E0.05256
G1 X122.753 Y132.385 E0.05303
G1 X121.187 Y132.974 E0.05247
G1 X118.887 Y133.562 E0.07443
G1 X117.206 Y133.798 E0.05322
G1 X115.544 Y133.877 E0.05215
G1 X113.852 Y133.803 E0.05311
G1 X111.506 Y133.437 E0.07444
G1 X109.864 Y132.992 E0.05335
G1 X108.316 Y132.415 E0.05179
G1 X106.820 Y131.698 E0.05203
G1 X105.362 Y130.827 E0.05323
G1 X104.024 Y129.852 E0.05192
G1 X102.272 Y128.256 E0.07431
G1 X101.149 Y126.978 E0.05334
G1 X100.174 Y125.640 E0.05192
G1 X99.323 Y124.219 E0.05191
G1 X98.588 Y122.689 E0.05322
G1 X98.010 Y121.138 E0.05192
G1 X97.429 Y118.836 E0.07443
G1 X97.198 Y117.154 E0.05323
G1 X97.123 Y115.500 E0.05191
G1 X97.198 Y113.846 E0.05192
G1 X97.429 Y112.164 E0.05323
G1 X97.802 Y110.551 E0.05192
G1 X98.588 Y108.311 E0.07443
G1 X99.323 Y106.781 E0.05322
G1 X100.173 Y105.360 E0.05191
G1 X101.148 Y104.022 E0.05191
G1 X102.209 Y102.816 E0.05037
G1 E-2.10000 F3600.000
;WIPE_START
G1 F7200.000
G1 X103.534 Y101.597 E-0.85500
;WIPE_END
G1 E-0.04500 F3600.000
G1 X112.327 Y112.542 F9000.000
G1 E3.00000 F2400.000
;TYPE:Perimeter
G1 F1200.000
G1 X112.618 Y112.258 E0.01275
G1 X112.934 Y112.003 E0.01275
G1 X113.273 Y111.778 E0.01275
G1 X113.631 Y111.585 E0.01275
G1 X114.006 Y111.428 E0.01275
G1 X114.394 Y111.306 E0.01275
G1 X114.791 Y111.220 E0.01275
G1 X115.195 Y111.173 E0.01275
G1 X115.578 Y111.164 E0.01202
G1 X116.006 Y111.192 E0.01343
G1 X116.409 Y111.258 E0.01280
G1 X116.802 Y111.362 E0.01275
G1 X117.183 Y111.502 E0.01275
G1 X117.550 Y111.677 E0.01275
G1 X117.899 Y111.886 E0.01275
G1 X118.227 Y112.127 E0.01275
G1 X118.531 Y112.397 E0.01275
G1 X118.808 Y112.694 E0.01275
G1 X119.057 Y113.017 E0.01275
G1 X119.274 Y113.360 E0.01275
G1 X119.457 Y113.723 E0.01275
G1 X119.606 Y114.102 E0.01275
G1 X119.719 Y114.492 E0.01275
G1 X119.795 Y114.892 E0.01275
G1 X119.833 Y115.297 E0.01275
G1 X119.833 Y115.703 E0.01275
G1 X119.795 Y116.108 E0.01275
G1 X119.719 Y116.508 E0.01275
G1 X119.606 Y116.898 E0.01275
G1 X119.457 Y117.277 E0.01275
G1 X119.274 Y117.639 E0.01275
G1 X119.057 Y117.983 E0.01275
G1 X118.808 Y118.306 E0.01275
G1 X118.531 Y118.603 E0.01275
G1 X118.227 Y118.873 E0.01275
G1 X117.899 Y119.114 E0.01275
G1 X117.550 Y119.323 E0.01275
G1 X117.183 Y119.498 E0.01275
G1 X116.802 Y119.638 E0.01275
G1 X116.409 Y119.742 E0.01275
G1 X116.007 Y119.808 E0.01275
G1 X115.602 Y119.837 E0.01275
G1 X115.195 Y119.827 E0.01275
G1 X114.791 Y119.780 E0.01275
G1 X114.394 Y119.694 E0.01275
G1 X114.006 Y119.572 E0.01275
G1 X113.631 Y119.415 E0.01275
G1 X113.273 Y119.222 E0.01275
G1 X112.934 Y118.997 E0.01275
G1 X112.618 Y118.742 E0.01275
G1 X112.327 Y118.458 E0.01275
G1 X112.064 Y118.147 E0.01275
G1 X111.831 Y117.814 E0.01275
G1 X111.630 Y117.460 E0.01275
G1 X111.464 Y117.089 E0.01275
G1 X111.333 Y116.704 E0.01275
G1 X111.238 Y116.309 E0.01275
G1 X111.181 Y115.906 E0.01275
G1 X111.162 Y115.500 E0.01275
G1 X111.181 Y115.094 E0.01275
G1 X111.238 Y114.691 E0.01275
G1 X111.333 Y114.296 E0.01275
G1 X111.464 Y113.911 E0.01275
G1 X111.630 Y113.540 E0.01275
G1 X111.831 Y113.186 E0.01275
G1 X112.064 Y112.853 E0.01275
G1 X112.288 Y112.588 E0.01087
G1 X112.576 Y112.832 F9000.000
;TYPE:External perimeter
G1 F1200.000
G1 X112.868 Y112.540 E0.01296
G1 X113.157 Y112.307 E0.01164
G1 X113.466 Y112.102 E0.01164
G1 X113.794 Y111.926 E0.01164
G1 X114.136 Y111.782 E0.01164
G1 X114.490 Y111.671 E0.01164
G1 X114.853 Y111.593 E0.01164
G1 X115.222 Y111.549 E0.01164
G1 X115.570 Y111.541 E0.01094
G1 X115.963 Y111.567 E0.01232
G1 X116.329 Y111.627 E0.01166
G1 X116.688 Y111.722 E0.01164
G1 X117.037 Y111.850 E0.01164
G1 X117.372 Y112.010 E0.01164
G1 X117.691 Y112.201 E0.01164
G1 X117.990 Y112.420 E0.01164
G1 X118.267 Y112.667 E0.01164
G1 X118.521 Y112.939 E0.01164
G1 X118.747 Y113.233 E0.01164
G1 X118.945 Y113.547 E0.01164
G1 X119.113 Y113.878 E0.01164
G1 X119.249 Y114.223 E0.01164
G1 X119.352 Y114.580 E0.01164
G1 X119.421 Y114.945 E0.01164
G1 X119.456 Y115.314 E0.01164
G1 X119.456 Y115.686 E0.01164
G1 X119.421 Y116.055 E0.01164
G1 X119.352 Y116.420 E0.01164
G1 X119.249 Y116.777 E0.01164
G1 X119.113 Y117.122 E0.01164
G1 X118.945 Y117.453 E0.01164
G1 X118.747 Y117.767 E0.01164
G1 X118.521 Y118.061 E0.01164
G1 X118.267 Y118.333 E0.01164
G1 X117.990 Y118.580 E0.01164
G1 X117.691 Y118.799 E0.01164
G1 X117.372 Y118.990 E0.01164
G1 X117.037 Y119.150 E0.01164
G1 X116.688 Y119.278 E0.01164
G1 X116.329 Y119.372 E0.01164
G1 X115.963 Y119.433 E0.01164
G1 X115.593 Y119.459 E0.01164
G1 X115.222 Y119.451 E0.01164
G1 X114.853 Y119.407 E0.01164
G1 X114.490 Y119.329 E0.01164
G1 X114.136 Y119.218 E0.01164
G1 X113.794 Y119.074 E0.01164
G1 X113.466 Y118.898 E0.01164
G1 X113.157 Y118.693 E0.01164
G1 X112.868 Y118.460 E0.01164
G1 X112.603 Y118.200 E0.01164
G1 X112.363 Y117.917 E0.01164
G1 X112.150 Y117.613 E0.01164
G1 X111.967 Y117.290 E0.01164
G1 X111.815 Y116.951 E0.01164
G1 X111.695 Y116.600 E0.01164
G1 X111.609 Y116.238 E0.01164
G1 X111.557 Y115.871 E0.01164
G1 X111.540 Y115.500 E0.01164
G1 X111.557 Y115.129 E0.01164
G1 X111.609 Y114.762 E0.01164
G1 X111.695 Y114.400 E0.01164
G1 X111.815 Y114.049 E0.01164
G1 X111.967 Y113.710 E0.01164
G1 X112.150 Y113.387 E0.01164
G1 X112.363 Y113.083 E0.01164
G1 X112.537 Y112.878 E0.00843
G1 X112.456 Y112.450 F9000.000
G1 E-2.10000 F3600.000
;WIPE_START
G1 F7200.000
G1 X112.868 Y112.540 E-0.22478
G1 X113.157 Y112.307 E-0.17634
G1 X113.466 Y112.102 E-0.17634
G1 X113.794 Y111.926 E-0.17635
G1 X113.990 Y111.843 E-0.10117
;WIPE_END
G1 E-0.04500 F3600.000
G1 X104.167 Y105.208 F9000.000
G1 E3.00000 F2400.000
;TYPE:Perimeter
G1 F1200.000
G1 X104.934 Y104.417 E0.03454
G1 X105.443 Y103.953 E0.02158
G1 X105.972 Y103.513 E0.02158
G1 X106.520 Y103.097 E0.02158
G1 X107.087 Y102.705 E0.02158
G1 X107.670 Y102.340 E0.02158
G1 X108.270 Y102.002 E0.02158
G1 X108.884 Y101.690 E0.02158
G1 X109.511 Y101.407 E0.02158
G1 X110.151 Y101.152 E0.02158
G1 X110.801 Y100.926 E0.02158
G1 X111.461 Y100.730 E0.02158
G1 X112.129 Y100.563 E0.02158
G1 X112.803 Y100.427 E0.02158
G1 X113.484 Y100.321 E0.02158
G1 X114.168 Y100.245 E0.02158
G1 X114.850 Y100.201 E0.02145
G1 X115.887 Y100.196 E0.03251
G1 X116.922 Y100.254 E0.03251
G1 X117.602 Y100.332 E0.02145
G1 X118.281 Y100.442 E0.02158
G1 X118.955 Y100.582 E0.02158
G1 X119.622 Y100.753 E0.02158
G1 X120.281 Y100.953 E0.02158
G1 X120.928 Y101.182 E0.02151
G1 X121.835 Y101.560 E0.03082
G1 X122.456 Y101.858 E0.02160
G1 X123.064 Y102.186 E0.02166
G1 X123.718 Y102.579 E0.02393
G1 X124.292 Y102.963 E0.02166
G1 X124.849 Y103.373 E0.02168
G1 X125.387 Y103.807 E0.02168
G1 X125.905 Y104.265 E0.02168
G1 X126.402 Y104.747 E0.02170
G1 X126.827 Y105.196 E0.01941
G1 X127.327 Y105.774 E0.02395
G1 X127.754 Y106.317 E0.02165
G1 X128.156 Y106.880 E0.02168
G1 X128.532 Y107.460 E0.02168
G1 X128.882 Y108.056 E0.02168
G1 X129.204 Y108.668 E0.02168
G1 X129.498 Y109.293 E0.02168
G1 X129.764 Y109.932 E0.02168
G1 X130.001 Y110.581 E0.02168
G1 X130.208 Y111.241 E0.02168
G1 X130.386 Y111.909 E0.02168
G1 X130.533 Y112.585 E0.02169
G1 X130.638 Y113.195 E0.01941
G1 X130.734 Y113.953 E0.02396
G1 X130.789 Y114.642 E0.02165
G1 X130.812 Y115.333 E0.02168
G1 X130.804 Y116.024 E0.02168
G1 X130.764 Y116.714 E0.02168
G1 X130.694 Y117.402 E0.02168
G1 X130.593 Y118.086 E0.02168
G1 X130.461 Y118.765 E0.02168
G1 X130.298 Y119.437 E0.02168
G1 X130.105 Y120.101 E0.02168
G1 X129.883 Y120.755 E0.02168
G1 X129.631 Y121.400 E0.02169
G1 X129.380 Y121.966 E0.01942
G1 X129.041 Y122.651 E0.02396
G1 X128.705 Y123.254 E0.02165
G1 X128.341 Y123.842 E0.02168
G1 X127.951 Y124.413 E0.02168
G1 X127.536 Y124.966 E0.02168
G1 X127.097 Y125.500 E0.02168
G1 X126.634 Y126.013 E0.02168
G1 X126.148 Y126.505 E0.02168
G1 X125.640 Y126.974 E0.02168
G1 X125.112 Y127.420 E0.02168
G1 X124.564 Y127.842 E0.02168
G1 X123.997 Y128.239 E0.02168
G1 X123.474 Y128.571 E0.01942
G1 X122.813 Y128.954 E0.02397
G1 X122.199 Y129.270 E0.02164
G1 X121.571 Y129.558 E0.02168
G1 X120.930 Y129.818 E0.02168
G1 X120.281 Y130.047 E0.02158
G1 X119.622 Y130.247 E0.02158
G1 X118.955 Y130.418 E0.02158
G1 X118.281 Y130.558 E0.02158
G1 X117.602 Y130.668 E0.02158
G1 X116.918 Y130.747 E0.02158
G1 X116.231 Y130.795 E0.02158
G1 X115.543 Y130.813 E0.02158
G1 X114.855 Y130.799 E0.02158
G1 X114.168 Y130.755 E0.02158
G1 X113.484 Y130.679 E0.02158
G1 X112.803 Y130.573 E0.02158
G1 X112.129 Y130.437 E0.02158
G1 X111.461 Y130.270 E0.02158
G1 X110.801 Y130.074 E0.02158
G1 X110.151 Y129.848 E0.02158
G1 X109.511 Y129.593 E0.02158
G1 X108.884 Y129.310 E0.02158
G1 X108.270 Y128.998 E0.02158
G1 X107.670 Y128.660 E0.02158
G1 X107.087 Y128.294 E0.02158
G1 X106.520 Y127.903 E0.02158
G1 X105.972 Y127.487 E0.02158
G1 X105.443 Y127.047 E0.02158
G1 X104.934 Y126.583 E0.02158
G1 X104.447 Y126.097 E0.02158
G1 X103.981 Y125.590 E0.02158
G1 X103.540 Y125.062 E0.02158
G1 X103.122 Y124.514 E0.02159
G1 X102.729 Y123.949 E0.02158
G1 X102.362 Y123.367 E0.02158
G1 X102.022 Y122.768 E0.02158
G1 X101.709 Y122.155 E0.02158
G1 X101.424 Y121.528 E0.02158
G1 X101.167 Y120.890 E0.02158
G1 X100.939 Y120.240 E0.02158
G1 X100.741 Y119.581 E0.02158
G1 X100.573 Y118.913 E0.02158
G1 X100.434 Y118.239 E0.02158
G1 X100.326 Y117.559 E0.02158
G1 X100.249 Y116.875 E0.02158
G1 X100.203 Y116.188 E0.02159
G1 X100.187 Y115.500 E0.02158
G1 X100.203 Y114.812 E0.02158
G1 X100.249 Y114.125 E0.02159
G1 X100.326 Y113.441 E0.02158
G1 X100.434 Y112.761 E0.02158
G1 X100.573 Y112.087 E0.02158
G1 X100.741 Y111.419 E0.02158
G1 X100.939 Y110.760 E0.02158
G1 X101.167 Y110.110 E0.02158
G1 X101.424 Y109.471 E0.02158
G1 X101.709 Y108.845 E0.02158
G1 X102.022 Y108.232 E0.02158
G1 X102.362 Y107.633 E0.02158
G1 X102.729 Y107.051 E0.02158
G1 X103.122 Y106.485 E0.02158
G1 X103.540 Y105.938 E0.02159
G1 X104.127 Y105.252 E0.02832
G1 X103.849 Y104.997 F9000.000
;TYPE:External perimeter
G1 F1200.000
G1 X104.174 Y104.642 E0.01511
G1 X104.674 Y104.144 E0.02212
G1 X105.195 Y103.669 E0.02212
G1 X105.737 Y103.217 E0.02212
G1 X106.299 Y102.791 E0.02212
G1 X106.880 Y102.390 E0.02212
G1 X107.478 Y102.016 E0.02212
G1 X108.092 Y101.669 E0.02212
G1 X108.721 Y101.350 E0.02212
G1 X109.364 Y101.060 E0.02212
G1 X110.019 Y100.799 E0.02212
G1 X110.685 Y100.567 E0.02212
G1 X111.361 Y100.366 E0.02212
G1 X112.046 Y100.195 E0.02212
G1 X112.737 Y100.055 E0.02212
G1 X113.434 Y99.947 E0.02212
G1 X114.135 Y99.870 E0.02212
G1 X114.837 Y99.824 E0.02207
G1 X115.897 Y99.819 E0.03322
G1 X116.954 Y99.878 E0.03322
G1 X117.654 Y99.959 E0.02207
G1 X118.350 Y100.071 E0.02212
G1 X119.040 Y100.215 E0.02212
G1 X119.724 Y100.389 E0.02212
G1 X120.399 Y100.594 E0.02212
G1 X121.063 Y100.829 E0.02210
G1 X121.990 Y101.215 E0.03146
G1 X122.627 Y101.522 E0.02218
G1 X123.250 Y101.858 E0.02220
G1 X123.920 Y102.261 E0.02449
G1 X124.509 Y102.654 E0.02220
G1 X125.079 Y103.074 E0.02221
G1 X125.630 Y103.519 E0.02221
G1 X126.161 Y103.989 E0.02221
G1 X126.670 Y104.482 E0.02222
G1 X127.107 Y104.943 E0.01993
G1 X127.618 Y105.534 E0.02450
G1 X128.055 Y106.091 E0.02220
G1 X128.467 Y106.667 E0.02221
G1 X128.853 Y107.262 E0.02221
G1 X129.211 Y107.873 E0.02221
G1 X129.541 Y108.500 E0.02221
G1 X129.843 Y109.141 E0.02221
G1 X130.116 Y109.795 E0.02221
G1 X130.358 Y110.460 E0.02221
G1 X130.571 Y111.136 E0.02221
G1 X130.752 Y111.821 E0.02221
G1 X130.903 Y112.513 E0.02222
G1 X131.011 Y113.140 E0.01993
G1 X131.110 Y113.915 E0.02450
G1 X131.165 Y114.621 E0.02220
G1 X131.189 Y115.329 E0.02221
G1 X131.181 Y116.037 E0.02221
G1 X131.140 Y116.744 E0.02221
G1 X131.068 Y117.449 E0.02221
G1 X130.964 Y118.150 E0.02221
G1 X130.829 Y118.845 E0.02221
G1 X130.662 Y119.534 E0.02221
G1 X130.465 Y120.214 E0.02221
G1 X130.237 Y120.885 E0.02221
G1 X129.979 Y121.545 E0.02222
G1 X129.721 Y122.126 E0.01993
G1 X129.374 Y122.826 E0.02450
G1 X129.030 Y123.445 E0.02220
G1 X128.657 Y124.047 E0.02221
G1 X128.258 Y124.633 E0.02221
G1 X127.833 Y125.199 E0.02221
