; generated by PrusaSlicer 2.3.0 on 2022-12-31 at 23:58:35 UTC

; 

; external perimeters extrusion width = 0.45mm
; perimeters extrusion width = 0.45mm
; infill extrusion width = 0.45mm
; solid infill extrusion width = 0.45mm
; top infill extrusion width = 0.40mm
; support material extrusion width = 0.38mm
; first layer extrusion width = 0.42mm

M201 X500 Y500 Z100 E5000 ; sets maximum accelerations, mm/sec^2
M203 X500 Y500 Z10 E60 ; sets maximum feedrates, mm/sec
M204 P500 R1000 T500 ; sets acceleration (P, T) and retract acceleration (R), mm/sec^2
M205 X8.00 Y8.00 Z0.40 E5.00 ; sets the jerk limits, mm/sec
M205 S0 T0 ; sets the minimum extruding and travel feed rate, mm/sec
M107
;TYPE:Custom
G90 ; use absolute coordinates
M83 ; extruder relative mode
M104 S210 ; set extruder temp
M140 S70 ; set bed temp
M190 S70 ; wait for bed temp
M109 S210 ; wait for extruder temp
G28 ; home all
G1 Z2 F240
G1 X2 Y10 F3000
G1 Z0.28 F240
G92 E0
G1 Y190 E15 F1500 ; intro line
G1 X2.3 F5000
G92 E0
G1 Y10 E15 F1200 ; intro line
G92 E0
G21 ; set units to millimeters
G90 ; use absolute coordinates
M83 ; use relative distances for extrusion
; Filament gcode
;LAYER_CHANGE
;Z:0.2
;HEIGHT:0.2
;BEFORE_LAYER_CHANGE
G92 E0
;0.2


G1 E-3.00000 F3600.000
G1 Z0.200 F9000.000
;AFTER_LAYER_CHANGE
;0.2
G1 X44.719 Y106.045
G1 E3.00000 F2400.000
;TYPE:Skirt
;WIDTH:0.42
G1 F1200.000
G1 X101.175 Y98.969 E1.78399
G1 X117.408 Y98.957 E0.50896
G1 X186.173 Y110.751 E2.18756
G1 X186.900 Y111.126 E0.02567
G1 X187.751 Y111.949 E0.03709
G1 X188.122 Y112.490 E0.02060
G1 X188.333 Y113.117 E0.02071
G1 X188.202 Y120.388 E0.22803
G1 X188.096 Y121.025 E0.02024
G1 X187.891 Y121.495 E0.01609
G1 X187.587 Y121.914 E0.01621
G1 X184.856 Y124.599 E0.12011
G1 X172.647 Y131.888 E0.44582
G1 X165.413 Y134.258 E0.23869
G1 X161.642 Y134.856 E0.11971
G1 X151.585 Y134.879 E0.31531
G1 X63.005 Y132.684 E2.77824
G1 X62.127 Y132.363 E0.02931
G1 X53.698 Y126.996 E0.31330
G1 X46.622 Y122.242 E0.26730
G1 X43.546 Y119.204 E0.13557
G1 X43.221 Y118.740 E0.01775
G1 X43.015 Y118.213 E0.01775
G1 X42.939 Y117.629 E0.01846
G1 X42.962 Y108.015 E0.30143
G1 X43.159 Y107.346 E0.02190
G1 X43.543 Y106.762 E0.02190
G1 X44.080 Y106.315 E0.02190
G1 X44.664 Y106.068 E0.01990
G1 E-2.10000 F3600.000
;WIPE_START
G1 F7200.000
G1 X46.450 Y105.844 E-0.85500
;WIPE_END
G1 E-0.04500 F3600.000
G1 X55.126 Y104.550 F9000.000
G1 E3.00000 F2400.000
G1 F1200.000
G1 X53.723 Y103.737 E0.05085
G1 X52.385 Y103.444 E0.04296
G1 X44.982 Y103.444 E0.23212
G1 X44.017 Y103.595 E0.03061
G1 X42.760 Y104.140 E0.04295
G1 X41.689 Y105.032 E0.04371
G1 X40.919 Y106.134 E0.04216
G1 X40.485 Y107.405 E0.04209
G1 X40.413 Y117.840 E0.32721
G1 X40.525 Y118.732 E0.02816
G1 X41.572 Y120.808 E0.07292
G1 X42.779 Y122.000 E0.05318
G1 X43.295 Y122.339 E0.01936
G1 X43.648 Y122.870 E0.02000
G1 X45.071 Y124.240 E0.06192
G1 X46.044 Y124.807 E0.03531
G1 X47.111 Y125.139 E0.03504
G1 X48.263 Y125.201 E0.03618
G1 X49.529 Y126.454 E0.05588
G1 X50.154 Y126.835 E0.02292
G1 X50.225 Y126.982 E0.00515
G1 X50.680 Y127.618 E0.02450
G1 X51.985 Y128.879 E0.05691
G1 X52.947 Y129.454 E0.03515
G1 X54.116 Y129.821 E0.03842
G1 X55.251 Y129.869 E0.03560
G1 X55.383 Y130.040 E0.00677
G1 X56.530 Y131.162 E0.05033
G1 X57.724 Y131.856 E0.04328
G1 X58.071 Y131.971 E0.01146
G1 X60.391 Y134.257 E0.10214
G1 X61.304 Y134.807 E0.03341
G1 X62.301 Y135.120 E0.03277
G1 X64.384 Y135.183 E0.06533
G1 X65.144 Y135.062 E0.02415
G1 X71.313 Y135.067 E0.19342
G1 X71.872 Y135.182 E0.01790
G1 X72.773 Y135.182 E0.02823
G1 X73.479 Y135.092 E0.02232
G1 X75.051 Y134.387 E0.05402
G1 X75.587 Y133.902 E0.02265
G1 X75.985 Y133.613 E0.01542
G1 X76.391 Y133.205 E0.01805
G1 X76.756 Y132.837 F9000.000
G1 F1200.000
G1 X76.862 Y132.730 E0.00469
G1 X79.651 Y132.730 E0.08746
G1 X80.835 Y132.486 E0.03790
G1 X81.235 Y132.300 E0.01382
G1 X81.657 Y132.147 E0.01408
G1 X82.603 Y131.610 E0.03411
G1 X83.870 Y130.393 E0.05507
G1 X91.023 Y130.393 E0.22430
G1 X91.421 Y130.336 E0.01260
G1 X92.029 Y130.304 E0.01909
G1 X92.521 Y130.208 E0.01570
G1 X93.319 Y129.885 E0.02700
G1 X93.566 Y129.881 E0.00776
G1 X126.159 Y129.893 E1.02194
G1 X126.708 Y130.143 E0.01889
G1 X127.965 Y130.393 E0.04018
G1 X135.721 Y130.393 E0.24319
G1 X137.102 Y131.774 E0.06124
G1 X138.149 Y132.447 E0.03903
G1 X139.616 Y132.846 E0.04766
G1 X140.614 Y132.840 E0.03130
G1 X141.235 Y132.728 E0.01977
G1 X141.347 Y132.729 E0.00351
G1 X141.929 Y132.846 E0.01861
G1 X142.735 Y132.831 E0.02529
G1 X143.976 Y134.078 E0.05516
G1 X144.570 Y134.517 E0.02314
G1 X145.609 Y134.920 F9000.000
G1 F1200.000
G1 X146.246 Y135.142 E0.02117
G1 X147.390 Y135.176 E0.03587
G1 X148.772 Y136.488 E0.05974
G1 X150.017 Y137.134 E0.04397
G1 X151.334 Y137.405 E0.04218
G1 X161.995 Y137.362 E0.33427
G1 X163.204 Y137.021 E0.03938
G1 X163.448 Y136.901 E0.00852
G1 X164.512 Y136.894 E0.03337
G1 X165.047 Y136.911 E0.01680
G1 X166.147 Y136.702 E0.03511
G1 X167.418 Y136.144 E0.04351
G1 X168.468 Y135.284 E0.04255
G1 X168.978 Y134.566 E0.02760
G1 X172.203 Y134.568 E0.10113
G1 X173.680 Y134.215 E0.04760
G1 X174.810 Y133.560 E0.04096
G1 X175.634 Y132.757 E0.03607
G1 X176.220 Y131.752 E0.03646
G1 X177.117 Y131.244 E0.03234
G1 X178.081 Y130.269 E0.04300
G1 X178.597 Y129.429 E0.03090
G1 X178.723 Y129.372 E0.00434
G1 X179.508 Y128.865 E0.02931
G1 X180.260 Y128.133 E0.03290
G1 X180.644 Y127.555 E0.02176
G1 X184.020 Y127.541 E0.10584
G1 X185.310 Y127.226 E0.04162
G1 X186.414 Y126.611 E0.03964
G1 X187.317 Y125.748 E0.03916
G1 X187.900 Y124.750 E0.03622
G1 X188.650 Y124.346 E0.02672
G1 X189.625 Y123.448 E0.04157
G1 X190.545 Y121.735 E0.06098
G1 X190.701 Y120.937 E0.02548
G1 X190.730 Y120.140 E0.02501
G1 X190.725 Y114.544 E0.17545
G1 X190.842 Y113.813 E0.02321
G1 X190.751 Y112.326 E0.04673
G1 X190.487 Y111.532 E0.02622
G1 X190.067 Y110.772 E0.02723
G1 X188.672 Y109.293 E0.06376
G1 X186.919 Y108.337 E0.06260
G1 X185.705 Y108.118 E0.03868
G1 X176.465 Y108.116 E0.28970
G1 X175.640 Y108.139 E0.02590
G1 X174.914 Y108.258 E0.02307
G1 X174.348 Y108.532 E0.01972
G1 X173.765 Y108.814 F9000.000
G1 F1200.000
G1 X173.296 Y109.042 E0.01633
G1 X172.327 Y109.978 E0.04226
G1 X171.770 Y110.942 E0.03488
G1 X170.759 Y111.534 E0.03674
G1 X169.894 Y112.443 E0.03937
G1 X169.679 Y112.792 E0.01284
G1 X166.478 Y112.792 E0.10036
G1 X165.451 Y112.970 E0.03268
G1 X163.925 Y113.734 E0.05352
G1 X162.966 Y114.667 E0.04196
G1 X162.826 Y114.880 E0.00799
G1 X161.943 Y114.666 E0.02849
G1 X160.499 Y114.643 E0.04527
G1 X159.362 Y113.511 E0.05032
G1 X158.201 Y112.756 E0.04343
G1 X156.496 Y112.292 E0.05540
G1 X153.576 Y112.292 E0.09155
G1 X152.241 Y110.998 E0.05829
G1 X150.324 Y110.066 E0.06683
G1 X149.439 Y109.955 E0.02797
G1 X144.377 Y109.955 E0.15871
G1 X143.727 Y109.310 E0.02872
G1 X143.601 Y108.922 E0.01278
G1 X142.841 Y107.661 E0.04618
G1 X141.799 Y106.631 E0.04594
G1 X141.213 Y106.247 E0.02195
G1 X140.768 Y105.593 E0.02483
G1 X139.835 Y104.643 E0.04174
G1 X138.602 Y103.867 E0.04568
G1 X136.908 Y103.443 E0.05473
G1 X133.994 Y103.450 E0.09137
G1 X132.728 Y102.148 E0.05693
G1 X131.831 Y101.622 E0.03261
G1 E-2.10000 F3600.000
;WIPE_START
G1 F7200.000
G1 X132.728 Y102.148 E-0.49395
G1 X133.258 Y102.693 E-0.36105
;WIPE_END
G1 E-0.04500 F3600.000
G1 X129.027 Y101.142 F9000.000
G1 E3.00000 F2400.000
G1 F1200.000
G1 X126.376 Y101.112 E0.08312
G1 X125.810 Y100.590 E0.02415
G1 X125.299 Y100.120 F9000.000
G1 F1200.000
G1 X124.647 Y99.518 E0.02783
G1 X123.691 Y99.057 E0.03328
G1 X122.734 Y98.817 E0.03094
G1 X121.767 Y98.786 E0.03033
G1 X120.383 Y97.441 E0.06049
G1 X119.157 Y96.755 E0.04406
G1 X117.800 Y96.438 E0.04369
G1 X100.899 Y96.432 E0.52991
G1 X99.851 Y96.628 E0.03344
G1 X98.379 Y97.416 E0.05235
G1 X97.638 Y98.124 E0.03214
G1 X97.170 Y98.827 E0.02648
G1 X96.984 Y99.304 E0.01605
G1 X96.827 Y99.704 F9000.000
G1 F1200.000
G1 X96.553 Y100.406 E0.02364
G1 X96.450 Y101.315 E0.02870
G1 X96.509 Y101.934 E0.01948
G1 X96.507 Y103.444 E0.04734
G1 X91.725 Y103.444 E0.14993
G1 X90.938 Y103.543 E0.02488
G1 X89.190 Y104.346 E0.06029
G1 X88.197 Y105.298 E0.04314
G1 X87.902 Y105.785 E0.01786
G1 X87.193 Y105.803 E0.02224
G1 X85.896 Y106.148 E0.04206
G1 X85.334 Y106.480 E0.02050
G1 X84.568 Y106.867 E0.02690
G1 X83.825 Y107.480 E0.03022
G1 X83.708 Y107.618 E0.00567
G1 X78.952 Y107.618 E0.14909
G1 X78.067 Y107.729 E0.02797
G1 X76.150 Y108.660 E0.06683
G1 X74.814 Y109.957 E0.05837
G1 X70.320 Y109.966 E0.14089
G1 X70.015 Y109.951 E0.00959
G1 X68.919 Y110.035 E0.03445
G1 X67.817 Y110.390 E0.03629
G1 X66.893 Y110.928 E0.03353
G1 X66.425 Y111.363 E0.02003
G1 X65.186 Y110.707 E0.04396
G1 X64.056 Y110.471 E0.03621
G1 X63.368 Y110.458 E0.02156
G1 X62.004 Y109.139 E0.05947
G1 X61.651 Y108.919 E0.01305
G1 X61.286 Y108.383 E0.02035
G1 X59.566 Y106.724 E0.07492
G1 X58.583 Y106.170 E0.03538
G1 X57.508 Y105.850 E0.03516
G1 X56.428 Y105.805 E0.03391
G1 X55.499 Y104.884 E0.04102
G1 X55.031 Y104.942 F9000.000
G1 F1200.000
G1 X56.266 Y106.177 E0.05476
G1 X57.424 Y106.219 E0.03634
G1 X58.455 Y106.525 E0.03370
G1 X59.358 Y107.040 E0.03260
G1 X61.009 Y108.639 E0.07207
G1 X61.385 Y109.199 E0.02114
G1 X61.758 Y109.426 E0.01370
G1 X63.214 Y110.833 E0.06348
G1 X63.997 Y110.844 E0.02455
G1 X65.082 Y111.071 E0.03476
G1 X66.488 Y111.825 E0.05002
G1 X67.103 Y111.242 E0.02656
G1 X67.990 Y110.726 E0.03218
G1 X68.970 Y110.410 E0.03231
G1 X70.031 Y110.328 E0.03336
G1 X70.310 Y110.343 E0.00877
G1 X74.969 Y110.333 E0.14607
G1 X76.344 Y108.985 E0.06039
G1 X78.147 Y108.099 E0.06296
G1 X78.965 Y107.995 E0.02585
G1 X83.896 Y107.995 E0.15462
G1 X84.083 Y107.756 E0.00953
G1 X84.791 Y107.172 E0.02877
G1 X85.514 Y106.812 E0.02531
G1 X86.065 Y106.486 E0.02009
G1 X87.265 Y106.174 E0.03886
G1 X88.122 Y106.160 E0.02688
G1 X88.478 Y105.551 E0.02211
G1 X89.428 Y104.640 E0.04128
G1 X91.014 Y103.914 E0.05469
G1 X91.737 Y103.821 E0.02286
G1 X96.883 Y103.821 E0.16135
G1 X96.886 Y101.914 E0.05977
G1 X96.827 Y101.337 E0.01820
G1 X96.925 Y100.473 E0.02725
G1 X97.250 Y99.651 E0.02774
G1 X97.408 Y99.251 F9000.000
G1 F1200.000
G1 X97.513 Y98.984 E0.00898
G1 X97.913 Y98.382 E0.02267
G1 X98.621 Y97.706 E0.03068
G1 X99.950 Y96.993 E0.04728
G1 X100.917 Y96.809 E0.03088
G1 X117.778 Y96.815 E0.52865
G1 X119.043 Y97.115 E0.04078
G1 X120.176 Y97.757 E0.04080
G1 X121.609 Y99.159 E0.06286
G1 X122.662 Y99.188 E0.03305
G1 X123.580 Y99.418 E0.02965
G1 X124.456 Y99.845 E0.03056
G1 X124.628 Y100.005 E0.00737
G1 X125.134 Y100.474 F9000.000
G1 F1200.000
G1 X126.226 Y101.488 E0.04672
G1 X130.329 Y101.527 E0.12864
G1 X131.488 Y101.852 E0.03774
G1 X132.513 Y102.459 E0.03736
G1 X133.663 Y103.650 E0.05189
G1 X133.772 Y103.828 E0.00653
G1 X136.886 Y103.820 E0.09765
G1 X138.428 Y104.203 E0.04980
G1 X139.582 Y104.923 E0.04265
G1 X140.486 Y105.844 E0.04048
G1 X140.943 Y106.522 E0.02564
G1 X141.548 Y106.913 E0.02257
G1 X142.559 Y107.912 E0.04455
G1 X143.265 Y109.095 E0.04320
G1 X143.394 Y109.510 E0.01364
G1 X144.222 Y110.332 E0.03656
G1 X149.427 Y110.332 E0.16320
G1 X150.245 Y110.436 E0.02585
G1 X152.047 Y111.322 E0.06297
G1 X153.421 Y112.669 E0.06033
G1 X156.470 Y112.669 E0.09559
G1 X158.071 Y113.111 E0.05207
G1 X159.138 Y113.815 E0.04007
G1 X160.341 Y115.018 E0.05334
G1 X161.915 Y115.042 E0.04937
G1 X163.012 Y115.316 E0.03547
G1 X163.251 Y114.915 E0.01463
G1 X164.122 Y114.056 E0.03835
G1 X165.544 Y113.336 E0.04999
G1 X166.495 Y113.169 E0.03026
G1 X169.895 Y113.169 E0.10661
G1 X170.182 Y112.687 E0.01760
G1 X171.013 Y111.814 E0.03780
G1 X172.048 Y111.217 E0.03745
G1 X172.609 Y110.230 E0.03559
G1 X173.536 Y109.334 E0.04045
G1 X174.389 Y108.921 E0.02969
G1 X174.973 Y108.639 F9000.000
G1 F1200.000
G1 X175.663 Y108.516 E0.02199
G1 X176.468 Y108.493 E0.02524
G1 X185.689 Y108.495 E0.28911
G1 X186.767 Y108.684 E0.03433
G1 X188.420 Y109.574 E0.05884
G1 X189.749 Y110.977 E0.06060
G1 X190.135 Y111.668 E0.02482
G1 X190.385 Y112.421 E0.02486
G1 X190.464 Y113.813 E0.04372
G1 X190.348 Y114.513 E0.02225
G1 X190.353 Y120.130 E0.17613
G1 X190.327 Y120.883 E0.02363
G1 X190.198 Y121.585 E0.02236
G1 X189.345 Y123.193 E0.05706
G1 X188.413 Y124.052 E0.03976
G1 X187.627 Y124.468 E0.02788
G1 X187.036 Y125.494 E0.03714
G1 X186.171 Y126.321 E0.03751
G1 X185.151 Y126.883 E0.03654
G1 X183.954 Y127.169 E0.03857
G1 X180.906 Y127.177 E0.09559
G1 X180.142 Y127.633 F9000.000
G1 F1200.000
G1 X179.982 Y127.878 E0.00917
G1 X179.259 Y128.581 E0.03162
G1 X178.537 Y129.044 E0.02689
G1 X178.303 Y129.140 E0.00794
G1 X178.245 Y129.281 E0.00479
G1 X177.797 Y130.020 E0.02709
G1 X176.869 Y130.960 E0.04142
G1 X175.945 Y131.473 E0.03314
G1 X175.351 Y132.505 E0.03734
G1 X174.564 Y133.274 E0.03451
G1 X173.564 Y133.855 E0.03625
G1 X172.180 Y134.190 E0.04464
G1 X168.780 Y134.189 E0.10662
G1 X168.208 Y135.009 E0.03136
G1 X167.200 Y135.835 E0.04087
G1 X166.018 Y136.347 E0.04038
G1 X165.001 Y136.537 E0.03245
G1 X164.519 Y136.517 E0.01510
G1 X163.354 Y136.524 E0.03653
G1 X163.082 Y136.664 E0.00957
G1 X161.918 Y136.992 E0.03794
G1 X151.353 Y137.028 E0.33124
G1 X150.120 Y136.770 E0.03950
G1 X148.971 Y136.167 E0.04069
G1 X147.722 Y134.972 E0.05419
G1 E-2.10000 F3600.000
;WIPE_START
G1 F7200.000
G1 X148.971 Y136.167 E-0.82098
G1 X149.034 Y136.200 E-0.03402
;WIPE_END
G1 E-0.04500 F3600.000
G1 X145.677 Y134.544 F9000.000
G1 E3.00000 F2400.000
G1 F1200.000
G1 X144.828 Y134.248 E0.02820
G1 X144.234 Y133.803 E0.02326
G1 X142.889 Y132.451 E0.05980
G1 X141.944 Y132.469 E0.02964
G1 X141.387 Y132.352 E0.01783
G1 X141.200 Y132.351 E0.00587
G1 X140.595 Y132.463 E0.01931
G1 X139.640 Y132.469 E0.02993
G1 X138.278 Y132.092 E0.04431
G1 X137.355 Y131.494 E0.03450
G1 X135.877 Y130.016 E0.06552
G1 X127.984 Y130.016 E0.24749
G1 X126.806 Y129.778 E0.03769
G1 X126.244 Y129.516 E0.01943
G1 X93.563 Y129.504 E1.02468
G1 X93.241 Y129.509 E0.01011
G1 X92.429 Y129.842 E0.02754
G1 X91.995 Y129.928 E0.01386
G1 X91.383 Y129.961 E0.01923
G1 X91.009 Y130.016 E0.01185
G1 X83.717 Y130.016 E0.22864
G1 X82.396 Y131.294 E0.05763
G1 X81.485 Y131.811 E0.03282
G1 X81.092 Y131.950 E0.01309
G1 X80.696 Y132.135 E0.01371
G1 X79.632 Y132.353 E0.03405
G1 X76.705 Y132.353 E0.09179
G1 X76.237 Y132.824 E0.02079
G1 X75.872 Y133.192 F9000.000
G1 F1200.000
G1 X75.729 Y133.336 E0.00637
G1 X75.350 Y133.608 E0.01462
G1 X74.820 Y134.087 E0.02240
G1 X73.403 Y134.721 E0.04868
G1 X72.760 Y134.805 E0.02032
G1 X71.893 Y134.805 E0.02720
G1 X71.354 Y134.690 E0.01728
G1 X65.113 Y134.685 E0.19567
G1 X64.375 Y134.806 E0.02345
G1 X62.389 Y134.753 E0.06231
G1 X61.439 Y134.454 E0.03120
G1 X60.607 Y133.947 E0.03057
G1 X58.270 Y131.638 E0.10300
G1 X57.894 Y131.519 E0.01237
G1 X56.741 Y130.848 E0.04184
G1 X55.659 Y129.783 E0.04762
G1 X55.446 Y129.498 E0.01114
G1 X54.205 Y129.454 E0.03895
G1 X53.082 Y129.101 E0.03689
G1 X52.199 Y128.568 E0.03235
G1 X50.955 Y127.360 E0.05435
G1 X50.545 Y126.781 E0.02224
G1 X50.450 Y126.572 E0.00720
G1 X49.778 Y126.170 E0.02457
G1 X48.605 Y125.010 E0.05171
G1 X48.478 Y124.833 E0.00684
G1 X47.199 Y124.772 E0.04013
G1 X46.177 Y124.454 E0.03358
G1 X45.282 Y123.927 E0.03256
G1 X43.926 Y122.615 E0.05915
G1 X43.568 Y122.066 E0.02056
G1 X43.030 Y121.717 E0.02009
G1 X41.859 Y120.561 E0.05159
G1 X40.895 Y118.652 E0.06707
G1 X40.790 Y117.830 E0.02598
G1 X40.852 Y107.498 E0.32397
G1 X41.267 Y106.282 E0.04030
G1 X41.951 Y105.304 E0.03740
G1 X42.936 Y104.475 E0.04037
G1 X44.144 Y103.951 E0.04130
G1 X44.996 Y103.821 E0.02699
G1 X52.364 Y103.821 E0.23102
G1 X53.612 Y104.098 E0.04008
G1 X54.513 Y104.627 E0.03278
G1 X54.437 Y105.017 F9000.000
G1 F1200.000
G1 X54.790 Y105.227 E0.01289
G1 X56.105 Y106.550 E0.05847
G1 X57.343 Y106.588 E0.03884
G1 X58.288 Y106.864 E0.03087
G1 X59.150 Y107.355 E0.03113
G1 X60.731 Y108.895 E0.06917
G1 X61.118 Y109.480 E0.02202
G1 X61.513 Y109.713 E0.01437
G1 X63.060 Y111.209 E0.06748
G1 X63.938 Y111.217 E0.02753
G1 X64.977 Y111.434 E0.03328
G1 X66.207 Y112.103 E0.04390
G1 X66.484 Y112.353 E0.01169
G1 X67.313 Y111.556 E0.03605
G1 X68.162 Y111.062 E0.03082
G1 X69.022 Y110.784 E0.02833
G1 X70.047 Y110.705 E0.03224
G1 X70.299 Y110.720 E0.00793
G1 X75.125 Y110.710 E0.15131
G1 X76.540 Y109.309 E0.06245
G1 X78.227 Y108.469 E0.05908
G1 X78.977 Y108.372 E0.02371
G1 X84.088 Y108.372 E0.16024
G1 X84.342 Y108.031 E0.01335
