; generated by PrusaSlicer 2.3.0 on 2022-12-31 at 20:23:10 UTC

; 

; external perimeters extrusion width = 0.45mm
; perimeters extrusion width = 0.45mm
; infill extrusion width = 0.45mm
; solid infill extrusion width = 0.45mm
; top infill extrusion width = 0.40mm
; support material extrusion width = 0.38mm
; first layer extrusion width = 0.42mm

M201 X500 Y500 Z100 E5000 ; sets maximum accelerations, mm/sec^2
M203 X500 Y500 Z10 E60 ; sets maximum feedrates, mm/sec
M204 P500 R1000 T500 ; sets acceleration (P, T) and retract acceleration (R), mm/sec^2
M205 X8.00 Y8.00 Z0.40 E5.00 ; sets the jerk limits, mm/sec
M205 S0 T0 ; sets the minimum extruding and travel feed rate, mm/sec
M107
;TYPE:Custom
G90 ; use absolute coordinates
M83 ; extruder relative mode
M104 S210 ; set extruder temp
M140 S70 ; set bed temp
M190 S70 ; wait for bed temp
M109 S210 ; wait for extruder temp
G28 ; home all
G1 Z2 F240
G1 X2 Y10 F3000
G1 Z0.28 F240
G92 E0
G1 Y190 E15 F1500 ; intro line
G1 X2.3 F5000
G92 E0
G1 Y10 E15 F1200 ; intro line
G92 E0
G21 ; set units to millimeters
G90 ; use absolute coordinates
M83 ; use relative distances for extrusion
; Filament gcode
;LAYER_CHANGE
;Z:0.2
;HEIGHT:0.2
;BEFORE_LAYER_CHANGE
G92 E0
;0.2


G1 E-3.00000 F3600.000
G1 Z0.200 F9000.000
;AFTER_LAYER_CHANGE
;0.2
G1 X44.031 Y108.621
G1 E3.00000 F2400.000
;TYPE:Skirt
;WIDTH:0.42
G1 F1200.000
G1 X44.696 Y108.363 E0.02237
G1 X115.630 Y101.303 E2.23508
G1 X129.378 Y101.125 E0.43110
G1 X186.129 Y110.770 E1.80491
G1 X186.823 Y111.145 E0.02473
G1 X187.670 Y111.971 E0.03710
G1 X188.033 Y112.514 E0.02048
G1 X188.235 Y113.135 E0.02048
G1 X188.101 Y120.396 E0.22769
G1 X187.975 Y121.083 E0.02190
G1 X187.759 Y121.548 E0.01609
G1 X187.444 Y121.958 E0.01621
G1 X182.718 Y126.686 E0.20959
G1 X182.322 Y127.000 E0.01585
G1 X166.923 Y134.639 E0.53898
G1 X166.163 Y134.863 E0.02484
G1 X70.162 Y135.049 E3.01005
G1 X69.392 Y134.917 E0.02449
G1 X60.711 Y131.761 E0.28961
G1 X44.523 Y122.493 E0.58486
G1 X43.347 Y121.373 E0.05094
G1 X43.066 Y120.920 E0.01669
G1 X42.894 Y120.421 E0.01657
G1 X42.837 Y119.911 E0.01609
G1 X42.863 Y110.334 E0.30028
G1 X43.073 Y109.652 E0.02237
G1 X43.475 Y109.063 E0.02237
G1 X43.984 Y108.659 E0.02037
G1 E-2.10000 F3600.000
;WIPE_START
G1 F7200.000
G1 X44.696 Y108.363 E-0.36618
G1 X45.720 Y108.261 E-0.48882
;WIPE_END
G1 E-0.04500 F3600.000
G1 X55.322 Y107.116 F9000.000
G1 E3.00000 F2400.000
G1 F1200.000
G1 X55.028 Y106.826 E0.01296
G1 X53.107 Y105.892 E0.06696
G1 X52.222 Y105.781 E0.02797
G1 X44.882 Y105.781 E0.23014
G1 X44.118 Y105.877 E0.02415
G1 X42.770 Y106.410 E0.04544
G1 X41.592 Y107.365 E0.04755
G1 X40.842 Y108.425 E0.04073
G1 X40.384 Y109.742 E0.04373
G1 X40.312 Y120.126 E0.32558
G1 X40.423 Y121.015 E0.02810
G1 X41.353 Y122.931 E0.06678
G1 X42.853 Y124.436 E0.06661
G1 X43.963 Y125.052 E0.03983
G1 X45.076 Y125.318 E0.03586
G1 X46.003 Y125.333 E0.02908
G1 X47.093 Y126.414 E0.04815
G1 X48.396 Y127.194 E0.04759
G1 X49.702 Y127.527 E0.04226
G1 X50.513 Y127.549 E0.02545
G1 X51.637 Y128.689 E0.05019
G1 X52.848 Y129.457 E0.04496
G1 X54.208 Y129.848 E0.04438
G1 X55.161 Y129.884 E0.02988
G1 X55.276 Y130.037 E0.00599
G1 X56.426 Y131.158 E0.05038
G1 X57.054 Y131.543 E0.02309
G1 X57.124 Y131.687 E0.00501
G1 X57.591 Y132.347 E0.02536
G1 X58.523 Y133.288 E0.04152
G1 X59.233 Y133.840 E0.02821
G1 X61.429 Y134.568 E0.07252
G1 X65.147 Y134.568 E0.11659
G1 X67.252 Y136.635 E0.09251
G1 X68.274 Y137.212 E0.03680
G1 X69.545 Y137.520 E0.04099
G1 X70.529 Y137.514 E0.03086
G1 X71.150 Y137.402 E0.01977
G1 X71.262 Y137.403 E0.00351
G1 X71.838 Y137.520 E0.01843
G1 X72.815 Y137.514 E0.03062
G1 X73.435 Y137.402 E0.01977
G1 X73.547 Y137.403 E0.00351
G1 X74.123 Y137.520 E0.01843
G1 X75.100 Y137.514 E0.03062
G1 X75.721 Y137.402 E0.01977
G1 X75.830 Y137.403 E0.00343
G1 X76.393 Y137.519 E0.01804
G1 X77.300 Y137.519 E0.02843
G1 X78.101 Y137.401 E0.02538
G1 X79.302 Y136.899 E0.04080
G1 X79.941 Y136.385 E0.02571
G1 X80.394 Y136.091 E0.01693
G1 X81.283 Y135.216 E0.03911
G1 E-2.10000 F3600.000
;WIPE_START
G1 F7200.000
G1 X80.394 Y136.091 E-0.59247
G1 X79.941 Y136.385 E-0.25655
G1 X79.931 Y136.393 E-0.00598
;WIPE_END
G1 E-0.04500 F3600.000
G1 X85.529 Y134.831 F9000.000
G1 E3.00000 F2400.000
G1 F1200.000
G1 X87.183 Y133.974 E0.05840
G1 X88.454 Y132.728 E0.05582
G1 X91.561 Y132.719 E0.09740
G1 X93.218 Y132.251 E0.05399
G1 X94.181 Y131.639 E0.03578
G1 X94.734 Y131.124 E0.02368
G1 X95.464 Y130.393 E0.03239
G1 X105.490 Y130.393 E0.31437
G1 X106.994 Y130.016 E0.04860
G1 X107.271 Y129.881 E0.00966
G1 X124.108 Y129.893 E0.52792
G1 X124.653 Y130.137 E0.01871
G1 X125.927 Y130.393 E0.04076
G1 X137.905 Y130.393 E0.37556
G1 X139.161 Y131.627 E0.05521
G1 X140.898 Y132.544 E0.06158
G1 X141.999 Y132.730 E0.03500
G1 X147.171 Y132.739 E0.16215
G1 X148.423 Y133.969 E0.05506
G1 X149.786 Y134.706 E0.04858
G1 E-2.10000 F3600.000
;WIPE_START
G1 F7200.000
G1 X148.423 Y133.969 E-0.73590
G1 X148.244 Y133.794 E-0.11910
;WIPE_END
G1 E-0.04500 F3600.000
G1 X153.534 Y135.076 F9000.000
G1 E3.00000 F2400.000
G1 F1200.000
G1 X154.068 Y135.183 E0.01706
G1 X154.871 Y135.169 E0.02520
G1 X156.104 Y136.362 E0.05378
G1 X158.021 Y137.293 E0.06683
G1 X158.908 Y137.405 E0.02803
G1 X166.461 Y137.376 E0.23681
G1 X167.732 Y137.044 E0.04118
G1 X168.858 Y136.399 E0.04070
G1 X170.748 Y134.562 E0.08266
G1 X172.240 Y134.552 E0.04677
G1 X173.463 Y134.261 E0.03942
G1 X174.548 Y133.678 E0.03861
G1 X175.587 Y132.683 E0.04512
G1 X175.863 Y132.224 E0.01678
G1 X176.876 Y132.192 E0.03180
G1 X178.507 Y131.635 E0.05404
G1 X179.599 Y130.793 E0.04322
G1 X180.311 Y129.882 E0.03625
G1 X181.814 Y129.852 E0.04716
G1 X182.842 Y129.569 E0.03343
G1 X183.612 Y129.202 E0.02675
G1 X184.895 Y128.058 E0.05389
G1 X185.441 Y127.123 E0.03394
G1 X185.572 Y127.066 E0.00450
G1 X186.360 Y126.569 E0.02920
G1 X187.330 Y125.596 E0.04308
G1 X187.808 Y124.740 E0.03075
G1 X188.681 Y124.250 E0.03138
G1 X189.587 Y123.367 E0.03965
G1 X190.359 Y121.976 E0.04989
G1 X190.586 Y121.042 E0.03014
G1 X190.629 Y120.145 E0.02814
G1 X190.624 Y114.544 E0.17562
G1 X190.740 Y113.811 E0.02327
G1 X190.642 Y112.296 E0.04762
G1 X190.276 Y111.298 E0.03330
G1 X189.675 Y110.400 E0.03391
G1 X188.476 Y109.221 E0.05273
G1 X187.058 Y108.421 E0.05102
G1 X185.627 Y108.118 E0.04587
G1 X176.364 Y108.116 E0.29044
G1 X175.538 Y108.139 E0.02590
G1 X174.812 Y108.258 E0.02307
G1 X174.204 Y108.552 E0.02118
G1 X173.620 Y108.835 F9000.000
G1 F1200.000
G1 X173.195 Y109.042 E0.01483
G1 X172.225 Y109.978 E0.04226
G1 X171.926 Y110.476 E0.01823
G1 X170.685 Y110.522 E0.03893
G1 X169.629 Y110.858 E0.03475
G1 X168.686 Y111.425 E0.03451
G1 X167.758 Y112.371 E0.04153
G1 X167.199 Y113.296 E0.03389
G1 X166.309 Y113.879 E0.03334
G1 X165.535 Y114.629 E0.03380
G1 X164.955 Y114.629 E0.01820
G1 X163.831 Y113.511 E0.04970
G1 X162.670 Y112.756 E0.04343
G1 X160.965 Y112.292 E0.05540
G1 X158.045 Y112.292 E0.09155
G1 X156.715 Y111.000 E0.05816
G1 X154.865 Y110.087 E0.06467
G1 X153.911 Y109.955 E0.03019
G1 X146.562 Y109.955 E0.23043
G1 X145.382 Y108.776 E0.05229
G1 X143.934 Y107.933 E0.05255
G1 X142.495 Y107.618 E0.04617
G1 X140.416 Y107.618 E0.06519
G1 X139.704 Y106.921 E0.03123
G1 X138.525 Y106.193 E0.04346
G1 X136.968 Y105.772 E0.05058
G1 X136.940 Y105.295 E0.01495
G1 X136.493 Y103.957 E0.04424
G1 X135.932 Y103.135 E0.03119
G1 X135.038 Y102.278 E0.03885
G1 X134.246 Y101.761 F9000.000
G1 F1200.000
G1 X133.993 Y101.616 E0.00914
G1 X133.484 Y100.717 E0.03239
G1 X132.334 Y99.565 E0.05104
G1 X131.227 Y98.943 E0.03982
G1 X130.006 Y98.659 E0.03931
G1 X129.036 Y98.659 E0.03041
G1 X128.374 Y98.773 E0.02105
G1 X116.984 Y98.782 E0.35714
G1 X116.751 Y98.768 E0.00731
G1 X114.519 Y98.892 E0.07009
G1 X113.768 Y99.165 E0.02506
G1 X113.164 Y99.529 E0.02212
G1 X112.591 Y99.818 E0.02011
G1 X111.727 Y100.528 E0.03507
G1 X111.296 Y101.108 E0.02265
G1 X108.176 Y101.110 E0.09782
G1 X106.939 Y101.327 E0.03939
G1 X105.825 Y101.798 E0.03791
G1 X105.398 Y102.132 E0.01701
G1 X104.842 Y102.566 F9000.000
G1 F1200.000
G1 X104.695 Y102.681 E0.00585
G1 X104.163 Y103.445 E0.02920
G1 X101.602 Y103.442 E0.08029
G1 X100.732 Y103.465 E0.02730
G1 X99.643 Y103.712 E0.03499
G1 X98.313 Y104.439 E0.04753
G1 X97.418 Y105.329 E0.03958
G1 X97.146 Y105.783 E0.01659
G1 X96.282 Y105.796 E0.02711
G1 X95.427 Y105.968 E0.02736
G1 X95.015 Y106.113 E0.01368
G1 X93.585 Y107.042 E0.05346
G1 X93.083 Y107.618 E0.02396
G1 X90.641 Y107.618 E0.07655
G1 X89.282 Y107.931 E0.04375
G1 X89.097 Y108.025 E0.00651
G1 X88.650 Y108.179 E0.01482
G1 X87.687 Y108.725 E0.03470
G1 X86.407 Y109.955 E0.05566
G1 X79.295 Y109.955 E0.22300
G1 X78.928 Y110.002 E0.01159
G1 X78.120 Y110.054 E0.02538
G1 X77.173 Y110.341 E0.03102
G1 X76.171 Y110.897 E0.03595
G1 X74.718 Y112.295 E0.06321
G1 X72.565 Y112.302 E0.06750
G1 X72.311 Y112.287 E0.00799
G1 X71.432 Y112.331 E0.02760
G1 X70.434 Y112.568 E0.03216
G1 X69.738 Y112.923 E0.02448
G1 X68.673 Y112.687 E0.03420
G1 X67.656 Y112.680 E0.03190
G1 X66.981 Y112.795 E0.02146
G1 X65.592 Y112.793 E0.04357
G1 X63.738 Y111.126 E0.07818
G1 X62.840 Y110.721 E0.03089
G1 X61.926 Y110.499 E0.02949
G1 X60.987 Y110.471 E0.02946
G1 X59.533 Y109.078 E0.06312
G1 X58.484 Y108.487 E0.03776
G1 X57.410 Y108.178 E0.03505
G1 X56.359 Y108.137 E0.03296
G1 X55.672 Y107.460 E0.03025
G1 X55.192 Y107.508 F9000.000
G1 F1200.000
G1 X56.198 Y108.510 E0.04452
G1 X57.328 Y108.546 E0.03545
G1 X58.358 Y108.843 E0.03359
G1 X59.326 Y109.394 E0.03492
G1 X60.831 Y110.844 E0.06554
G1 X61.857 Y110.871 E0.03219
G1 X62.734 Y111.083 E0.02828
G1 X63.555 Y111.457 E0.02828
G1 X65.446 Y113.170 E0.08002
G1 X67.014 Y113.172 E0.04917
G1 X67.671 Y113.058 E0.02090
G1 X68.650 Y113.064 E0.03071
G1 X69.570 Y113.272 E0.02957
G1 X69.745 Y113.345 E0.00594
G1 X70.545 Y112.929 E0.02828
G1 X71.469 Y112.707 E0.02977
G1 X72.319 Y112.665 E0.02669
G1 X72.554 Y112.680 E0.00738
G1 X74.872 Y112.671 E0.07269
G1 X76.376 Y111.215 E0.06565
G1 X77.339 Y110.680 E0.03454
G1 X78.166 Y110.429 E0.02711
G1 X78.965 Y110.378 E0.02512
G1 X79.308 Y110.332 E0.01082
G1 X86.560 Y110.332 E0.22739
G1 X87.894 Y109.041 E0.05821
G1 X88.819 Y108.517 E0.03335
G1 X89.243 Y108.374 E0.01401
G1 X89.433 Y108.277 E0.00668
G1 X90.663 Y107.995 E0.03957
G1 X93.258 Y107.995 E0.08138
G1 X93.815 Y107.342 E0.02691
G1 X95.163 Y106.460 E0.05051
G1 X95.515 Y106.335 E0.01170
G1 X96.339 Y106.169 E0.02635
G1 X97.367 Y106.159 E0.03224
G1 X97.702 Y105.578 E0.02103
G1 X98.559 Y104.726 E0.03789
G1 X99.799 Y104.057 E0.04417
G1 X100.760 Y103.842 E0.03088
G1 X101.604 Y103.819 E0.02649
G1 X104.363 Y103.822 E0.08650
G1 X104.952 Y102.958 E0.03279
G1 X105.537 Y102.497 E0.02335
G1 X106.190 Y102.053 F9000.000
G1 F1200.000
G1 X107.065 Y101.683 E0.02979
G1 X108.224 Y101.485 E0.03685
G1 X111.489 Y101.485 E0.10237
G1 X111.986 Y100.804 E0.02644
G1 X112.813 Y100.123 E0.03359
G1 X113.344 Y99.861 E0.01857
G1 X113.946 Y99.498 E0.02204
G1 X114.620 Y99.256 E0.02243
G1 X116.759 Y99.145 E0.06716
G1 X116.971 Y99.159 E0.00668
G1 X128.408 Y99.150 E0.35859
G1 X129.053 Y99.036 E0.02053
G1 X129.983 Y99.036 E0.02918
G1 X131.114 Y99.304 E0.03642
G1 X132.085 Y99.850 E0.03495
G1 X133.198 Y100.965 E0.04939
G1 X133.578 Y101.647 E0.02450
G1 X134.122 Y102.122 F9000.000
G1 F1200.000
G1 X134.627 Y102.407 E0.01816
G1 X135.634 Y103.367 E0.04362
G1 X136.144 Y104.103 E0.02808
G1 X136.573 Y105.388 E0.04247
G1 X136.602 Y106.160 E0.02422
G1 X137.014 Y106.175 E0.01292
G1 X138.351 Y106.528 E0.04337
G1 X139.488 Y107.230 E0.04188
G1 X140.261 Y107.995 E0.03409
G1 X142.474 Y107.995 E0.06942
G1 X143.822 Y108.295 E0.04329
G1 X145.169 Y109.088 E0.04903
G1 X146.405 Y110.332 E0.05496
G1 X153.898 Y110.332 E0.23494
G1 X154.782 Y110.456 E0.02798
G1 X156.519 Y111.324 E0.06088
G1 X157.891 Y112.669 E0.06024
G1 X160.939 Y112.669 E0.09559
G1 X162.540 Y113.111 E0.05207
G1 X163.607 Y113.815 E0.04007
G1 X164.799 Y115.006 E0.05283
G1 X165.689 Y115.006 E0.02793
G1 X166.532 Y114.184 E0.03691
G1 X167.478 Y113.563 E0.03548
G1 X168.045 Y112.617 E0.03457
G1 X168.902 Y111.736 E0.03855
G1 X169.804 Y111.193 E0.03301
G1 X170.772 Y110.889 E0.03182
G1 X172.148 Y110.848 E0.04315
G1 X172.507 Y110.230 E0.02240
G1 X173.435 Y109.334 E0.04046
G1 X174.246 Y108.942 E0.02824
G1 X174.831 Y108.659 F9000.000
G1 F1200.000
G1 X174.901 Y108.625 E0.00242
G1 X175.562 Y108.516 E0.02102
G1 X176.367 Y108.493 E0.02524
G1 X185.608 Y108.495 E0.28975
G1 X186.899 Y108.764 E0.04134
G1 X188.268 Y109.536 E0.04929
G1 X189.396 Y110.654 E0.04978
G1 X189.930 Y111.450 E0.03004
G1 X190.278 Y112.399 E0.03171
G1 X190.363 Y113.812 E0.04437
G1 X190.247 Y114.513 E0.02228
G1 X190.252 Y120.133 E0.17623
G1 X190.215 Y120.973 E0.02636
G1 X190.015 Y121.818 E0.02721
G1 X189.303 Y123.117 E0.04646
G1 X188.436 Y123.962 E0.03795
G1 X187.530 Y124.462 E0.03247
G1 X187.044 Y125.349 E0.03171
G1 X186.108 Y126.287 E0.04153
G1 X185.390 Y126.735 E0.02657
G1 X185.179 Y126.820 E0.00711
G1 X184.619 Y127.799 E0.03536
G1 X183.424 Y128.875 E0.05042
G1 X182.726 Y129.210 E0.02430
G1 X181.738 Y129.482 E0.03212
G1 X180.123 Y129.507 E0.05064
G1 X179.347 Y130.511 E0.03980
G1 X178.355 Y131.289 E0.03951
G1 X176.783 Y131.825 E0.05208
G1 X175.641 Y131.851 E0.03582
G1 X175.306 Y132.430 E0.02097
G1 X174.306 Y133.387 E0.04340
G1 X173.308 Y133.917 E0.03542
G1 X172.216 Y134.175 E0.03518
G1 X170.594 Y134.186 E0.05088
G1 X168.649 Y136.084 E0.08519
G1 X167.567 Y136.704 E0.03913
G1 X166.391 Y137.005 E0.03806
G1 X158.920 Y137.028 E0.23425
G1 X158.101 Y136.923 E0.02589
G1 X156.298 Y136.037 E0.06297
G1 X155.312 Y135.072 E0.04325
G1 X153.572 Y134.699 F9000.000
G1 F1200.000
G1 X151.286 Y134.690 E0.07170
G1 X150.171 Y134.485 E0.03554
G1 X148.627 Y133.651 E0.05503
G1 X147.326 Y132.362 E0.05740
G1 X142.016 Y132.353 E0.16652
G1 X140.993 Y132.177 E0.03255
G1 X139.364 Y131.308 E0.05790
G1 X138.061 Y130.016 E0.05753
G1 X125.946 Y130.016 E0.37984
G1 X124.750 Y129.772 E0.03828
G1 X124.191 Y129.516 E0.01928
G1 X107.179 Y129.504 E0.53341
G1 X106.878 Y129.657 E0.01056
G1 X105.466 Y130.016 E0.04569
G1 X95.307 Y130.016 E0.31852
G1 X94.469 Y130.856 E0.03719
G1 X93.937 Y131.351 E0.02280
G1 X93.040 Y131.917 E0.03326
G1 X91.534 Y132.342 E0.04906
G1 X88.298 Y132.351 E0.10146
G1 X86.983 Y133.654 E0.05805
G1 X85.312 Y134.529 E0.05915
G1 X84.322 Y134.690 E0.03142
G1 X81.280 Y134.690 E0.09541
G1 X81.128 Y134.839 E0.00667
G1 X80.744 Y135.217 F9000.000
G1 F1200.000
G1 X80.144 Y135.808 E0.02641
G1 X79.721 Y136.078 E0.01573
G1 X79.086 Y136.588 E0.02553
G1 X78.022 Y137.031 E0.03615
G1 X77.286 Y137.142 E0.02334
G1 X76.414 Y137.142 E0.02734
G1 X75.871 Y137.026 E0.01740
G1 X75.686 Y137.025 E0.00580
G1 X75.081 Y137.138 E0.01931
G1 X74.142 Y137.143 E0.02943
G1 X73.588 Y137.026 E0.01776
G1 X73.401 Y137.025 E0.00587
G1 X72.795 Y137.138 E0.01931
G1 X71.857 Y137.143 E0.02943
G1 X71.302 Y137.026 E0.01776
G1 X71.115 Y137.025 E0.00587
G1 X70.510 Y137.138 E0.01931
G1 X69.567 Y137.143 E0.02957
G1 X68.391 Y136.852 E0.03796
G1 X67.461 Y136.321 E0.03359
G1 X65.302 Y134.190 E0.09509
G1 X61.459 Y134.190 E0.12050
G1 X59.439 Y133.523 E0.06672
G1 X58.782 Y133.014 E0.02604
G1 X57.871 Y132.093 E0.04062
G1 X57.444 Y131.487 E0.02324
G1 X57.351 Y131.282 E0.00707
G1 X56.674 Y130.873 E0.02482
G1 X55.553 Y129.780 E0.04907
G1 X55.362 Y129.513 E0.01030
G1 X54.287 Y129.478 E0.03371
G1 X53.025 Y129.124 E0.04111
G1 X51.890 Y128.408 E0.04206
G1 X50.823 Y127.326 E0.04768
G1 X50.714 Y127.175 E0.00580
G1 X49.774 Y127.156 E0.02950
G1 X48.517 Y126.835 E0.04067
G1 X47.309 Y126.104 E0.04427
G1 X46.161 Y124.957 E0.05087
G1 X45.142 Y124.946 E0.03193
G1 X44.077 Y124.691 E0.03435
G1 X43.061 Y124.121 E0.03655
G1 X41.643 Y122.689 E0.06319
G1 X40.794 Y120.937 E0.06104
G1 X40.689 Y120.115 E0.02596
G1 X40.750 Y109.835 E0.32235
G1 X41.166 Y108.619 E0.04030
G1 X41.852 Y107.639 E0.03748
G1 X42.938 Y106.749 E0.04404
G1 X44.190 Y106.248 E0.04229
G1 X44.894 Y106.158 E0.02226
G1 X52.210 Y106.158 E0.22938
G1 X53.028 Y106.262 E0.02585
G1 X54.846 Y107.163 E0.06363
G1 X54.718 Y107.555 F9000.000
G1 F1200.000
G1 X56.037 Y108.883 E0.05869
G1 X57.247 Y108.916 E0.03796
G1 X58.231 Y109.199 E0.03209
G1 X59.117 Y109.708 E0.03205
G1 X60.675 Y111.218 E0.06802
G1 X61.789 Y111.242 E0.03494
G1 X62.627 Y111.445 E0.02704
