; generated by PrusaSlicer 2.3.0 on 2023-04-15 at 01:53:19 UTC

; 

; external perimeters extrusion width = 0.45mm
; perimeters extrusion width = 0.45mm
; infill extrusion width = 0.45mm
; solid infill extrusion width = 0.45mm
; top infill extrusion width = 0.40mm
; support material extrusion width = 0.38mm
; first layer extrusion width = 0.42mm

M201 X500 Y500 Z100 E5000 ; sets maximum accelerations, mm/sec^2
M203 X500 Y500 Z10 E60 ; sets maximum feedrates, mm/sec
M204 P500 R1000 T500 ; sets acceleration (P, T) and retract acceleration (R), mm/sec^2
M205 X8.00 Y8.00 Z0.40 E5.00 ; sets the jerk limits, mm/sec
M205 S0 T0 ; sets the minimum extruding and travel feed rate, mm/sec
M107
;TYPE:Custom
G90 ; use absolute coordinates
M83 ; extruder relative mode
M104 S210 ; set extruder temp
M140 S60 ; set bed temp
M190 S60 ; wait for bed temp
M109 S210 ; wait for extruder temp
G28 ; home all
G1 Z2 F240
G1 X2 Y10 F3000
G1 Z0.28 F240
G92 E0
G1 Y190 E15 F1500 ; intro line
G1 X2.3 F5000
G92 E0
G1 Y10 E15 F1200 ; intro line
G92 E0
G21 ; set units to millimeters
G90 ; use absolute coordinates
M83 ; use relative distances for extrusion
; Filament gcode
;LAYER_CHANGE
;Z:0.2
;HEIGHT:0.2
;BEFORE_LAYER_CHANGE
G92 E0
;0.2


G1 E-5.00000 F3600.000
G1 Z0.200 F9000.000
;AFTER_LAYER_CHANGE
;0.2
G1 X99.232 Y107.947
G1 E5.00000 F2400.000
;TYPE:Skirt
;WIDTH:0.42
G1 F1200.000
G1 X104.298 Y105.375 E0.17816
G1 X104.900 Y105.162 E0.02001
G1 X105.501 Y105.093 E0.01899
G1 X123.157 Y105.093 E0.55357
G1 X123.759 Y105.160 E0.01899
G1 X124.331 Y105.356 E0.01899
G1 X129.114 Y107.747 E0.16764
G1 X129.743 Y108.202 E0.02434
G1 X130.329 Y109.025 E0.03170
G1 X132.477 Y114.091 E0.17251
G1 X132.586 Y114.843 E0.02383
G1 X132.586 Y135.039 E0.63323
G1 X132.493 Y135.720 E0.02154
G1 X132.235 Y136.356 E0.02154
G1 X131.824 Y136.912 E0.02167
G1 X128.348 Y140.433 E0.15512
G1 X127.684 Y140.873 E0.02498
G1 X126.925 Y141.103 E0.02485
G1 X104.450 Y141.132 E0.70470
G1 X103.774 Y141.038 E0.02141
G1 X103.141 Y140.781 E0.02141
G1 X102.518 Y140.304 E0.02460
G1 X99.098 Y136.650 E0.15693
G1 X98.716 Y136.084 E0.02141
G1 X98.486 Y135.441 E0.02141
G1 X96.166 Y121.212 E0.45203
G1 X96.159 Y112.427 E0.27545
G1 X96.259 Y111.780 E0.02052
G1 X96.508 Y111.175 E0.02052
G1 X98.733 Y108.407 E0.11134
G1 X99.187 Y107.987 E0.01940
G1 X99.442 Y108.263 F9000.000
G1 F1200.000
G1 X104.462 Y105.714 E0.17653
G1 X104.993 Y105.527 E0.01763
G1 X105.503 Y105.470 E0.01609
G1 X123.157 Y105.470 E0.55353
G1 X123.678 Y105.528 E0.01645
G1 X124.178 Y105.700 E0.01657
G1 X128.935 Y108.079 E0.16676
G1 X129.491 Y108.482 E0.02154
G1 X129.991 Y109.191 E0.02720
G1 X132.118 Y114.206 E0.17080
G1 X132.209 Y114.849 E0.02036
G1 X132.209 Y135.033 E0.63286
G1 X132.127 Y135.628 E0.01882
G1 X131.899 Y136.183 E0.01882
G1 X131.548 Y136.655 E0.01846
G1 X128.105 Y140.144 E0.15367
G1 X127.527 Y140.529 E0.02178
G1 X126.863 Y140.732 E0.02178
G1 X104.457 Y140.755 E0.70253
G1 X103.866 Y140.673 E0.01870
G1 X103.314 Y140.446 E0.01870
G1 X102.783 Y140.035 E0.02107
G1 X99.385 Y136.406 E0.15586
G1 X99.053 Y135.915 E0.01858
G1 X98.853 Y135.357 E0.01858
G1 X96.542 Y121.186 E0.45021
G1 X96.535 Y112.449 E0.27394
G1 X96.623 Y111.878 E0.01811
G1 X96.844 Y111.348 E0.01799
G1 X99.020 Y108.652 E0.10865
G1 X99.398 Y108.303 E0.01611
G1 E-3.50000 F3600.000
;WIPE_START
G1 F7200.000
G1 X102.069 Y106.938 E-1.42500
;WIPE_END
G1 E-0.07500 F3600.000
G1 X98.911 Y120.988 F9000.000
G1 E5.00000 F2400.000
;TYPE:Support material
G1 F1200.000
G1 X98.911 Y112.521 E0.26546
G1 X99.665 Y112.521 E0.02365
G1 X99.665 Y120.818 E0.26014
G1 X100.419 Y120.818 E0.02365
G1 X100.419 Y112.521 E0.26014
G1 X100.837 Y112.521 E0.01310
G1 X100.837 Y110.184 E0.07328
G1 X101.174 Y110.184 E0.01054
G1 X101.174 Y134.841 E0.77309
G1 X101.928 Y134.841 E0.02365
G1 X101.928 Y110.184 E0.77309
G1 X102.682 Y110.184 E0.02365
G1 X102.682 Y134.841 E0.77309
G1 X103.436 Y134.841 E0.02365
G1 X103.436 Y110.184 E0.77309
G1 X104.190 Y110.184 E0.02365
G1 X104.190 Y124.492 E0.44862
G1 X104.944 Y124.492 E0.02365
G1 X104.944 Y110.184 E0.44862
G1 X105.511 Y110.184 E0.01778
G1 X105.511 Y107.847 E0.07328
G1 X105.699 Y107.847 E0.00587
G1 X105.699 Y124.492 E0.52190
G1 X106.453 Y124.492 E0.02365
G1 X106.453 Y107.847 E0.52190
G1 X107.207 Y107.847 E0.02365
G1 X107.207 Y124.492 E0.52190
G1 X107.961 Y124.492 E0.02365
G1 X107.961 Y107.847 E0.52190
G1 X108.715 Y107.847 E0.02365
G1 X108.715 Y122.155 E0.44862
G1 X109.469 Y122.155 E0.02365
G1 X109.469 Y107.847 E0.44862
G1 X110.224 Y107.847 E0.02365
G1 X110.224 Y122.155 E0.44862
G1 X110.978 Y122.155 E0.02365
G1 X110.978 Y107.847 E0.44862
G1 X111.732 Y107.847 E0.02365
G1 X111.732 Y122.155 E0.44862
G1 X112.486 Y122.155 E0.02365
G1 X112.486 Y107.847 E0.44862
G1 X113.240 Y107.847 E0.02365
G1 X113.240 Y122.155 E0.44862
G1 X113.994 Y122.155 E0.02365
G1 X113.994 Y107.847 E0.44862
G1 X114.749 Y107.847 E0.02365
G1 X114.748 Y122.155 E0.44862
G1 X115.503 Y122.155 E0.02365
G1 X115.503 Y107.847 E0.44862
G1 X116.257 Y107.847 E0.02365
G1 X116.257 Y122.155 E0.44862
G1 X117.011 Y122.155 E0.02365
G1 X117.011 Y107.847 E0.44862
G1 X117.765 Y107.847 E0.02365
G1 X117.765 Y122.155 E0.44862
G1 X118.519 Y122.155 E0.02365
G1 X118.519 Y107.847 E0.44862
G1 X119.273 Y107.847 E0.02365
G1 X119.273 Y122.155 E0.44862
G1 X120.028 Y122.155 E0.02365
G1 X120.028 Y107.847 E0.44862
G1 X120.782 Y107.847 E0.02365
G1 X120.782 Y122.155 E0.44862
G1 X121.536 Y122.155 E0.02365
G1 X121.536 Y107.847 E0.44862
G1 X122.290 Y107.847 E0.02365
G1 X122.290 Y122.155 E0.44862
G1 X122.871 Y122.155 E0.01821
G1 X122.871 Y124.492 E0.07328
G1 X123.044 Y124.492 E0.00543
G1 X123.044 Y107.847 E0.52190
G1 X123.157 Y107.847 E0.00353
G1 X123.157 Y110.184 E0.07328
G1 X123.798 Y110.184 E0.02012
G1 X123.798 Y124.492 E0.44862
G1 X124.553 Y124.492 E0.02365
G1 X124.553 Y110.184 E0.44862
G1 X125.307 Y110.184 E0.02365
G1 X125.307 Y124.492 E0.44862
G1 X126.061 Y124.492 E0.02365
G1 X126.061 Y110.184 E0.44862
G1 X126.815 Y110.184 E0.02365
G1 X126.815 Y124.492 E0.44862
G1 X127.545 Y124.492 E0.02289
G1 X127.545 Y132.218 E0.24223
G1 X126.972 Y132.218 E0.01799
G1 X126.970 Y134.841 E0.08223
G1 X127.569 Y134.841 E0.01878
G1 X127.569 Y110.184 E0.77309
G1 X127.831 Y110.184 E0.00820
G1 X127.831 Y114.858 E0.14655
G1 X128.323 Y114.858 E0.01544
G1 X128.323 Y134.841 E0.62653
G1 X129.078 Y134.841 E0.02365
G1 X129.078 Y114.858 E0.62653
G1 X129.832 Y114.858 E0.02365
G1 X129.832 Y135.010 E0.63185
G1 E-3.50000 F3600.000
;WIPE_START
G1 F7200.000
G1 X129.832 Y132.010 E-1.42500
;WIPE_END
G1 E-0.07500 F3600.000
G1 X107.207 Y127.662 F9000.000
G1 E5.00000 F2400.000
G1 F1200.000
G1 X107.207 Y127.459 E0.00636
G1 X107.876 Y127.027 E0.02496
G1 X108.715 Y126.613 E0.02935
G1 X108.715 Y126.577 E0.00114
G1 X109.149 Y126.357 E0.01524
G1 X109.469 Y126.214 E0.01101
G1 X109.469 Y126.253 E0.00123
G1 X110.224 Y125.965 E0.02531
G1 X110.224 Y125.912 E0.00167
G1 X110.978 Y125.643 E0.02511
G1 X110.978 Y125.876 E0.00733
G1 X111.732 Y124.846 F9000.000
G1 F1200.000
G1 X111.732 Y125.155 E0.00968
G1 X112.486 Y125.155 E0.02365
G1 X112.486 Y124.832 E0.01012
G1 X113.240 Y124.712 E0.02395
G1 X113.240 Y125.155 E0.01390
G1 X113.513 Y125.155 E0.00856
G1 X113.994 Y125.090 E0.01523
G1 X113.994 Y124.610 E0.01505
G1 X114.748 Y124.558 E0.02370
G1 X114.748 Y125.048 E0.01536
G1 X115.503 Y125.014 E0.02367
G1 X115.503 Y124.535 E0.01502
G1 X116.153 Y124.543 E0.02039
G1 X116.257 Y124.552 E0.00327
G1 X116.257 Y125.048 E0.01555
G1 X117.011 Y125.089 E0.02368
G1 X117.011 Y124.616 E0.01482
G1 X117.491 Y124.658 E0.01511
G1 X117.765 Y124.706 E0.00873
G1 X117.765 Y125.155 E0.01408
G1 X118.519 Y125.155 E0.02365
G1 X118.519 Y124.841 E0.00984
G1 X118.838 Y124.899 E0.01015
G1 X119.273 Y125.020 E0.01418
G1 X119.273 Y125.325 E0.00957
G1 X120.028 Y125.053 F9000.000
G1 F1200.000
G1 X120.028 Y125.879 E0.02592
G1 X120.782 Y125.739 F9000.000
G1 F1200.000
G1 X120.782 Y125.970 E0.00724
G1 X121.536 Y126.259 E0.02532
G1 X121.536 Y126.216 E0.00135
G1 X122.290 Y126.585 E0.02633
G1 X122.290 Y126.618 E0.00106
G1 X123.044 Y126.990 E0.02636
G1 X123.798 Y127.464 E0.02793
G1 X123.798 Y127.662 E0.00620
G1 E-3.50000 F3600.000
;WIPE_START
G1 F7200.000
G1 X123.798 Y127.464 E-0.09398
G1 X123.044 Y126.990 E-0.42317
G1 X122.290 Y126.618 E-0.39930
G1 X122.290 Y126.585 E-0.01608
G1 X121.536 Y126.216 E-0.39883
G1 X121.536 Y126.259 E-0.02045
G1 X121.392 Y126.204 E-0.07319
;WIPE_END
G1 E-0.07500 F3600.000
G1 X126.781 Y129.768 F9000.000
G1 E5.00000 F2400.000
;TYPE:Support material interface
;WIDTH:0.38
G1 F1200.000
G1 X126.781 Y124.849 E0.13784
G1 X126.244 Y124.849 E0.01505
G1 X126.244 Y128.998 E0.11627
G1 X125.707 Y128.481 E0.02090
G1 X125.707 Y124.849 E0.10178
G1 X125.170 Y124.849 E0.01505
G1 X125.170 Y128.034 E0.08926
G1 X124.633 Y127.606 E0.01925
G1 X124.633 Y124.849 E0.07726
G1 X124.096 Y124.849 E0.01505
G1 X124.096 Y127.231 E0.06676
G1 X123.559 Y126.884 E0.01792
G1 X123.559 Y124.849 E0.05702
G1 X123.022 Y124.849 E0.01505
G1 X123.022 Y126.562 E0.04801
G1 X122.485 Y126.283 E0.01697
G1 X122.485 Y122.512 E0.10568
G1 X121.948 Y122.512 E0.01505
G1 X121.948 Y126.017 E0.09822
G1 X121.411 Y125.779 E0.01646
G1 X121.411 Y122.512 E0.09156
G1 X120.873 Y122.512 E0.01505
G1 X120.873 Y125.574 E0.08581
G1 X120.372 Y125.384 E0.01501
G1 X120.511 Y125.018 E0.01097
G1 X120.336 Y124.952 E0.00523
G1 X120.336 Y122.512 E0.06839
G1 X119.799 Y122.512 E0.01505
G1 X119.799 Y124.795 E0.06397
G1 X119.262 Y124.646 E0.01562
G1 X119.262 Y122.512 E0.05980
G1 X118.725 Y122.512 E0.01505
G1 X118.725 Y124.516 E0.05614
G1 X118.188 Y124.419 E0.01529
G1 X118.188 Y122.512 E0.05344
G1 X117.651 Y122.512 E0.01505
G1 X117.651 Y124.323 E0.05074
G1 X117.114 Y124.267 E0.01514
G1 X117.114 Y122.512 E0.04917
G1 X116.577 Y122.512 E0.01505
G1 X116.577 Y124.221 E0.04788
G1 X116.040 Y124.184 E0.01509
G1 X116.040 Y122.512 E0.04685
G1 X115.503 Y122.512 E0.01505
G1 X115.503 Y124.178 E0.04668
G1 X114.966 Y124.185 E0.01505
G1 X114.966 Y122.512 E0.04689
G1 X114.428 Y122.512 E0.01505
G1 X114.428 Y124.222 E0.04792
G1 X113.891 Y124.259 E0.01509
G1 X113.891 Y122.512 E0.04895
G1 X113.354 Y122.512 E0.01505
G1 X113.354 Y124.332 E0.05100
G1 X112.817 Y124.418 E0.01524
G1 X112.817 Y122.512 E0.05341
G1 X112.280 Y122.512 E0.01505
G1 X112.280 Y124.514 E0.05609
G1 X111.743 Y124.650 E0.01553
G1 X111.743 Y122.512 E0.05992
G1 X111.206 Y122.512 E0.01505
G1 X111.206 Y124.787 E0.06375
G1 X110.698 Y124.950 E0.01497
G1 X110.828 Y125.317 E0.01090
G1 X110.669 Y125.371 E0.00470
G1 X110.669 Y122.512 E0.08013
G1 X110.132 Y122.512 E0.01505
G1 X110.132 Y125.727 E0.09010
G1 X109.595 Y125.933 F9000.000
G1 F1200.000
G1 X109.595 Y122.512 E0.09588
G1 X109.058 Y122.512 E0.01505
G1 X109.058 Y126.007 E0.09794
G1 X108.521 Y126.275 E0.01683
G1 X108.521 Y122.512 E0.10547
G1 X108.491 Y122.512 E0.00082
G1 X108.491 Y124.849 E0.06550
G1 X107.984 Y124.849 E0.01423
G1 X107.984 Y126.559 E0.04792
G1 X107.446 Y126.879 E0.01753
G1 X107.446 Y124.849 E0.05689
G1 X106.909 Y124.849 E0.01505
G1 X106.909 Y127.227 E0.06664
G1 X106.372 Y127.601 E0.01835
G1 X106.372 Y124.849 E0.07713
G1 X105.835 Y124.849 E0.01505
G1 X105.835 Y128.026 E0.08903
G1 X105.298 Y128.473 E0.01958
G1 X105.298 Y124.849 E0.10156
G1 X104.761 Y124.849 E0.01505
G1 X104.761 Y128.986 E0.11594
G1 X104.224 Y129.538 E0.02159
G1 X104.224 Y124.698 E0.13567
G1 E-3.50000 F3600.000
;WIPE_START
G1 F7200.000
G1 X104.224 Y127.698 E-1.42500
;WIPE_END
G1 E-0.07500 F3600.000
G1 X105.174 Y130.638 F9000.000
G1 E5.00000 F2400.000
;TYPE:Perimeter
;WIDTH:0.42
G1 F1200.000
G1 X105.994 Y129.818 E0.03639
G1 X107.206 Y128.837 E0.04887
G1 X108.385 Y128.073 E0.04406
G1 X109.838 Y127.339 E0.05102
G1 X111.183 Y126.832 E0.04509
G1 X112.575 Y126.463 E0.04514
G1 X113.995 Y126.239 E0.04509
G1 X115.623 Y126.162 E0.05108
G1 X117.058 Y126.245 E0.04508
G1 X118.478 Y126.475 E0.04511
G1 X119.869 Y126.848 E0.04513
G1 X121.214 Y127.362 E0.04516
G1 X122.499 Y128.009 E0.04511
G1 X123.864 Y128.892 E0.05097
G1 X124.982 Y129.798 E0.04510
G1 X125.826 Y130.641 E0.03742
G1 X125.824 Y137.693 E0.22110
G1 X105.174 Y137.691 E0.64746
G1 X105.174 Y130.698 E0.21925
G1 X104.796 Y130.482 F9000.000
;TYPE:External perimeter
G1 F1200.000
G1 X105.742 Y129.537 E0.04191
G1 X106.984 Y128.531 E0.05012
G1 X108.197 Y127.746 E0.04532
G1 X109.686 Y126.994 E0.05228
G1 X111.068 Y126.472 E0.04633
G1 X112.497 Y126.094 E0.04634
G1 X113.957 Y125.863 E0.04634
G1 X115.625 Y125.784 E0.05235
G1 X117.099 Y125.870 E0.04631
G1 X118.558 Y126.106 E0.04632
G1 X119.985 Y126.489 E0.04634
G1 X121.367 Y127.017 E0.04637
G1 X122.687 Y127.682 E0.04635
G1 X124.086 Y128.586 E0.05224
G1 X125.234 Y129.517 E0.04635
G1 X126.203 Y130.485 E0.04294
G1 X126.201 Y138.070 E0.23783
G1 X104.797 Y138.068 E0.67110
G1 X104.796 Y130.542 E0.23597
G1 X105.163 Y130.322 F9000.000
G1 E-3.50000 F3600.000
;WIPE_START
G1 F7200.000
G1 X105.742 Y129.537 E-0.65531
G1 X106.984 Y128.531 E-0.75922
G1 X107.003 Y128.520 E-0.01046
;WIPE_END
G1 E-0.07500 F3600.000
G1 X123.709 Y128.926 F9000.000
G1 E5.00000 F2400.000
;TYPE:Solid infill
;WIDTH:0.422533
G1 F1200.000
G1 X125.543 Y130.760 E0.08187
G1 X125.543 Y131.297 E0.01694
G1 X122.762 Y128.516 E0.12413
G1 X122.358 Y128.255 E0.01518
G1 X121.565 Y127.855 E0.02806
G1 X125.543 Y131.834 E0.17759
G1 X125.543 Y132.370 E0.01694
G1 X120.605 Y127.432 E0.22044
G1 X119.743 Y127.108 E0.02905
G1 X125.543 Y132.907 E0.25888
G1 X125.542 Y133.444 E0.01694
G1 X119.009 Y126.910 E0.29164
G1 X118.293 Y126.732 E0.02329
G1 X125.542 Y133.980 E0.32358
G1 X125.542 Y134.517 E0.01694
G1 X117.653 Y126.628 E0.35216
G1 X117.014 Y126.526 E0.02042
G1 X125.542 Y135.054 E0.38067
G1 X125.542 Y135.590 E0.01694
G1 X116.444 Y126.493 E0.40611
G1 X115.874 Y126.460 E0.01802
G1 X125.542 Y136.127 E0.43155
G1 X125.542 Y136.664 E0.01694
G1 X115.336 Y126.459 E0.45556
G1 X114.824 Y126.483 E0.01620
G1 X125.541 Y137.201 E0.47843
G1 X125.541 Y137.410 E0.00661
G1 X125.214 Y137.410 E0.01033
G1 X114.311 Y126.507 E0.48670
G1 X114.024 Y126.521 E0.00907
G1 X113.820 Y126.553 E0.00652
G1 X124.677 Y137.410 E0.48466
G1 X124.140 Y137.410 E0.01695
G1 X113.356 Y126.626 E0.48138
G1 X112.893 Y126.699 E0.01481
G1 X123.603 Y137.410 E0.47811
G1 X123.066 Y137.410 E0.01695
G1 X112.446 Y126.790 E0.47407
G1 X112.022 Y126.902 E0.01386
G1 X122.530 Y137.410 E0.46905
G1 X121.993 Y137.410 E0.01695
G1 X111.597 Y127.015 E0.46404
G1 X111.181 Y127.135 E0.01369
G1 X121.456 Y137.410 E0.45867
G1 X120.919 Y137.410 E0.01695
G1 X110.791 Y127.282 E0.45210
G1 X110.401 Y127.429 E0.01315
G1 X120.382 Y137.410 E0.44553
G1 X119.845 Y137.410 E0.01695
G1 X110.011 Y127.576 E0.43897
G1 X109.650 Y127.751 E0.01269
G1 X119.308 Y137.409 E0.43115
G1 X118.771 Y137.409 E0.01695
G1 X109.293 Y127.931 E0.42310
G1 X108.936 Y128.112 E0.01261
G1 X118.234 Y137.409 E0.41505
G1 X117.697 Y137.409 E0.01695
G1 X108.580 Y128.292 E0.40701
G1 X108.249 Y128.498 E0.01230
G1 X117.160 Y137.409 E0.39779
G1 X116.624 Y137.409 E0.01695
G1 X107.924 Y128.709 E0.38836
G1 X107.598 Y128.920 E0.01225
G1 X116.087 Y137.409 E0.37894
G1 X115.550 Y137.409 E0.01695
G1 X107.281 Y129.140 E0.36912
G1 X106.984 Y129.380 E0.01205
G1 X115.013 Y137.409 E0.35840
G1 X114.476 Y137.409 E0.01695
G1 X106.687 Y129.621 E0.34767
G1 X106.391 Y129.861 E0.01205
G1 X113.939 Y137.409 E0.33695
G1 X113.402 Y137.409 E0.01695
G1 X106.103 Y130.109 E0.32585
G1 X105.834 Y130.378 E0.01198
G1 X112.865 Y137.409 E0.31387
G1 X112.328 Y137.409 E0.01695
G1 X105.566 Y130.646 E0.30188
G1 X105.456 Y130.755 E0.00487
G1 X105.456 Y131.074 E0.01006
G1 X111.791 Y137.409 E0.28279
G1 X111.254 Y137.409 E0.01695
G1 X105.456 Y131.611 E0.25882
G1 X105.457 Y132.148 E0.01695
G1 X110.718 Y137.409 E0.23485
G1 X110.181 Y137.409 E0.01695
G1 X105.457 Y132.685 E0.21088
G1 X105.457 Y133.221 E0.01695
G1 X109.644 Y137.409 E0.18691
G1 X109.107 Y137.408 E0.01695
G1 X105.457 Y133.758 E0.16294
G1 X105.457 Y134.295 E0.01695
G1 X108.570 Y137.408 E0.13897
G1 X108.033 Y137.408 E0.01695
G1 X105.457 Y134.832 E0.11500
G1 X105.457 Y135.369 E0.01695
G1 X107.496 Y137.408 E0.09103
G1 X106.959 Y137.408 E0.01695
G1 X105.457 Y135.906 E0.06706
G1 X105.457 Y136.443 E0.01695
G1 X106.422 Y137.408 E0.04309
G1 X105.885 Y137.408 E0.01695
G1 X105.287 Y136.810 E0.02670
M106 S255
