; generated by PrusaSlicer 2.3.0 on 2023-04-15 at 03:34:44 UTC

; 

; external perimeters extrusion width = 0.45mm
; perimeters extrusion width = 0.45mm
; infill extrusion width = 0.45mm
; solid infill extrusion width = 0.45mm
; top infill extrusion width = 0.40mm
; support material extrusion width = 0.38mm
; first layer extrusion width = 0.42mm

M201 X500 Y500 Z100 E5000 ; sets maximum accelerations, mm/sec^2
M203 X500 Y500 Z10 E60 ; sets maximum feedrates, mm/sec
M204 P500 R1000 T500 ; sets acceleration (P, T) and retract acceleration (R), mm/sec^2
M205 X8.00 Y8.00 Z0.40 E5.00 ; sets the jerk limits, mm/sec
M205 S0 T0 ; sets the minimum extruding and travel feed rate, mm/sec
M107
;TYPE:Custom
G90 ; use absolute coordinates
M83 ; extruder relative mode
M104 S210 ; set extruder temp
M140 S60 ; set bed temp
M190 S60 ; wait for bed temp
M109 S210 ; wait for extruder temp
G28 ; home all
G1 Z2 F240
G1 X2 Y10 F3000
G1 Z0.28 F240
G92 E0
G1 Y190 E15 F1500 ; intro line
G1 X2.3 F5000
G92 E0
G1 Y10 E15 F1200 ; intro line
G92 E0
G21 ; set units to millimeters
G90 ; use absolute coordinates
M83 ; use relative distances for extrusion
; Filament gcode
;LAYER_CHANGE
;Z:0.2
;HEIGHT:0.2
;BEFORE_LAYER_CHANGE
G92 E0
;0.2


G1 E-5.00000 F3600.000
G1 Z0.200 F9000.000
;AFTER_LAYER_CHANGE
;0.2
G1 X95.974 Y86.796
G1 E5.00000 F2400.000
;TYPE:Skirt
;WIDTH:0.42
G1 F1200.000
G1 X96.693 Y86.375 E0.02614
G1 X97.518 Y86.228 E0.02626
G1 X103.450 Y86.405 E0.18609
G1 X109.764 Y87.135 E0.19929
G1 X113.030 Y87.700 E0.10391
G1 X115.567 Y88.411 E0.08263
G1 X116.897 Y88.892 E0.04436
G1 X118.919 Y89.790 E0.06937
G1 X136.661 Y98.568 E0.62063
G1 X139.740 Y101.210 E0.12723
G1 X141.707 Y103.789 E0.10169
G1 X142.062 Y104.589 E0.02743
G1 X142.125 Y105.125 E0.01692
G1 X142.124 Y118.340 E0.41437
G1 X141.991 Y119.064 E0.02308
G1 X141.642 Y119.712 E0.02308
G1 X141.301 Y120.075 E0.01562
G1 X140.889 Y120.361 E0.01574
G1 X140.425 Y120.554 E0.01574
G1 X139.932 Y120.646 E0.01574
G1 X137.436 Y120.652 E0.07825
G1 X131.793 Y120.473 E0.17702
G1 X120.364 Y118.086 E0.36608
G1 X119.890 Y117.923 E0.01574
G1 X119.457 Y117.662 E0.01585
G1 X96.025 Y98.924 E0.94072
G1 X95.566 Y98.433 E0.02107
G1 X95.262 Y97.829 E0.02119
G1 X95.140 Y97.165 E0.02119
G1 X95.168 Y88.230 E0.28014
G1 X95.444 Y87.439 E0.02626
G1 X95.936 Y86.842 E0.02426
G1 E-3.50000 F3600.000
;WIPE_START
G1 F7200.000
G1 X96.693 Y86.375 E-0.42285
G1 X97.518 Y86.228 E-0.39776
G1 X98.790 Y86.266 E-0.60439
;WIPE_END
G1 E-0.07500 F3600.000
G1 X97.515 Y88.606 F9000.000
G1 E5.00000 F2400.000
;TYPE:Support material
G1 F1200.000
G1 X97.515 Y97.072 E0.26546
G1 X98.269 Y97.072 E0.02365
G1 X98.269 Y88.775 E0.26014
G1 X99.024 Y88.775 E0.02365
G1 X99.024 Y97.072 E0.26014
G1 X99.778 Y97.072 E0.02365
G1 X99.778 Y88.775 E0.26014
G1 X100.532 Y88.775 E0.02365
G1 X100.532 Y97.242 E0.26546
G1 X102.794 Y97.242 F9000.000
G1 F1200.000
G1 X102.794 Y96.669 E0.01797
G1 X102.040 Y94.466 E0.07301
G1 X102.040 Y97.072 E0.08173
G1 X101.286 Y97.072 E0.02365
G1 X101.286 Y88.775 E0.26014
G1 X102.040 Y88.775 E0.02365
G1 X102.040 Y92.536 E0.11791
G1 X102.794 Y92.142 E0.02667
G1 X102.794 Y88.775 E0.10558
G1 X103.274 Y88.775 E0.01503
G1 X103.549 Y89.578 E0.02659
G1 X103.549 Y91.844 E0.07105
G1 E-3.50000 F3600.000
;WIPE_START
G1 F7200.000
G1 X103.549 Y89.578 E-1.07630
G1 X103.311 Y88.883 E-0.34870
;WIPE_END
G1 E-0.07500 F3600.000
G1 X106.565 Y101.916 F9000.000
G1 E5.00000 F2400.000
G1 F1200.000
G1 X106.565 Y97.592 E0.13557
G1 X107.319 Y97.424 E0.02423
G1 X107.319 Y101.746 E0.13554
G1 X108.073 Y101.746 E0.02365
G1 X108.073 Y97.279 E0.14006
G1 X108.828 Y97.166 E0.02391
G1 X108.828 Y101.746 E0.14363
G1 X109.582 Y101.746 E0.02365
G1 X109.582 Y97.085 E0.14614
G1 X110.336 Y97.031 E0.02371
G1 X110.336 Y101.746 E0.14784
G1 X111.090 Y101.746 E0.02365
G1 X111.090 Y97.003 E0.14871
G1 X111.844 Y97.007 E0.02365
G1 X111.844 Y101.746 E0.14860
G1 X112.598 Y101.746 E0.02365
G1 X112.598 Y97.047 E0.14735
G1 X113.353 Y97.116 E0.02374
G1 X113.353 Y101.746 E0.14519
G1 X114.107 Y101.746 E0.02365
G1 X114.107 Y97.213 E0.14213
G1 X114.861 Y97.342 E0.02399
G1 X114.861 Y101.746 E0.13809
G1 X115.615 Y101.746 E0.02365
G1 X115.615 Y97.513 E0.13275
G1 X116.369 Y97.713 E0.02447
G1 X116.369 Y104.083 E0.19972
G1 X117.123 Y104.083 E0.02365
G1 X117.123 Y97.945 E0.19246
G1 X117.878 Y98.208 E0.02504
G1 X117.878 Y104.083 E0.18423
G1 X118.632 Y104.083 E0.02365
G1 X118.632 Y98.515 E0.17460
G1 X119.386 Y98.854 E0.02593
G1 X119.386 Y104.083 E0.16395
G1 X120.140 Y104.083 E0.02365
G1 X120.140 Y99.225 E0.15233
G1 X120.815 Y99.581 E0.02392
G1 X120.894 Y99.627 E0.00287
G1 X120.894 Y115.769 E0.50612
G1 X121.648 Y115.769 E0.02365
G1 X121.648 Y100.068 E0.49230
G1 X122.402 Y100.543 E0.02795
G1 X122.402 Y115.769 E0.47740
G1 X123.157 Y115.769 E0.02365
G1 X123.157 Y101.047 E0.46159
G1 X123.911 Y101.581 E0.02897
G1 X123.911 Y115.769 E0.44486
G1 X124.665 Y115.769 E0.02365
G1 X124.665 Y102.148 E0.42708
G1 X125.419 Y102.749 E0.03024
G1 X125.419 Y115.769 E0.40823
G1 X126.173 Y115.769 E0.02365
G1 X126.173 Y113.146 E0.08224
G1 X126.927 Y113.146 E0.02365
G1 X126.927 Y115.769 E0.08223
G1 X127.682 Y115.769 E0.02365
G1 X127.682 Y113.146 E0.08223
G1 X128.337 Y113.146 E0.02055
G1 X128.337 Y110.809 E0.07328
G1 X128.436 Y110.809 E0.00309
G1 X128.436 Y115.769 E0.15551
G1 X129.190 Y115.769 E0.02365
G1 X129.190 Y110.809 E0.15551
G1 X129.944 Y110.809 E0.02365
G1 X129.944 Y115.769 E0.15551
G1 X130.698 Y115.769 E0.02365
G1 X130.698 Y107.765 E0.25096
G1 X131.452 Y108.574 E0.03468
G1 X131.452 Y115.769 E0.22559
G1 X132.011 Y115.769 E0.01752
G1 X132.011 Y118.106 E0.07328
G1 X132.207 Y118.106 E0.00612
G1 X132.207 Y109.434 E0.27190
G1 X132.961 Y110.312 E0.03628
G1 X132.961 Y118.106 E0.24438
G1 X133.715 Y118.106 E0.02365
G1 X133.715 Y111.199 E0.21658
G1 X134.469 Y112.142 E0.03788
G1 X134.469 Y118.106 E0.18699
G1 X135.223 Y118.106 E0.02365
G1 X135.223 Y115.483 E0.08224
G1 X135.977 Y115.483 E0.02365
G1 X135.977 Y118.106 E0.08224
G1 X136.731 Y118.106 E0.02365
G1 X136.731 Y115.483 E0.08223
G1 X137.486 Y115.483 E0.02365
G1 X137.486 Y118.276 E0.08755
G1 X139.748 Y118.276 F9000.000
G1 F1200.000
G1 X139.748 Y105.135 E0.41202
G1 X138.994 Y105.135 E0.02365
G1 X138.994 Y118.106 E0.40670
G1 X138.240 Y118.106 E0.02365
G1 X138.240 Y105.135 E0.40670
G1 X137.971 Y105.135 E0.00842
G1 X137.971 Y102.798 E0.07328
G1 X137.486 Y102.798 E0.01522
G1 X137.486 Y110.095 E0.22879
G1 X136.731 Y110.095 E0.02365
G1 X136.731 Y102.798 E0.22879
G1 X135.977 Y102.798 E0.02365
G1 X135.977 Y110.095 E0.22879
G1 X135.223 Y110.095 E0.02365
G1 X135.223 Y100.461 E0.30207
G1 X134.469 Y100.461 E0.02365
G1 X134.469 Y109.486 E0.28298
G1 X133.715 Y108.411 E0.04116
G1 X133.715 Y100.461 E0.24929
G1 X132.961 Y100.461 E0.02365
G1 X132.961 Y107.303 E0.21453
G1 X132.207 Y106.259 E0.04039
G1 X132.207 Y100.461 E0.18179
G1 X131.452 Y100.461 E0.02365
G1 X131.452 Y105.138 E0.14667
G1 X130.698 Y104.116 E0.03983
G1 X130.698 Y100.461 E0.11462
G1 X129.944 Y100.461 E0.02365
G1 X129.944 Y103.033 E0.08065
G1 X129.486 Y102.349 E0.02582
G1 X129.190 Y101.961 E0.01528
G1 X129.190 Y100.461 E0.04706
G1 X128.436 Y100.461 E0.02365
G1 X128.436 Y101.270 E0.02538
G1 E-3.50000 F3600.000
;WIPE_START
G1 F7200.000
G1 X128.436 Y100.461 E-0.38448
G1 X129.190 Y100.461 E-0.35823
G1 X129.190 Y101.897 E-0.68229
;WIPE_END
G1 E-0.07500 F3600.000
G1 X126.151 Y112.941 F9000.000
G1 E5.00000 F2400.000
;TYPE:Support material interface
;WIDTH:0.38
G1 F1200.000
G1 X126.151 Y103.441 E0.26627
G1 X126.277 Y103.441 E0.00354
G1 X126.688 Y103.793 E0.01516
G1 X126.688 Y112.789 E0.25215
G1 X127.225 Y112.789 E0.01505
G1 X127.225 Y104.277 E0.23858
G1 X127.762 Y104.766 E0.02036
G1 X127.762 Y112.789 E0.22488
G1 X127.980 Y112.789 E0.00611
G1 X127.980 Y110.452 E0.06550
G1 X128.299 Y110.452 E0.00894
G1 X128.299 Y105.279 E0.14499
G1 X128.836 Y105.798 E0.02094
G1 X128.836 Y110.452 E0.13044
G1 X129.373 Y110.452 E0.01505
G1 X129.373 Y106.337 E0.11534
G1 X129.910 Y106.890 E0.02161
G1 X129.910 Y110.604 E0.10408
G1 E-3.50000 F3600.000
;WIPE_START
G1 F7200.000
G1 X129.910 Y107.604 E-1.42500
;WIPE_END
G1 E-0.07500 F3600.000
G1 X135.281 Y111.340 F9000.000
G1 E5.00000 F2400.000
G1 F1200.000
G1 X135.281 Y110.452 E0.02490
G1 X135.818 Y110.452 E0.01505
G1 X135.818 Y112.375 E0.05392
G1 E-3.50000 F3600.000
;WIPE_START
G1 F7200.000
G1 X135.818 Y110.452 E-0.91372
G1 X135.281 Y110.452 E-0.25511
G1 X135.281 Y110.991 E-0.25617
;WIPE_END
G1 E-0.07500 F3600.000
G1 X135.281 Y115.278 F9000.000
G1 E5.00000 F2400.000
G1 F1200.000
G1 X135.281 Y113.126 E0.06030
G1 X135.818 Y113.801 E0.02418
G1 X135.818 Y115.126 E0.03713
G1 X136.355 Y115.126 E0.01505
G1 X136.355 Y110.452 E0.13101
G1 X136.892 Y110.452 E0.01505
G1 X136.892 Y115.278 E0.13526
G1 E-3.50000 F3600.000
;WIPE_START
G1 F7200.000
G1 X136.892 Y112.278 E-1.42500
;WIPE_END
G1 E-0.07500 F3600.000
G1 X130.703 Y106.091 F9000.000
G1 E5.00000 F2400.000
;TYPE:Perimeter
;WIDTH:0.42
G1 F1200.000
G1 X129.479 Y104.849 E0.05467
G1 X128.465 Y103.882 E0.04396
G1 X127.488 Y102.996 E0.04135
G1 X126.481 Y102.133 E0.04158
G1 X125.477 Y101.325 E0.04041
G1 X124.436 Y100.543 E0.04081
G1 X123.417 Y99.833 E0.03894
G1 X122.395 Y99.177 E0.03806
G1 X121.369 Y98.578 E0.03726
G1 X120.339 Y98.035 E0.03651
G1 X119.304 Y97.552 E0.03582
G1 X118.265 Y97.129 E0.03518
G1 X117.222 Y96.767 E0.03463
G1 X116.175 Y96.466 E0.03415
G1 X115.125 Y96.225 E0.03377
G1 X114.072 Y96.045 E0.03349
G1 X113.017 Y95.924 E0.03330
G1 X111.960 Y95.862 E0.03319
G1 X110.903 Y95.857 E0.03316
G1 X109.844 Y95.908 E0.03323
G1 X108.770 Y96.016 E0.03385
G1 X107.740 Y96.171 E0.03267
G1 X106.665 Y96.386 E0.03436
G1 X105.592 Y96.655 E0.03469
G1 X104.561 Y96.963 E0.03371
G1 X104.154 Y97.103 E0.01352
G1 X102.883 Y93.391 E0.12303
G1 X103.366 Y93.142 E0.01702
G1 X103.964 Y92.726 E0.02285
G1 X104.778 Y92.344 E0.02818
G1 X105.215 Y92.067 E0.01624
G1 X105.864 Y91.800 E0.02199
G1 X106.447 Y91.450 E0.02133
G1 X107.146 Y91.079 E0.02481
G1 X107.515 Y90.944 E0.01234
G1 X108.392 Y90.512 E0.03064
G1 X108.544 Y90.467 E0.00496
G1 X109.161 Y90.188 E0.02123
G1 X110.383 Y90.344 E0.03864
G1 X111.502 Y90.538 E0.03561
G1 X112.608 Y90.780 E0.03552
G1 X113.663 Y91.061 E0.03423
G1 X114.774 Y91.411 E0.03650
G1 X115.781 Y91.780 E0.03363
G1 X116.808 Y92.211 E0.03494
G1 X117.809 Y92.691 E0.03481
G1 X118.737 Y93.190 E0.03304
G1 X119.731 Y93.787 E0.03636
G1 X120.615 Y94.372 E0.03326
G1 X121.520 Y95.029 E0.03505
G1 X122.402 Y95.727 E0.03525
G1 X123.244 Y96.447 E0.03474
G1 X124.090 Y97.226 E0.03608
G1 X124.989 Y98.141 E0.04020
G1 X125.722 Y99.157 E0.03928
G1 X125.917 Y99.387 E0.00947
G1 X127.264 Y101.377 E0.07534
G1 X127.845 Y102.089 E0.02881
G1 X128.550 Y103.010 E0.03638
G1 X129.473 Y104.389 E0.05201
G1 X130.472 Y105.731 E0.05246
G1 X130.671 Y106.041 E0.01153
G1 E-3.50000 F3600.000
;WIPE_START
G1 F7200.000
G1 X129.479 Y104.849 E-0.80034
G1 X128.527 Y103.942 E-0.62466
;WIPE_END
G1 E-0.07500 F3600.000
G1 X134.760 Y111.435 F9000.000
G1 E5.00000 F2400.000
;TYPE:External perimeter
G1 F1200.000
G1 X134.139 Y110.658 E0.03119
G1 X133.456 Y109.862 E0.03290
G1 X132.180 Y108.237 E0.06478
G1 X130.248 Y106.155 E0.08904
G1 X129.215 Y105.119 E0.04587
G1 X128.208 Y104.158 E0.04366
G1 X127.238 Y103.279 E0.04104
G1 X126.240 Y102.423 E0.04123
G1 X125.245 Y101.622 E0.04004
G1 X124.215 Y100.848 E0.04040
G1 X123.208 Y100.146 E0.03850
G1 X122.198 Y99.499 E0.03759
G1 X121.186 Y98.908 E0.03675
G1 X120.171 Y98.373 E0.03596
G1 X119.153 Y97.897 E0.03524
G1 X118.132 Y97.482 E0.03457
G1 X117.108 Y97.126 E0.03399
G1 X116.081 Y96.831 E0.03351
G1 X115.051 Y96.595 E0.03312
G1 X114.019 Y96.418 E0.03284
G1 X112.984 Y96.300 E0.03265
G1 X111.948 Y96.239 E0.03254
G1 X110.911 Y96.234 E0.03253
G1 X109.872 Y96.284 E0.03261
G1 X108.817 Y96.390 E0.03325
G1 X107.805 Y96.543 E0.03209
G1 X106.748 Y96.754 E0.03379
G1 X105.692 Y97.019 E0.03415
G1 X104.677 Y97.322 E0.03320
G1 X103.920 Y97.583 E0.02512
G1 X102.421 Y93.204 E0.14511
G1 X103.171 Y92.819 E0.02646
G1 X103.775 Y92.399 E0.02306
G1 X104.596 Y92.013 E0.02843
G1 X105.041 Y91.731 E0.01654
G1 X105.694 Y91.462 E0.02213
G1 X106.261 Y91.122 E0.02075
G1 X106.992 Y90.733 E0.02594
G1 X107.367 Y90.597 E0.01252
G1 X108.254 Y90.160 E0.03098
G1 X108.411 Y90.113 E0.00516
G1 X109.095 Y89.804 E0.02354
G1 X110.440 Y89.971 E0.04247
G1 X111.575 Y90.168 E0.03611
G1 X112.697 Y90.414 E0.03604
G1 X113.769 Y90.699 E0.03476
G1 X114.895 Y91.054 E0.03703
G1 X115.919 Y91.429 E0.03417
G1 X116.962 Y91.867 E0.03550
G1 X117.980 Y92.354 E0.03537
G1 X118.923 Y92.862 E0.03359
G1 X119.932 Y93.468 E0.03690
G1 X120.830 Y94.062 E0.03378
G1 X121.748 Y94.729 E0.03555
G1 X122.641 Y95.435 E0.03572
G1 X123.494 Y96.165 E0.03518
G1 X124.353 Y96.955 E0.03659
G1 X125.278 Y97.897 E0.04139
G1 X126.019 Y98.925 E0.03972
G1 X126.218 Y99.159 E0.00964
G1 X127.567 Y101.152 E0.07545
G1 X128.140 Y101.855 E0.02846
G1 X128.857 Y102.790 E0.03694
G1 X129.781 Y104.171 E0.05210
G1 X130.782 Y105.517 E0.05257
G1 X131.267 Y106.270 E0.02809
G1 X132.451 Y107.900 E0.06318
G1 X132.716 Y108.291 E0.01481
G1 X133.782 Y109.671 E0.05469
G1 X134.021 Y110.012 E0.01304
G1 X134.732 Y111.382 E0.04840
G1 X134.528 Y111.109 F9000.000
G1 E-3.50000 F3600.000
;WIPE_START
G1 F7200.000
G1 X134.139 Y110.658 E-0.44455
G1 X133.456 Y109.862 E-0.49849
G1 X132.829 Y109.064 E-0.48196
;WIPE_END
G1 E-0.07500 F3600.000
G1 X132.302 Y108.057 F9000.000
G1 E5.00000 F2400.000
;TYPE:Gap fill
;WIDTH:0.0961644
G1 F1200.000
G1 X132.018 Y107.711 E0.00198
;WIDTH:0.192641
G1 X131.505 Y107.087 E0.01006
;WIDTH:0.289117
G1 X130.819 Y106.240 E0.02232
G1 E-3.50000 F3600.000
;WIPE_START
G1 F7200.000
G1 X131.505 Y107.087 E-0.51790
;WIPE_END
G1 E-0.98210 F3600.000
G1 X129.073 Y104.171 F9000.000
G1 E5.00000 F2400.000
;WIDTH:0.138565
G1 F1200.000
G1 X128.656 Y103.674 E0.00516
;WIDTH:0.270281
G1 X128.228 Y103.179 E0.01238
G1 E-3.50000 F3600.000
;WIPE_START
G1 F7200.000
G1 X128.656 Y103.674 E-0.31110
;WIPE_END
G1 E-1.18890 F3600.000
G1 X122.062 Y95.602 F9000.000
G1 E5.00000 F2400.000
;TYPE:Solid infill
;WIDTH:0.425963
G1 F1200.000
G1 X124.772 Y98.323 E0.12232
G1 X125.499 Y99.331 E0.03957
G1 X125.691 Y99.559 E0.00948
G1 X126.140 Y100.222 E0.02553
G1 X120.705 Y94.787 E0.24484
G1 X119.580 Y94.026 E0.04325
G1 X119.135 Y93.759 E0.01653
G1 X127.541 Y102.165 E0.37863
G1 X128.113 Y102.904 E0.02977
G1 X127.957 Y103.039 E0.00658
G1 X127.282 Y102.447 E0.02860
G1 X117.890 Y93.056 E0.42301
G1 X116.827 Y92.534 E0.03770
G1 X124.619 Y100.326 E0.35097
G1 X123.575 Y99.598 E0.04058
G1 X122.946 Y99.194 E0.02379
G1 X115.879 Y92.128 E0.31829
G1 X115.007 Y91.798 E0.02970
G1 X121.587 Y98.378 E0.29638
G1 X120.437 Y97.769 E0.04145
G1 X114.192 Y91.524 E0.28129
G1 X113.585 Y91.333 E0.02028
G1 X113.413 Y91.287 E0.00565
G1 X119.420 Y97.294 E0.27056
G1 X118.506 Y96.921 E0.03144
G1 X112.675 Y91.091 E0.26263
G1 X111.973 Y90.931 E0.02292
G1 X117.663 Y96.621 E0.25629
G1 X116.873 Y96.372 E0.02637
G1 X111.289 Y90.788 E0.25154
G1 X110.633 Y90.674 E0.02119
G1 X116.123 Y96.164 E0.24727
G1 X115.421 Y96.003 E0.02295
G1 X109.996 Y90.578 E0.24435
G1 X109.373 Y90.497 E0.02001
G1 X114.750 Y95.874 E0.24221
G1 X114.098 Y95.763 E0.02109
G1 X108.935 Y90.601 E0.23255
G1 X108.552 Y90.760 E0.01320
G1 X113.486 Y95.693 E0.22222
G1 X112.884 Y95.633 E0.01927
G1 X108.182 Y90.931 E0.21178
G1 X107.819 Y91.110 E0.01289
G1 X112.308 Y95.599 E0.20221
G1 X111.746 Y95.578 E0.01793
G1 X107.440 Y91.273 E0.19393
G1 X107.261 Y91.338 E0.00607
G1 X107.067 Y91.441 E0.00701
G1 X111.201 Y95.576 E0.18624
G1 X110.669 Y95.585 E0.01695
G1 X106.713 Y91.629 E0.17820
G1 X106.369 Y91.827 E0.01264
G1 X110.152 Y95.610 E0.17041
G1 X109.644 Y95.644 E0.01621
G1 X106.031 Y92.030 E0.16277
G1 X105.652 Y92.193 E0.01313
G1 X109.152 Y95.693 E0.15765
G1 X108.663 Y95.746 E0.01566
G1 X105.279 Y92.361 E0.15244
G1 X104.947 Y92.571 E0.01250
G1 X108.192 Y95.817 E0.14618
G1 X107.722 Y95.888 E0.01516
G1 X104.582 Y92.748 E0.14141
G1 X104.214 Y92.922 E0.01297
G1 X107.269 Y95.977 E0.13762
G1 X106.818 Y96.067 E0.01466
G1 X103.880 Y93.130 E0.13233
G1 X103.560 Y93.352 E0.01240
G1 X106.376 Y96.167 E0.12682
G1 X105.943 Y96.276 E0.01422
G1 X103.247 Y93.580 E0.12144
G1 X103.529 Y94.403 E0.02773
G1 X105.510 Y96.385 E0.08924
