; generated by PrusaSlicer 2.3.0 on 2023-04-15 at 04:34:28 UTC

; 

; external perimeters extrusion width = 0.45mm
; perimeters extrusion width = 0.45mm
; infill extrusion width = 0.45mm
; solid infill extrusion width = 0.45mm
; top infill extrusion width = 0.40mm
; support material extrusion width = 0.38mm
; first layer extrusion width = 0.42mm

M201 X500 Y500 Z100 E5000 ; sets maximum accelerations, mm/sec^2
M203 X500 Y500 Z10 E60 ; sets maximum feedrates, mm/sec
M204 P500 R1000 T500 ; sets acceleration (P, T) and retract acceleration (R), mm/sec^2
M205 X8.00 Y8.00 Z0.40 E5.00 ; sets the jerk limits, mm/sec
M205 S0 T0 ; sets the minimum extruding and travel feed rate, mm/sec
M107
;TYPE:Custom
G90 ; use absolute coordinates
M83 ; extruder relative mode
M104 S210 ; set extruder temp
M140 S60 ; set bed temp
M190 S60 ; wait for bed temp
M109 S210 ; wait for extruder temp
G28 ; home all
G1 Z2 F240
G1 X2 Y10 F3000
G1 Z0.28 F240
G92 E0
G1 Y190 E15 F1500 ; intro line
G1 X2.3 F5000
G92 E0
G1 Y10 E15 F1200 ; intro line
G92 E0
G21 ; set units to millimeters
G90 ; use absolute coordinates
M83 ; use relative distances for extrusion
; Filament gcode
;LAYER_CHANGE
;Z:0.2
;HEIGHT:0.2
;BEFORE_LAYER_CHANGE
G92 E0
;0.2


G1 E-5.00000 F3600.000
G1 Z0.200 F9000.000
;AFTER_LAYER_CHANGE
;0.2
G1 X94.352 Y127.307
G1 E5.00000 F2400.000
;TYPE:Skirt
;WIDTH:0.42
G1 F1200.000
G1 X112.878 Y118.160 E0.64780
G1 X114.184 Y117.611 E0.04443
G1 X116.296 Y116.889 E0.06998
G1 X117.971 Y116.450 E0.05431
G1 X120.238 Y116.016 E0.07235
G1 X127.968 Y115.158 E0.24387
G1 X133.491 Y115.146 E0.17316
G1 X134.311 Y115.293 E0.02614
G1 X135.030 Y115.715 E0.02614
G1 X135.560 Y116.359 E0.02614
G1 X135.835 Y117.150 E0.02626
G1 X135.862 Y126.081 E0.28002
G1 X135.739 Y126.749 E0.02130
G1 X135.432 Y127.355 E0.02130
G1 X134.969 Y127.848 E0.02119
G1 X111.536 Y146.417 E0.93745
G1 X111.105 Y146.674 E0.01574
G1 X110.634 Y146.835 E0.01562
G1 X99.190 Y149.222 E0.36654
G1 X91.030 Y149.220 E0.25586
G1 X90.545 Y149.122 E0.01550
G1 X90.091 Y148.927 E0.01550
G1 X89.690 Y148.644 E0.01538
G1 X89.354 Y148.282 E0.01550
G1 X89.009 Y147.636 E0.02296
G1 X88.878 Y146.919 E0.02284
G1 X88.877 Y133.701 E0.41444
G1 X88.942 Y133.162 E0.01704
G1 X89.157 Y132.593 E0.01906
G1 X89.509 Y132.098 E0.01906
G1 X91.843 Y129.687 E0.10522
G1 X94.309 Y127.348 E0.10655
G1 E-3.50000 F3600.000
;WIPE_START
G1 F7200.000
G1 X96.997 Y126.018 E-1.42500
;WIPE_END
G1 E-0.07500 F3600.000
G1 X93.516 Y131.376 F9000.000
G1 E5.00000 F2400.000
;TYPE:Support material
G1 F1200.000
G1 X93.516 Y138.842 E0.23411
G1 X94.271 Y138.842 E0.02365
G1 X94.271 Y131.545 E0.22879
G1 X95.025 Y131.545 E0.02365
G1 X95.025 Y138.842 E0.22879
G1 X95.779 Y138.842 E0.02365
G1 X95.779 Y129.208 E0.30207
G1 X96.533 Y129.208 E0.02365
G1 X96.533 Y138.228 E0.28279
G1 X97.287 Y137.153 E0.04116
G1 X97.287 Y129.208 E0.24911
G1 X98.041 Y129.208 E0.02365
G1 X98.041 Y136.044 E0.21433
G1 X98.796 Y135.000 E0.04038
G1 X98.796 Y129.208 E0.18159
G1 X99.550 Y129.208 E0.02365
G1 X99.550 Y133.880 E0.14647
G1 X100.304 Y132.856 E0.03987
G1 X100.304 Y129.208 E0.11437
G1 X101.058 Y129.208 E0.02365
G1 X101.058 Y131.773 E0.08041
G1 X101.532 Y131.064 E0.02674
G1 X101.812 Y130.698 E0.01444
G1 X101.812 Y129.208 E0.04671
G1 X102.566 Y129.208 E0.02365
G1 X102.566 Y130.006 E0.02502
G1 E-3.50000 F3600.000
;WIPE_START
G1 F7200.000
G1 X102.566 Y129.208 E-0.37900
G1 X101.812 Y129.208 E-0.35823
G1 X101.812 Y130.656 E-0.68777
;WIPE_END
G1 E-0.07500 F3600.000
G1 X104.851 Y141.688 F9000.000
G1 E5.00000 F2400.000
;TYPE:Support material interface
;WIDTH:0.38
G1 F1200.000
G1 X104.851 Y132.188 E0.26627
G1 X104.724 Y132.188 E0.00358
G1 X104.314 Y132.539 E0.01511
G1 X104.314 Y141.537 E0.25219
G1 X103.777 Y141.537 E0.01505
G1 X103.777 Y133.023 E0.23862
G1 X103.240 Y133.512 E0.02035
G1 X103.240 Y141.537 E0.22492
G1 X103.022 Y141.537 E0.00611
G1 X103.022 Y139.200 E0.06550
G1 X102.703 Y139.200 E0.00894
G1 X102.703 Y134.025 E0.14505
G1 X102.166 Y134.544 E0.02093
G1 X102.166 Y139.200 E0.13050
G1 X101.629 Y139.200 E0.01505
G1 X101.629 Y135.082 E0.11540
G1 X101.092 Y135.635 E0.02161
G1 X101.092 Y139.351 E0.10415
G1 E-3.50000 F3600.000
;WIPE_START
G1 F7200.000
G1 X101.092 Y136.351 E-1.42500
;WIPE_END
G1 E-0.07500 F3600.000
G1 X95.721 Y140.082 F9000.000
G1 E5.00000 F2400.000
G1 F1200.000
G1 X95.721 Y139.199 E0.02473
G1 X95.184 Y139.199 E0.01505
G1 X95.184 Y141.116 E0.05373
G1 E-3.50000 F3600.000
;WIPE_START
G1 F7200.000
G1 X95.184 Y139.199 E-0.91053
G1 X95.721 Y139.199 E-0.25511
G1 X95.721 Y139.746 E-0.25936
;WIPE_END
G1 E-0.07500 F3600.000
G1 X95.721 Y144.025 F9000.000
G1 E5.00000 F2400.000
G1 F1200.000
G1 X95.721 Y141.869 E0.06045
G1 X95.184 Y142.543 E0.02417
G1 X95.184 Y143.874 E0.03729
G1 X94.647 Y143.874 E0.01505
G1 X94.647 Y139.199 E0.13101
G1 X94.110 Y139.199 E0.01505
G1 X94.110 Y144.025 E0.13526
G1 E-3.50000 F3600.000
;WIPE_START
G1 F7200.000
G1 X94.110 Y141.025 E-1.42500
;WIPE_END
G1 E-0.07500 F3600.000
G1 X91.254 Y133.713 F9000.000
G1 E5.00000 F2400.000
;TYPE:Support material
;WIDTH:0.42
G1 F1200.000
G1 X91.254 Y146.854 E0.41202
G1 X92.008 Y146.854 E0.02365
G1 X92.008 Y133.883 E0.40670
G1 X92.762 Y133.883 E0.02365
G1 X92.762 Y146.854 E0.40670
G1 X93.516 Y146.854 E0.02365
G1 X93.516 Y144.231 E0.08224
G1 X94.271 Y144.231 E0.02365
G1 X94.271 Y146.854 E0.08224
G1 X95.025 Y146.854 E0.02365
G1 X95.025 Y144.231 E0.08224
G1 X95.779 Y144.231 E0.02365
G1 X95.779 Y146.854 E0.08223
G1 X96.533 Y146.854 E0.02365
G1 X96.533 Y140.885 E0.18714
G1 X97.287 Y139.942 E0.03787
G1 X97.287 Y146.854 E0.21672
G1 X98.041 Y146.854 E0.02365
G1 X98.041 Y139.055 E0.24451
G1 X98.796 Y138.178 E0.03627
G1 X98.796 Y146.854 E0.27201
G1 X98.991 Y146.854 E0.00612
G1 X98.991 Y144.517 E0.07328
G1 X99.550 Y144.517 E0.01753
G1 X99.550 Y137.319 E0.22569
G1 X100.304 Y136.510 E0.03468
G1 X100.304 Y144.517 E0.25105
G1 X101.058 Y144.517 E0.02365
G1 X101.058 Y139.557 E0.15551
G1 X101.812 Y139.557 E0.02365
G1 X101.812 Y144.517 E0.15551
G1 X102.566 Y144.517 E0.02365
G1 X102.566 Y139.557 E0.15551
G1 X102.665 Y139.557 E0.00309
G1 X102.665 Y141.894 E0.07328
G1 X103.321 Y141.894 E0.02056
G1 X103.321 Y144.517 E0.08224
G1 X104.075 Y144.517 E0.02365
G1 X104.075 Y141.894 E0.08223
G1 X104.829 Y141.894 E0.02365
G1 X104.829 Y144.517 E0.08223
G1 X105.583 Y144.517 E0.02365
G1 X105.583 Y131.496 E0.40826
G1 X106.337 Y130.895 E0.03024
G1 X106.337 Y144.517 E0.42710
G1 X107.091 Y144.517 E0.02365
G1 X107.091 Y130.328 E0.44487
G1 X107.845 Y129.795 E0.02897
G1 X107.845 Y144.517 E0.46159
G1 X108.600 Y144.517 E0.02365
G1 X108.600 Y129.291 E0.47740
G1 X109.186 Y128.915 E0.02183
G1 X109.354 Y128.816 E0.00612
G1 X109.354 Y144.517 E0.49228
G1 X110.108 Y144.517 E0.02365
G1 X110.108 Y128.375 E0.50610
G1 X110.862 Y127.974 E0.02679
G1 X110.862 Y132.831 E0.15230
G1 X111.616 Y132.831 E0.02365
G1 X111.616 Y127.603 E0.16392
G1 X112.370 Y127.263 E0.02593
G1 X112.370 Y132.831 E0.17457
G1 X113.125 Y132.831 E0.02365
G1 X113.125 Y126.957 E0.18419
G1 X113.879 Y126.694 E0.02504
G1 X113.879 Y132.831 E0.19242
G1 X114.633 Y132.831 E0.02365
G1 X114.633 Y126.463 E0.19968
G1 X115.387 Y126.262 E0.02447
G1 X115.387 Y130.494 E0.13270
G1 X116.141 Y130.494 E0.02365
G1 X116.141 Y126.091 E0.13804
G1 X116.895 Y125.963 E0.02399
G1 X116.895 Y130.494 E0.14208
G1 X117.650 Y130.494 E0.02365
G1 X117.650 Y125.865 E0.14514
G1 X118.404 Y125.797 E0.02374
G1 X118.404 Y130.494 E0.14728
G1 X119.158 Y130.494 E0.02365
G1 X119.158 Y125.757 E0.14854
G1 X119.912 Y125.753 E0.02365
G1 X119.912 Y130.494 E0.14864
G1 X120.666 Y130.494 E0.02365
G1 X120.666 Y125.781 E0.14777
G1 X121.420 Y125.836 E0.02371
G1 X121.420 Y130.494 E0.14606
G1 X122.174 Y130.494 E0.02365
G1 X122.174 Y125.916 E0.14355
G1 X122.929 Y126.030 E0.02391
G1 X122.929 Y130.494 E0.13997
G1 X123.683 Y130.494 E0.02365
G1 X123.683 Y126.174 E0.13545
G1 X124.437 Y126.343 E0.02423
G1 X124.437 Y130.664 E0.13547
G1 E-3.50000 F3600.000
;WIPE_START
G1 F7200.000
G1 X124.437 Y127.664 E-1.42500
;WIPE_END
G1 E-0.07500 F3600.000
G1 X133.487 Y125.990 F9000.000
G1 E5.00000 F2400.000
G1 F1200.000
G1 X133.487 Y117.523 E0.26546
G1 X132.733 Y117.523 E0.02365
G1 X132.733 Y125.820 E0.26014
G1 X131.979 Y125.820 E0.02365
G1 X131.979 Y117.523 E0.26014
G1 X131.224 Y117.523 E0.02365
G1 X131.224 Y125.820 E0.26014
G1 X130.470 Y125.820 E0.02365
G1 X130.470 Y117.523 E0.26014
G1 X129.716 Y117.523 E0.02365
G1 X129.716 Y125.820 E0.26014
G1 X128.962 Y125.820 E0.02365
G1 X128.962 Y123.222 E0.08146
G1 X128.208 Y125.423 E0.07297
G1 X128.208 Y125.990 E0.01776
G1 E-3.50000 F3600.000
;WIPE_START
G1 F7200.000
G1 X128.208 Y125.423 E-0.26900
G1 X128.962 Y123.222 E-1.10540
G1 X128.962 Y123.328 E-0.05060
;WIPE_END
G1 E-0.07500 F3600.000
G1 X128.962 Y121.469 F9000.000
G1 E5.00000 F2400.000
G1 F1200.000
G1 X128.962 Y117.523 E0.12374
G1 X128.208 Y117.523 E0.02365
G1 X128.208 Y120.881 E0.10528
G1 X127.625 Y120.477 E0.02222
G1 X127.454 Y120.393 E0.00600
G1 X127.454 Y117.813 E0.08090
G1 E-3.50000 F3600.000
;WIPE_START
G1 F7200.000
G1 X127.454 Y120.393 E-1.22562
G1 X127.625 Y120.477 E-0.09083
G1 X127.813 Y120.607 E-0.10855
;WIPE_END
G1 E-0.07500 F3600.000
G1 X128.123 Y122.134 F9000.000
G1 E5.00000 F2400.000
;TYPE:Perimeter
G1 F1200.000
G1 X126.849 Y125.854 E0.12329
G1 X126.442 Y125.714 E0.01352
G1 X125.411 Y125.406 E0.03371
G1 X124.338 Y125.137 E0.03469
G1 X123.264 Y124.922 E0.03436
G1 X122.233 Y124.766 E0.03267
G1 X121.159 Y124.658 E0.03385
G1 X120.101 Y124.607 E0.03323
G1 X119.043 Y124.612 E0.03316
G1 X117.986 Y124.674 E0.03319
G1 X116.931 Y124.794 E0.03331
G1 X115.878 Y124.975 E0.03349
G1 X114.828 Y125.215 E0.03377
G1 X113.781 Y125.515 E0.03415
G1 X112.738 Y125.877 E0.03463
G1 X111.699 Y126.300 E0.03518
G1 X110.664 Y126.784 E0.03581
G1 X109.633 Y127.326 E0.03651
G1 X108.607 Y127.925 E0.03726
G1 X107.585 Y128.580 E0.03806
G1 X106.566 Y129.290 E0.03894
G1 X105.526 Y130.072 E0.04081
G1 X104.522 Y130.880 E0.04041
G1 X103.514 Y131.742 E0.04158
G1 X102.537 Y132.628 E0.04135
G1 X101.523 Y133.596 E0.04395
G1 X100.289 Y134.848 E0.05513
G1 X100.539 Y134.459 E0.01451
G1 X101.532 Y133.124 E0.05218
G1 X102.468 Y131.726 E0.05275
G1 X103.165 Y130.817 E0.03591
G1 X103.738 Y130.114 E0.02843
G1 X105.099 Y128.102 E0.07617
G1 X105.282 Y127.885 E0.00889
G1 X105.967 Y126.935 E0.03673
G1 X106.913 Y125.974 E0.04228
G1 X107.760 Y125.194 E0.03609
G1 X108.601 Y124.474 E0.03472
G1 X109.484 Y123.777 E0.03526
G1 X110.388 Y123.120 E0.03504
G1 X111.315 Y122.507 E0.03486
G1 X112.267 Y121.938 E0.03476
G1 X113.195 Y121.439 E0.03303
G1 X114.196 Y120.960 E0.03481
G1 X115.224 Y120.529 E0.03494
G1 X116.273 Y120.145 E0.03502
G1 X117.304 Y119.821 E0.03391
G1 X118.396 Y119.530 E0.03543
G1 X119.503 Y119.288 E0.03552
G1 X120.619 Y119.094 E0.03553
G1 X121.916 Y118.937 E0.04095
G1 X122.468 Y119.189 E0.01905
G1 X122.609 Y119.232 E0.00461
G1 X123.494 Y119.671 E0.03097
G1 X123.854 Y119.803 E0.01204
G1 X124.560 Y120.180 E0.02508
G1 X125.147 Y120.535 E0.02151
G1 X125.790 Y120.801 E0.02181
G1 X126.231 Y121.082 E0.01641
G1 X127.039 Y121.464 E0.02804
G1 X127.642 Y121.885 E0.02306
G1 X128.070 Y122.107 E0.01511
G1 X128.586 Y121.949 F9000.000
;TYPE:External perimeter
G1 F1200.000
G1 X127.083 Y126.334 E0.14534
G1 X126.326 Y126.073 E0.02512
G1 X125.312 Y125.770 E0.03320
G1 X124.255 Y125.505 E0.03415
G1 X123.198 Y125.293 E0.03379
G1 X122.186 Y125.140 E0.03209
G1 X121.131 Y125.034 E0.03325
G1 X120.092 Y124.984 E0.03261
G1 X119.055 Y124.989 E0.03253
G1 X118.019 Y125.049 E0.03254
G1 X116.984 Y125.168 E0.03265
G1 X115.952 Y125.344 E0.03284
G1 X114.922 Y125.580 E0.03312
G1 X113.895 Y125.875 E0.03351
G1 X112.871 Y126.230 E0.03399
G1 X111.850 Y126.646 E0.03457
G1 X110.831 Y127.121 E0.03524
G1 X109.816 Y127.656 E0.03596
G1 X108.804 Y128.247 E0.03675
G1 X107.795 Y128.894 E0.03759
G1 X106.787 Y129.595 E0.03850
G1 X105.757 Y130.369 E0.04040
G1 X104.762 Y131.170 E0.04003
G1 X103.764 Y132.025 E0.04124
G1 X102.794 Y132.904 E0.04103
G1 X101.786 Y133.865 E0.04366
G1 X100.778 Y134.876 E0.04476
G1 X98.799 Y137.006 E0.09116
G1 X97.538 Y138.615 E0.06410
G1 X96.861 Y139.404 E0.03258
G1 X96.240 Y140.181 E0.03119
G1 X96.982 Y138.752 E0.05048
G1 X97.213 Y138.423 E0.01258
G1 X97.985 Y137.426 E0.03954
G1 X99.737 Y135.010 E0.09359
G1 X100.229 Y134.244 E0.02852
G1 X101.224 Y132.906 E0.05229
G1 X102.162 Y131.506 E0.05284
G1 X102.869 Y130.583 E0.03647
G1 X103.435 Y129.889 E0.02808
G1 X104.798 Y127.874 E0.07628
G1 X104.985 Y127.653 E0.00907
G1 X105.678 Y126.691 E0.03717
G1 X106.650 Y125.702 E0.04348
G1 X107.510 Y124.912 E0.03660
G1 X108.362 Y124.183 E0.03516
G1 X109.256 Y123.476 E0.03573
G1 X110.173 Y122.810 E0.03554
G1 X111.114 Y122.188 E0.03539
G1 X112.081 Y121.610 E0.03530
G1 X113.024 Y121.103 E0.03358
G1 X114.042 Y120.616 E0.03538
G1 X115.086 Y120.178 E0.03550
G1 X116.151 Y119.788 E0.03557
G1 X117.199 Y119.458 E0.03444
G1 X118.307 Y119.163 E0.03595
G1 X119.430 Y118.917 E0.03604
G1 X120.564 Y118.721 E0.03609
G1 X121.975 Y118.550 E0.04458
G1 X122.602 Y118.835 E0.02158
G1 X122.749 Y118.880 E0.00481
G1 X123.643 Y119.324 E0.03131
G1 X124.009 Y119.458 E0.01222
G1 X124.747 Y119.852 E0.02623
G1 X125.318 Y120.197 E0.02093
G1 X125.964 Y120.465 E0.02195
G1 X126.414 Y120.751 E0.01669
G1 X127.229 Y121.137 E0.02829
G1 X127.838 Y121.562 E0.02327
G1 X128.532 Y121.921 E0.02452
G1 X128.266 Y122.190 F9000.000
G1 E-3.50000 F3600.000
;WIPE_START
G1 F7200.000
G1 X127.596 Y124.772 E-1.42500
;WIPE_END
G1 E-0.07500 F3600.000
G1 X126.226 Y121.205 F9000.000
G1 E5.00000 F2400.000
;TYPE:Solid infill
;WIDTH:0.422781
G1 F1200.000
G1 X127.654 Y122.633 E0.06377
G1 X127.517 Y123.033 E0.01336
G1 X125.450 Y120.966 E0.09230
G1 X125.019 Y120.788 E0.01475
G1 X124.318 Y120.371 E0.02577
G1 X127.380 Y123.433 E0.13677
G1 X127.243 Y123.833 E0.01336
G1 X123.299 Y119.890 E0.17614
G1 X122.504 Y119.495 E0.02804
G1 X122.291 Y119.419 E0.00715
G1 X127.106 Y124.233 E0.21504
G1 X126.968 Y124.633 E0.01336
G1 X121.596 Y119.261 E0.23999
G1 X121.117 Y119.319 E0.01525
G1 X126.831 Y125.033 E0.25527
G1 X126.694 Y125.434 E0.01336
G1 X120.638 Y119.378 E0.27051
G1 X120.181 Y119.457 E0.01468
G1 X126.015 Y125.291 E0.26061
G1 X125.264 Y125.078 E0.02465
G1 X119.723 Y119.536 E0.24753
G1 X119.276 Y119.627 E0.01440
G1 X124.547 Y124.898 E0.23547
G1 X123.866 Y124.754 E0.02199
G1 X118.835 Y119.723 E0.22473
G1 X118.397 Y119.822 E0.01419
G1 X123.201 Y124.626 E0.21459
G1 X122.568 Y124.531 E0.02022
G1 X117.973 Y119.935 E0.20527
G1 X117.549 Y120.048 E0.01387
G1 X121.954 Y124.454 E0.19679
G1 X121.357 Y124.394 E0.01896
G1 X117.134 Y120.171 E0.18863
G1 X116.725 Y120.299 E0.01353
G1 X120.783 Y124.357 E0.18124
G1 X120.218 Y124.330 E0.01785
G1 X116.318 Y120.430 E0.17420
G1 X115.925 Y120.573 E0.01323
G1 X119.678 Y124.326 E0.16763
G1 X119.143 Y124.328 E0.01689
G1 X115.532 Y120.717 E0.16131
G1 X115.145 Y120.868 E0.01310
G1 X118.630 Y124.353 E0.15565
G1 X118.122 Y124.382 E0.01606
G1 X114.767 Y121.027 E0.14988
G1 X114.389 Y121.186 E0.01296
G1 X117.632 Y124.430 E0.14488
G1 X117.150 Y124.485 E0.01533
G1 X114.022 Y121.357 E0.13972
G1 X113.659 Y121.531 E0.01272
G1 X116.679 Y124.551 E0.13490
G1 X116.220 Y124.629 E0.01470
G1 X113.297 Y121.706 E0.13059
G1 X112.947 Y121.893 E0.01253
G1 X115.764 Y124.710 E0.12583
G1 X115.327 Y124.810 E0.01417
G1 X112.598 Y122.081 E0.12191
G1 X112.406 Y122.184 E0.00687
G1 X112.255 Y122.275 E0.00559
G1 X114.890 Y124.910 E0.11772
G1 X114.467 Y125.024 E0.01385
G1 X111.918 Y122.476 E0.11383
G1 X111.582 Y122.677 E0.01237
G1 X114.049 Y125.144 E0.11021
G1 X113.635 Y125.267 E0.01365
G1 X111.254 Y122.886 E0.10633
G1 X110.931 Y123.100 E0.01224
G1 X113.236 Y125.405 E0.10296
G1 X112.837 Y125.543 E0.01334
G1 X110.608 Y123.314 E0.09958
G1 X110.294 Y123.538 E0.01216
G1 X112.447 Y125.690 E0.09615
G1 X112.065 Y125.846 E0.01302
G1 X109.983 Y123.764 E0.09300
G1 X109.672 Y123.990 E0.01215
G1 X111.683 Y126.001 E0.08985
G1 X111.313 Y126.168 E0.01283
G1 X109.371 Y124.226 E0.08674
G1 X109.071 Y124.464 E0.01208
G1 X110.947 Y126.339 E0.08378
G1 X110.581 Y126.510 E0.01276
G1 X108.771 Y124.701 E0.08081
G1 X108.482 Y124.949 E0.01203
G1 X110.227 Y126.694 E0.07795
G1 X109.875 Y126.879 E0.01256
G1 X108.192 Y125.196 E0.07516
G1 X107.904 Y125.446 E0.01203
