; generated by PrusaSlicer 2.3.0 on 2023-04-15 at 11:55:29 UTC

; 

; external perimeters extrusion width = 0.45mm
; perimeters extrusion width = 0.45mm
; infill extrusion width = 0.45mm
; solid infill extrusion width = 0.45mm
; top infill extrusion width = 0.40mm
; first layer extrusion width = 0.42mm

M201 X500 Y500 Z100 E5000 ; sets maximum accelerations, mm/sec^2
M203 X500 Y500 Z10 E60 ; sets maximum feedrates, mm/sec
M204 P500 R1000 T500 ; sets acceleration (P, T) and retract acceleration (R), mm/sec^2
M205 X8.00 Y8.00 Z0.40 E5.00 ; sets the jerk limits, mm/sec
M205 S0 T0 ; sets the minimum extruding and travel feed rate, mm/sec
M107
;TYPE:Custom
G90 ; use absolute coordinates
M83 ; extruder relative mode
M104 S210 ; set extruder temp
M140 S60 ; set bed temp
M190 S60 ; wait for bed temp
M109 S210 ; wait for extruder temp
G28 ; home all
G1 Z2 F240
G1 X2 Y10 F3000
G1 Z0.28 F240
G92 E0
G1 Y190 E15 F1500 ; intro line
G1 X2.3 F5000
G92 E0
G1 Y10 E15 F1200 ; intro line
G92 E0
G21 ; set units to millimeters
G90 ; use absolute coordinates
M83 ; use relative distances for extrusion
; Filament gcode
;LAYER_CHANGE
;Z:0.2
;HEIGHT:0.2
;BEFORE_LAYER_CHANGE
G92 E0
;0.2


G1 E-5.00000 F3600.000
G1 Z0.200 F9000.000
;AFTER_LAYER_CHANGE
;0.2
G1 X108.542 Y62.339
G1 E5.00000 F2400.000
;TYPE:Skirt
;WIDTH:0.42
G1 F1200.000
G1 X109.222 Y62.055 E0.02308
G1 X111.984 Y61.425 E0.08884
G1 X112.476 Y61.374 E0.01550
G1 X112.975 Y61.428 E0.01574
G1 X113.451 Y61.585 E0.01574
G1 X113.884 Y61.839 E0.01574
G1 X114.254 Y62.178 E0.01574
G1 X114.701 Y62.926 E0.02731
G1 X115.027 Y64.268 E0.04331
G1 X127.255 Y136.956 E2.31110
G1 X127.265 Y158.657 E0.68043
G1 X127.063 Y159.431 E0.02508
G1 X126.613 Y160.097 E0.02520
G1 X125.967 Y160.575 E0.02520
G1 X125.198 Y160.810 E0.02520
G1 X124.549 Y160.803 E0.02036
G1 X123.926 Y160.622 E0.02036
G1 X123.375 Y160.278 E0.02036
G1 X122.938 Y159.798 E0.02036
G1 X122.687 Y159.328 E0.01668
G1 X120.821 Y154.442 E0.16399
G1 X119.498 Y150.441 E0.13212
G1 X117.919 Y144.662 E0.18784
G1 X116.845 Y139.616 E0.16178
G1 X116.035 Y134.539 E0.16120
G1 X107.412 Y64.480 E2.21321
G1 X107.466 Y63.848 E0.01989
G1 X107.683 Y63.256 E0.01977
G1 X108.051 Y62.740 E0.01989
G1 X108.496 Y62.376 E0.01800
G1 E-3.50000 F3600.000
;WIPE_START
G1 F7200.000
G1 X109.222 Y62.055 E-0.37699
G1 X111.373 Y61.564 E-1.04801
;WIPE_END
G1 E-0.07500 F3600.000
G1 X105.758 Y62.485 F9000.000
G1 E5.00000 F2400.000
G1 F1200.000
G1 X106.533 Y61.217 E0.04662
G1 X107.320 Y60.467 E0.03408
G1 X108.302 Y59.917 E0.03529
G1 X111.892 Y59.047 E0.11583
G1 X113.214 Y59.063 E0.04144
G1 X114.380 Y59.418 E0.03822
G1 X115.411 Y60.031 E0.03762
G1 X116.372 Y61.047 E0.04386
G1 X116.972 Y62.283 E0.04309
G1 X117.336 Y63.906 E0.05213
G1 X125.150 Y122.535 E1.85452
G1 X125.512 Y124.714 E0.06925
G1 X125.995 Y126.791 E0.06687
G1 X126.612 Y128.833 E0.06687
G1 X127.384 Y130.902 E0.06925
G1 X129.335 Y135.655 E0.16112
G1 X129.582 Y136.730 E0.03458
G1 X129.581 Y158.383 E0.67892
G1 X129.065 Y159.877 E0.04955
G1 X128.807 Y160.255 E0.01435
G1 X128.036 Y161.094 E0.03574
G1 X126.642 Y161.858 E0.04986
G1 X125.016 Y162.184 E0.05199
G1 X123.447 Y162.011 E0.04947
G1 X122.976 Y161.848 E0.01563
G1 X121.733 Y161.064 E0.04608
G1 X120.839 Y159.935 E0.04518
G1 X120.166 Y158.254 E0.05675
G1 X119.096 Y155.393 E0.09578
G1 X118.694 Y154.264 E0.03757
G1 X117.560 Y150.774 E0.11506
G1 X116.389 Y146.601 E0.13589
G1 X115.546 Y143.029 E0.11510
G1 X115.283 Y141.799 E0.03943
G1 X114.602 Y138.155 E0.11625
G1 X114.024 Y134.197 E0.12539
G1 X105.719 Y66.064 E2.15209
G1 X105.442 Y64.833 E0.03956
G1 X105.441 Y63.660 E0.03678
G1 X105.742 Y62.543 E0.03626
G1 E-3.50000 F3600.000
;WIPE_START
G1 F7200.000
G1 X106.533 Y61.217 E-0.73362
G1 X107.320 Y60.467 E-0.51629
G1 X107.642 Y60.287 E-0.17510
;WIPE_END
G1 E-0.07500 F3600.000
G1 X111.957 Y59.419 F9000.000
G1 E5.00000 F2400.000
G1 F1200.000
G1 X113.179 Y59.439 E0.03833
G1 X114.245 Y59.770 E0.03499
G1 X115.194 Y60.340 E0.03468
G1 X116.077 Y61.283 E0.04052
G1 X116.609 Y62.387 E0.03841
G1 X116.966 Y63.980 E0.05120
G1 X123.814 Y115.362 E1.62528
G1 E-3.50000 F3600.000
;WIPE_START
G1 F7200.000
G1 X123.417 Y112.388 E-1.42500
;WIPE_END
G1 E-0.07500 F3600.000
G1 X125.906 Y127.799 F9000.000
G1 E5.00000 F2400.000
G1 F1200.000
G1 X126.254 Y128.953 E0.03779
G1 X127.033 Y131.039 E0.06982
G1 X128.981 Y135.785 E0.16083
G1 X129.205 Y136.752 E0.03114
G1 X129.214 Y158.291 E0.67535
G1 X128.739 Y159.687 E0.04623
G1 X128.520 Y160.010 E0.01224
G1 X127.780 Y160.816 E0.03431
G1 X126.540 Y161.494 E0.04431
G1 X124.971 Y161.808 E0.05015
G1 X123.512 Y161.639 E0.04607
G1 X123.157 Y161.516 E0.01178
G1 X122.007 Y160.803 E0.04244
G1 X121.178 Y159.768 E0.04155
G1 X120.519 Y158.120 E0.05566
G1 X119.451 Y155.265 E0.09557
G1 X119.052 Y154.145 E0.03728
G1 X117.920 Y150.661 E0.11486
G1 X116.755 Y146.511 E0.13516
G1 X115.913 Y142.944 E0.11492
G1 X115.652 Y141.722 E0.03916
G1 X114.974 Y138.096 E0.11566
G1 X114.398 Y134.149 E0.12507
G1 X106.091 Y65.999 E2.15261
G1 X105.814 Y64.771 E0.03948
G1 X105.818 Y63.687 E0.03399
G1 X106.114 Y62.612 E0.03495
G1 X106.840 Y61.437 E0.04333
G1 X107.562 Y60.758 E0.03107
G1 X108.416 Y60.277 E0.03073
G1 X111.957 Y59.419 E0.11425
G1 X113.143 Y59.816 F9000.000
G1 F1200.000
G1 X112.022 Y59.791 E0.03517
G1 X108.531 Y60.637 E0.11261
G1 X107.769 Y61.073 E0.02755
G1 X107.147 Y61.658 E0.02676
G1 X106.469 Y62.741 E0.04007
G1 X106.195 Y63.716 E0.03174
G1 X106.187 Y64.710 E0.03116
G1 X106.463 Y65.935 E0.03938
G1 X114.772 Y134.102 E2.15313
G1 X115.347 Y138.038 E0.12474
G1 X116.022 Y141.651 E0.11523
G1 X116.281 Y142.859 E0.03875
G1 X117.122 Y146.420 E0.11473
G1 X118.280 Y150.549 E0.13443
G1 X119.410 Y154.026 E0.11465
G1 X119.805 Y155.138 E0.03698
G1 X120.871 Y157.986 E0.09536
G1 X121.518 Y159.601 E0.05455
G1 X122.278 Y160.539 E0.03786
G1 X123.335 Y161.184 E0.03881
G1 X123.578 Y161.267 E0.00805
G1 X124.927 Y161.432 E0.04263
G1 X126.438 Y161.130 E0.04830
G1 X127.523 Y160.538 E0.03875
G1 X128.232 Y159.766 E0.03287
G1 X128.411 Y159.499 E0.01008
G1 X128.847 Y158.201 E0.04294
G1 X128.828 Y136.774 E0.67182
G1 X128.626 Y135.914 E0.02770
G1 X126.682 Y131.177 E0.16056
G1 X126.304 Y130.164 E0.03389
G1 E-3.50000 F3600.000
;WIPE_START
G1 F7200.000
G1 X126.682 Y131.177 E-0.51338
G1 X127.410 Y132.952 E-0.91162
;WIPE_END
G1 E-0.07500 F3600.000
G1 X125.538 Y127.885 F9000.000
G1 E5.00000 F2400.000
G1 F1200.000
G1 X125.266 Y126.985 E0.02947
G1 X124.772 Y124.861 E0.06839
G1 X124.404 Y122.646 E0.07039
G1 X123.441 Y115.421 E0.22856
G1 E-3.50000 F3600.000
;WIPE_START
G1 F7200.000
G1 X123.837 Y118.394 E-1.42500
;WIPE_END
G1 E-0.07500 F3600.000
G1 X121.984 Y104.488 F9000.000
G1 E5.00000 F2400.000
G1 F1200.000
G1 X116.596 Y64.055 E1.27895
G1 X116.246 Y62.490 E0.05029
G1 X115.781 Y61.518 E0.03378
G1 X114.975 Y60.648 E0.03718
G1 X114.109 Y60.123 E0.03176
G1 X113.143 Y59.816 E0.03176
G1 X112.086 Y60.164 F9000.000
G1 F1200.000
G1 X113.105 Y60.192 E0.03196
G1 X113.970 Y60.474 E0.02853
G1 X114.754 Y60.955 E0.02886
G1 X115.483 Y61.751 E0.03383
G1 X115.882 Y62.592 E0.02919
G1 X116.226 Y64.129 E0.04938
G1 X120.156 Y93.621 E0.93288
G1 E-3.50000 F3600.000
;WIPE_START
G1 F7200.000
G1 X119.760 Y90.647 E-1.42500
;WIPE_END
G1 E-0.07500 F3600.000
G1 X121.612 Y104.550 F9000.000
G1 E5.00000 F2400.000
G1 F1200.000
G1 X124.031 Y122.702 E0.57417
G1 X124.402 Y124.935 E0.07096
G1 X124.902 Y127.083 E0.06915
G1 X125.539 Y129.194 E0.06915
G1 X125.938 Y130.262 E0.03575
G1 X126.613 Y132.002 F9000.000
G1 F1200.000
G1 X128.271 Y136.043 E0.13695
G1 X128.456 Y136.838 E0.02560
G1 X128.480 Y158.112 E0.66701
G1 X128.082 Y159.313 E0.03968
G1 X127.944 Y159.523 E0.00787
G1 X127.266 Y160.260 E0.03139
G1 X126.336 Y160.766 E0.03320
G1 X125.327 Y160.968 E0.03227
G1 X125.174 Y160.998 F9000.000
G1 F1200.000
G1 X124.884 Y161.056 E0.00928
G1 X123.646 Y160.896 E0.03916
G1 X123.511 Y160.850 E0.00447
G1 X122.548 Y160.274 E0.03519
G1 X121.857 Y159.433 E0.03411
G1 X121.223 Y157.852 E0.05341
G1 X120.160 Y155.010 E0.09515
G1 X119.768 Y153.907 E0.03669
G1 X118.640 Y150.436 E0.11445
G1 X117.488 Y146.330 E0.13370
G1 X116.648 Y142.774 E0.11455
G1 X116.393 Y141.579 E0.03833
G1 X115.720 Y137.980 E0.11480
G1 X115.146 Y134.054 E0.12441
G1 X106.835 Y65.871 E2.15366
G1 X106.560 Y64.649 E0.03927
G1 X106.571 Y63.747 E0.02828
G1 X106.823 Y62.873 E0.02853
G1 X107.452 Y61.880 E0.03683
G1 X107.977 Y61.388 E0.02258
G1 X108.647 Y60.997 E0.02433
G1 X112.086 Y60.164 E0.11092
G1 X113.063 Y60.567 F9000.000
G1 F1200.000
G1 X113.828 Y60.824 E0.02529
G1 X114.532 Y61.261 E0.02599
G1 X115.184 Y61.982 E0.03049
G1 X115.519 Y62.694 E0.02467
G1 X115.857 Y64.203 E0.04848
G1 X118.329 Y82.762 E0.58705
G1 E-3.50000 F3600.000
;WIPE_START
G1 F7200.000
G1 X117.933 Y79.789 E-1.42500
;WIPE_END
G1 E-0.07500 F3600.000
G1 X119.785 Y93.688 F9000.000
G1 E5.00000 F2400.000
G1 F1200.000
G1 X123.658 Y122.758 E0.91953
G1 X124.032 Y125.008 E0.07153
G1 X124.537 Y127.180 E0.06991
G1 X125.182 Y129.315 E0.06991
G1 X125.979 Y131.452 E0.07153
G1 X126.248 Y132.106 E0.02218
G1 X126.896 Y133.685 F9000.000
G1 F1200.000
G1 X127.917 Y136.173 E0.08431
G1 X128.079 Y136.861 E0.02217
G1 X128.102 Y158.081 E0.66535
G1 X127.752 Y159.129 E0.03464
G1 X127.655 Y159.280 E0.00563
G1 X127.010 Y159.982 E0.02988
G1 X126.866 Y160.060 E0.00515
G1 X125.234 Y160.602 F9000.000
G1 F1200.000
G1 X125.139 Y160.621 E0.00305
G1 E-3.50000 F3600.000
;WIPE_START
G1 F7200.000
G1 X125.234 Y160.602 E-0.04626
;WIPE_END
G1 E-1.45374 F3600.000
G1 X122.937 Y160.077 F9000.000
G1 E5.00000 F2400.000
G1 F1200.000
G1 X122.815 Y160.006 E0.00444
G1 X122.195 Y159.265 E0.03028
G1 X121.576 Y157.718 E0.05225
G1 X120.515 Y154.882 E0.09494
G1 X120.126 Y153.788 E0.03640
G1 X118.999 Y150.323 E0.11425
G1 X117.854 Y146.240 E0.13297
G1 X117.016 Y142.690 E0.11436
G1 X116.763 Y141.507 E0.03792
G1 X116.092 Y137.922 E0.11437
G1 X115.520 Y134.006 E0.12408
G1 X107.207 Y65.806 E2.15418
G1 X106.933 Y64.589 E0.03913
G1 X106.948 Y63.780 E0.02534
G1 X107.177 Y63.007 E0.02531
G1 X107.756 Y62.104 E0.03361
G1 X108.189 Y61.701 E0.01855
G1 X108.765 Y61.356 E0.02105
G1 X112.149 Y60.537 E0.10918
G1 X113.063 Y60.567 E0.02868
G1 X112.211 Y60.909 F9000.000
G1 F1200.000
G1 X113.019 Y60.943 E0.02533
G1 X113.683 Y61.172 E0.02204
G1 X114.308 Y61.565 E0.02314
G1 X114.883 Y62.211 E0.02713
G1 X115.155 Y62.796 E0.02022
G1 X115.487 Y64.278 E0.04760
G1 X116.504 Y71.911 E0.24147
G1 E-3.50000 F3600.000
;WIPE_START
G1 F7200.000
G1 X116.108 Y68.938 E-1.42500
;WIPE_END
G1 E-0.07500 F3600.000
G1 X117.959 Y82.833 F9000.000
G1 E5.00000 F2400.000
G1 F1200.000
G1 X123.285 Y122.814 E1.26465
G1 X123.662 Y125.082 E0.07210
G1 X124.173 Y127.277 E0.07067
G1 X124.824 Y129.435 E0.07067
G1 X125.628 Y131.589 E0.07210
G1 X126.531 Y133.789 E0.07456
G1 X127.179 Y135.368 F9000.000
G1 F1200.000
G1 X127.563 Y136.303 E0.03167
G1 X127.702 Y136.884 E0.01873
G1 X127.725 Y158.050 E0.66366
G1 X127.421 Y158.949 E0.02975
G1 X127.359 Y159.045 E0.00357
G1 X126.593 Y159.790 F9000.000
G1 F1200.000
G1 X126.134 Y160.037 E0.01637
G1 X124.801 Y160.304 E0.04261
G1 X123.824 Y160.160 E0.03094
G1 X123.196 Y159.802 E0.02268
G1 E-3.50000 F3600.000
;WIPE_START
G1 F7200.000
G1 X123.824 Y160.160 E-0.34363
G1 X124.801 Y160.304 E-0.46878
G1 X126.065 Y160.051 E-0.61258
;WIPE_END
G1 E-0.07500 F3600.000
G1 X107.528 Y63.150 F9000.000
G1 E5.00000 F2400.000
G1 F1200.000
G1 X108.059 Y62.330 E0.03062
G1 X108.403 Y62.012 E0.01471
G1 X108.884 Y61.716 E0.01771
G1 X112.211 Y60.909 E0.10736
G1 E-3.50000 F3600.000
;WIPE_START
G1 F7200.000
G1 X109.296 Y61.616 E-1.42500
;WIPE_END
G1 E-0.07500 F3600.000
G1 X107.871 Y63.317 F9000.000
G1 E5.00000 F2400.000
G1 F1200.000
G1 X107.685 Y63.945 E0.02052
G1 X107.678 Y64.466 E0.01635
G1 X107.951 Y65.677 E0.03893
G1 X116.268 Y133.910 E2.15522
G1 X116.836 Y137.798 E0.12319
G1 X117.502 Y141.359 E0.11359
G1 X117.751 Y142.520 E0.03724
G1 X118.584 Y146.051 E0.11374
G1 X119.719 Y150.097 E0.13176
G1 X120.840 Y153.545 E0.11368
G1 X121.223 Y154.623 E0.03588
G1 X122.281 Y157.450 E0.09462
G1 X122.871 Y158.924 E0.04981
G1 X123.342 Y159.463 E0.02241
G1 X123.919 Y159.794 E0.02086
G1 X124.761 Y159.927 E0.02674
G1 X126.030 Y159.674 E0.04058
G1 X126.542 Y159.390 E0.01835
G1 X127.017 Y158.861 E0.02229
G1 E-3.50000 F3600.000
;WIPE_START
G1 F7200.000
G1 X126.542 Y159.390 E-0.33768
G1 X126.030 Y159.674 E-0.27804
G1 X124.761 Y159.927 E-0.61473
G1 X124.356 Y159.863 E-0.19455
;WIPE_END
G1 E-0.07500 F3600.000
G1 X126.814 Y135.472 F9000.000
G1 E5.00000 F2400.000
G1 F1200.000
G1 X125.277 Y131.727 E0.12694
G1 X124.467 Y129.556 E0.07267
G1 X123.808 Y127.375 E0.07143
G1 X123.292 Y125.156 E0.07143
G1 X122.912 Y122.870 E0.07267
G1 X116.134 Y71.986 E1.60951
G1 E-3.50000 F3600.000
;WIPE_START
G1 F7200.000
G1 X116.530 Y74.960 E-1.42500
;WIPE_END
G1 E-0.07500 F3600.000
G1 X109.180 Y62.409 F9000.000
G1 E5.00000 F2400.000
G1 F1200.000
G1 X112.332 Y61.656 E0.10160
G1 X112.921 Y61.692 E0.01848
G1 X113.317 Y61.833 E0.01318
G1 X113.858 Y62.173 E0.02004
G1 X114.276 Y62.661 E0.02016
G1 X114.427 Y62.998 E0.01157
G1 X114.744 Y64.410 E0.04538
G1 X122.539 Y122.925 E1.85091
G1 X122.922 Y125.230 E0.07324
G1 X123.444 Y127.472 E0.07219
G1 X124.109 Y129.676 E0.07219
G1 X124.926 Y131.865 E0.07324
G1 X126.854 Y136.562 E0.15921
G1 X126.953 Y136.972 E0.01321
G1 X126.971 Y157.984 E0.65884
G1 X126.750 Y158.596 E0.02038
G1 X126.325 Y159.080 E0.02020
G1 X125.925 Y159.310 E0.01449
G1 X124.720 Y159.551 E0.03853
G1 X124.076 Y159.450 E0.02042
G1 X123.559 Y159.153 E0.01870
G1 X123.180 Y158.706 E0.01837
G1 X122.633 Y157.317 E0.04681
G1 X121.578 Y154.495 E0.09444
G1 X121.197 Y153.426 E0.03559
G1 X120.079 Y149.984 E0.11348
G1 X118.948 Y145.953 E0.13127
G1 X118.118 Y142.436 E0.11331
G1 X117.871 Y141.283 E0.03698
G1 X117.207 Y137.732 E0.11325
G1 X116.642 Y133.862 E0.12263
G1 X108.323 Y65.613 E2.15575
G1 X108.051 Y64.404 E0.03884
G1 X108.055 Y64.022 E0.01198
G1 X108.216 Y63.457 E0.01844
G1 X108.634 Y62.818 E0.02392
G1 X108.838 Y62.628 E0.00876
G1 X109.130 Y62.442 E0.01086
G1 X109.333 Y62.759 F9000.000
G1 F1200.000
G1 X112.389 Y62.030 E0.09851
G1 X112.865 Y62.066 E0.01497
G1 X113.132 Y62.162 E0.00892
G1 X113.631 Y62.476 E0.01845
G1 X113.968 Y62.880 E0.01652
G1 X114.063 Y63.097 E0.00742
G1 X114.372 Y64.468 E0.04406
G1 X122.166 Y122.981 E1.85084
G1 X122.552 Y125.303 E0.07381
G1 X123.079 Y127.569 E0.07295
G1 X123.752 Y129.797 E0.07295
G1 X124.575 Y132.002 E0.07381
G1 X126.499 Y136.691 E0.15892
G1 X126.581 Y137.037 E0.01113
G1 X126.594 Y157.952 E0.65579
G1 X126.441 Y158.378 E0.01420
G1 X126.102 Y158.775 E0.01636
G1 X125.817 Y158.947 E0.01045
G1 X124.679 Y159.175 E0.03639
G1 X124.228 Y159.103 E0.01430
G1 X123.818 Y158.877 E0.01468
G1 X123.518 Y158.536 E0.01424
G1 X122.986 Y157.183 E0.04559
G1 X121.932 Y154.365 E0.09435
G1 X121.553 Y153.302 E0.03536
G1 X120.441 Y149.879 E0.11287
G1 X119.314 Y145.863 E0.13078
G1 X118.486 Y142.351 E0.11312
G1 X118.241 Y141.206 E0.03671
G1 X117.579 Y137.667 E0.11290
G1 X117.016 Y133.814 E0.12206
G1 X108.695 Y65.549 E2.15627
G1 X108.424 Y64.343 E0.03877
G1 X108.426 Y64.095 E0.00775
G1 X108.549 Y63.635 E0.01495
G1 X108.911 Y63.075 E0.02091
G1 X109.057 Y62.935 E0.00633
G1 X109.282 Y62.792 E0.00837
G1 X108.797 Y64.163 F9000.000
G1 F1200.000
G1 X108.885 Y63.809 E0.01142
G1 X109.192 Y63.326 E0.01795
G1 X109.278 Y63.242 E0.00379
G1 X109.532 Y63.080 E0.00943
G1 X112.442 Y62.404 E0.09368
G1 X112.803 Y62.438 E0.01135
G1 X112.948 Y62.492 E0.00484
G1 X113.402 Y62.777 E0.01683
G1 X113.656 Y63.093 E0.01271
G1 X113.699 Y63.195 E0.00346
G1 X113.999 Y64.526 E0.04280
G1 X121.793 Y123.037 E1.85076
G1 X122.182 Y125.377 E0.07438
G1 X122.715 Y127.667 E0.07371
G1 X123.394 Y129.917 E0.07371
G1 X124.224 Y132.140 E0.07438
G1 X126.145 Y136.822 E0.15869
G1 X126.204 Y137.060 E0.00769
G1 X126.217 Y157.920 E0.65403
G1 X126.129 Y158.164 E0.00815
G1 X125.869 Y158.478 E0.01276
G1 X125.704 Y158.585 E0.00617
G1 X124.638 Y158.798 E0.03410
G1 X124.382 Y158.757 E0.00812
G1 X124.029 Y158.563 E0.01264
G1 X123.857 Y158.367 E0.00815
G1 X123.339 Y157.049 E0.04441
G1 X122.285 Y154.234 E0.09425
G1 X121.911 Y153.183 E0.03498
G1 X120.803 Y149.773 E0.11243
G1 X119.680 Y145.772 E0.13029
G1 X118.853 Y142.266 E0.11294
