; generated by PrusaSlicer 2.3.0 on 2023-04-15 at 12:47:25 UTC

; 

; external perimeters extrusion width = 0.45mm
; perimeters extrusion width = 0.45mm
; infill extrusion width = 0.45mm
; solid infill extrusion width = 0.45mm
; top infill extrusion width = 0.40mm
; support material extrusion width = 0.38mm
; first layer extrusion width = 0.42mm

M201 X500 Y500 Z100 E5000 ; sets maximum accelerations, mm/sec^2
M203 X500 Y500 Z10 E60 ; sets maximum feedrates, mm/sec
M204 P500 R1000 T500 ; sets acceleration (P, T) and retract acceleration (R), mm/sec^2
M205 X8.00 Y8.00 Z0.40 E5.00 ; sets the jerk limits, mm/sec
M205 S0 T0 ; sets the minimum extruding and travel feed rate, mm/sec
M107
;TYPE:Custom
G90 ; use absolute coordinates
M83 ; extruder relative mode
M104 S210 ; set extruder temp
M140 S60 ; set bed temp
M190 S60 ; wait for bed temp
M109 S210 ; wait for extruder temp
G28 ; home all
G1 Z2 F240
G1 X2 Y10 F3000
G1 Z0.28 F240
G92 E0
G1 Y190 E15 F1500 ; intro line
G1 X2.3 F5000
G92 E0
G1 Y10 E15 F1200 ; intro line
G92 E0
G21 ; set units to millimeters
G90 ; use absolute coordinates
M83 ; use relative distances for extrusion
; Filament gcode
;LAYER_CHANGE
;Z:0.2
;HEIGHT:0.2
;BEFORE_LAYER_CHANGE
G92 E0
;0.2


G1 E-5.00000 F3600.000
G1 Z0.200 F9000.000
;AFTER_LAYER_CHANGE
;0.2
G1 X126.649 Y79.711
G1 E5.00000 F2400.000
;TYPE:Skirt
;WIDTH:0.42
G1 F1200.000
G1 X127.562 Y79.531 E0.02919
G1 X138.329 Y79.710 E0.33763
G1 X138.821 Y79.807 E0.01574
G1 X139.282 Y80.006 E0.01574
G1 X139.691 Y80.297 E0.01574
G1 X140.027 Y80.664 E0.01562
G1 X151.143 Y96.059 E0.59537
G1 X151.442 Y96.627 E0.02012
G1 X151.586 Y97.417 E0.02520
G1 X151.586 Y110.601 E0.41337
G1 X151.515 Y111.159 E0.01763
G1 X151.317 Y111.681 E0.01752
G1 X150.776 Y112.369 E0.02743
G1 X110.509 Y147.478 E1.67506
G1 X109.889 Y147.755 E0.02130
G1 X100.480 Y150.334 E0.30589
G1 X93.298 Y150.350 E0.22517
G1 X91.484 Y150.147 E0.05725
G1 X90.791 Y149.912 E0.02296
G1 X90.385 Y149.643 E0.01526
G1 X90.040 Y149.294 E0.01538
G1 X83.560 Y140.903 E0.33243
G1 X81.838 Y138.433 E0.09439
G1 X81.589 Y137.946 E0.01716
G1 X81.439 Y137.149 E0.02543
G1 X81.439 Y126.564 E0.33188
G1 X81.510 Y126.010 E0.01752
G1 X81.708 Y125.488 E0.01752
G1 X82.116 Y124.925 E0.02178
G1 X125.875 Y80.228 E1.96124
G1 X126.599 Y79.744 E0.02731
G1 E-3.50000 F3600.000
;WIPE_START
G1 F7200.000
G1 X127.562 Y79.531 E-0.46865
G1 X129.575 Y79.564 E-0.95635
;WIPE_END
G1 E-0.07500 F3600.000
G1 X122.674 Y83.229 F9000.000
G1 E5.00000 F2400.000
G1 F1200.000
G1 X122.681 Y81.202 E0.06354
G1 X122.956 Y80.168 E0.03356
G1 X123.363 Y79.357 E0.02844
G1 X124.478 Y78.153 E0.05145
G1 X125.680 Y77.470 E0.04336
G1 X126.963 Y77.191 E0.04116
G1 X127.712 Y77.202 E0.02348
G1 X127.965 Y77.175 E0.00797
G1 X138.517 Y77.175 E0.33087
G1 X140.097 Y77.574 E0.05108
G1 X141.396 Y78.413 E0.04850
G1 X142.382 Y79.611 E0.04864
G1 X142.731 Y80.368 E0.02615
G1 X142.954 Y81.159 E0.02577
G1 X142.971 Y84.420 E0.10222
G1 X142.974 Y85.068 F9000.000
G1 F1200.000
G1 X143.006 Y91.102 E0.18918
G1 X142.807 Y92.048 E0.03031
G1 X142.569 Y92.541 E0.01718
G1 X148.385 Y92.562 E0.18237
G1 X148.852 Y92.564 F9000.000
G1 F1200.000
G1 X149.883 Y92.567 E0.03234
G1 X151.175 Y92.931 E0.04207
G1 X152.239 Y93.570 E0.03891
G1 X153.228 Y94.602 E0.04483
G1 X153.729 Y95.499 E0.03220
G1 X154.111 Y96.986 E0.04814
G1 X154.111 Y111.092 E0.44228
G1 X153.813 Y112.315 E0.03949
G1 X153.388 Y113.159 E0.02962
G1 X152.112 Y114.466 E0.05726
G1 X151.032 Y115.040 E0.03836
G1 X150.044 Y115.276 E0.03184
G1 X149.085 Y115.284 E0.03006
G1 X148.802 Y115.314 E0.00892
G1 X148.106 Y115.314 E0.02183
G1 X147.716 Y115.883 E0.02163
G1 X146.856 Y116.714 E0.03748
G1 X146.767 Y116.971 E0.00853
G1 X145.931 Y118.328 E0.04999
G1 X145.066 Y119.105 E0.03645
G1 X144.414 Y119.498 E0.02386
G1 X143.734 Y119.752 E0.02277
G1 X143.286 Y120.443 E0.02584
G1 X142.391 Y121.332 E0.03955
G1 X141.366 Y121.935 E0.03728
G1 X140.246 Y122.272 E0.03667
G1 X139.685 Y122.290 E0.01760
G1 X139.089 Y122.309 F9000.000
G1 F1200.000
G1 X139.048 Y122.345 E0.00173
G1 E-3.50000 F3600.000
;WIPE_START
G1 F7200.000
G1 X139.089 Y122.309 E-0.02618
;WIPE_END
G1 E-1.47382 F3600.000
G1 X137.144 Y124.505 F9000.000
G1 E5.00000 F2400.000
G1 F1200.000
G1 X136.616 Y125.294 E0.02978
G1 X136.027 Y125.872 E0.02588
G1 X135.380 Y126.341 E0.02504
G1 X134.757 Y126.617 E0.02137
G1 X134.167 Y127.543 E0.03441
G1 X133.410 Y128.287 E0.03329
G1 X132.661 Y128.793 E0.02835
G1 X132.162 Y129.694 E0.03227
G1 X131.229 Y130.646 E0.04182
G1 X130.268 Y131.249 E0.03556
G1 X129.772 Y132.051 E0.02957
G1 X128.952 Y132.909 E0.03723
G1 X127.832 Y133.603 E0.04131
G1 X127.047 Y133.859 E0.02588
G1 X126.641 Y134.537 E0.02479
G1 X125.865 Y135.276 E0.03360
G1 X125.748 Y135.637 E0.01188
G1 X124.986 Y136.923 E0.04689
G1 X124.369 Y137.534 E0.02722
G1 X123.666 Y138.043 E0.02724
G1 X122.583 Y138.504 E0.03689
G1 X122.118 Y139.195 E0.02612
G1 X121.271 Y140.031 E0.03730
G1 X121.141 Y140.122 E0.00498
G1 X121.071 Y140.317 E0.00650
G1 X120.311 Y141.599 E0.04676
G1 X119.686 Y142.216 E0.02753
G1 X118.955 Y142.738 E0.02815
G1 X118.097 Y143.083 E0.02900
G1 X117.604 Y143.866 E0.02900
G1 X116.794 Y144.671 E0.03582
G1 X116.451 Y144.882 E0.01261
G1 X115.559 Y146.363 E0.05420
G1 X114.650 Y147.173 E0.03819
G1 X113.975 Y147.570 E0.02456
G1 X113.559 Y147.719 E0.01386
G1 X113.084 Y148.534 E0.02958
G1 X111.799 Y149.680 E0.05399
G1 X111.008 Y150.053 E0.02741
G1 X109.694 Y150.371 E0.04238
G1 X104.442 Y150.371 E0.16468
G1 X104.209 Y150.763 E0.01431
G1 X103.063 Y151.884 E0.05027
G1 X102.040 Y152.422 E0.03621
G1 X100.907 Y152.682 E0.03647
G1 X100.051 Y152.679 E0.02684
G1 X99.782 Y152.708 E0.00848
G1 X93.838 Y152.708 E0.18635
G1 X93.234 Y152.682 E0.01898
G1 X92.994 Y152.708 E0.00756
G1 X91.508 Y152.708 E0.04659
G1 X90.284 Y152.457 E0.03917
G1 X89.205 Y151.929 E0.03768
G1 X88.292 Y151.141 E0.03781
G1 X87.711 Y150.420 E0.02902
G1 X87.057 Y148.695 E0.05785
G1 X87.017 Y145.689 E0.09426
G1 X87.009 Y145.061 F9000.000
G1 F1200.000
G1 X87.000 Y144.344 E0.02248
G1 X86.451 Y144.339 E0.01719
G1 X85.971 Y144.334 F9000.000
G1 F1200.000
G1 X84.770 Y144.322 E0.03768
G1 X83.621 Y144.024 E0.03720
G1 X82.602 Y143.471 E0.03636
G1 X81.399 Y142.256 E0.05360
G1 X80.855 Y141.227 E0.03652
G1 X80.769 Y140.948 E0.00913
G1 X79.888 Y140.074 E0.03893
G1 X79.110 Y138.569 E0.05312
G1 X78.914 Y137.495 E0.03422
G1 X78.914 Y126.077 E0.35801
G1 X79.212 Y124.854 E0.03947
G1 X79.622 Y124.036 E0.02870
G1 X80.809 Y122.774 E0.05431
G1 X81.943 Y122.150 E0.04059
G1 X83.121 Y121.882 E0.03786
G1 X84.456 Y121.876 E0.04187
G1 X84.778 Y121.937 E0.01026
G1 X85.223 Y122.021 F9000.000
G1 F1200.000
G1 X85.456 Y122.065 E0.00744
G1 X86.576 Y122.600 E0.03891
G1 X86.925 Y122.898 E0.01438
G1 X88.868 Y120.387 E0.09954
G1 X90.241 Y118.682 E0.06864
G1 X92.959 Y115.421 E0.13310
G1 X95.750 Y112.232 E0.13287
G1 X98.640 Y109.094 E0.13374
G1 X101.575 Y106.076 E0.13201
G1 X103.130 Y104.544 E0.06843
G1 X104.657 Y103.085 E0.06624
G1 X106.198 Y101.654 E0.06594
G1 X107.804 Y100.206 E0.06780
G1 X110.961 Y97.481 E0.13074
G1 X114.179 Y94.857 E0.13019
G1 X115.867 Y93.539 E0.06715
G1 X117.509 Y92.291 E0.06469
G1 X119.178 Y91.057 E0.06508
G1 X120.886 Y89.828 E0.06596
G1 X122.656 Y88.603 E0.06749
G1 X122.672 Y83.769 E0.15155
G1 X123.046 Y83.387 F9000.000
G1 F1200.000
G1 X123.032 Y88.801 E0.16974
G1 X121.102 Y90.137 E0.07361
G1 X119.400 Y91.362 E0.06576
G1 X117.735 Y92.593 E0.06493
G1 X116.096 Y93.838 E0.06453
G1 X114.416 Y95.151 E0.06684
G1 X111.201 Y97.772 E0.13005
G1 X108.052 Y100.490 E0.13043
G1 X106.452 Y101.933 E0.06756
G1 X104.914 Y103.360 E0.06577
G1 X103.391 Y104.816 E0.06607
G1 X101.844 Y106.341 E0.06811
G1 X98.912 Y109.356 E0.13187
G1 X96.032 Y112.482 E0.13327
G1 X93.244 Y115.668 E0.13273
G1 X90.531 Y118.922 E0.13284
G1 X89.165 Y120.619 E0.06832
G1 X86.971 Y123.454 E0.11240
G1 X86.385 Y122.926 E0.02473
G1 X85.360 Y122.431 E0.03570
G1 X84.908 Y122.343 E0.01445
G1 X84.464 Y122.258 F9000.000
G1 F1200.000
G1 X83.182 Y122.254 E0.04020
G1 X82.101 Y122.493 E0.03470
G1 X81.017 Y123.090 E0.03879
G1 X79.946 Y124.230 E0.04905
G1 X79.573 Y124.967 E0.02588
G1 X79.291 Y126.101 E0.03664
G1 X79.291 Y137.478 E0.35673
G1 X79.475 Y138.472 E0.03170
G1 X80.208 Y139.872 E0.04953
G1 X81.105 Y140.748 E0.03932
G1 X81.198 Y141.069 E0.01046
G1 X81.720 Y142.055 E0.03500
G1 X82.806 Y143.153 E0.04842
G1 X83.780 Y143.681 E0.03475
G1 X84.840 Y143.951 E0.03428
G1 X85.680 Y143.957 E0.02635
G1 X86.159 Y143.960 F9000.000
G1 F1200.000
G1 X87.373 Y143.969 E0.03806
G1 X87.390 Y145.554 E0.04970
G1 X87.397 Y146.180 F9000.000
G1 F1200.000
G1 X87.422 Y148.594 E0.07572
G1 X88.024 Y150.209 E0.05402
G1 X88.552 Y150.867 E0.02644
G1 X89.433 Y151.627 E0.03647
G1 X90.427 Y152.107 E0.03462
G1 X91.527 Y152.331 E0.03520
G1 X92.983 Y152.331 E0.04566
G1 X93.220 Y152.304 E0.00748
G1 X93.842 Y152.331 E0.01952
G1 X99.771 Y152.331 E0.18589
G1 X100.030 Y152.302 E0.00817
G1 X100.886 Y152.305 E0.02683
G1 X101.930 Y152.061 E0.03362
G1 X102.860 Y151.565 E0.03306
G1 X103.924 Y150.514 E0.04687
G1 X104.221 Y149.994 E0.01880
G1 X109.671 Y149.994 E0.17090
G1 X110.899 Y149.692 E0.03963
G1 X111.611 Y149.352 E0.02475
G1 X112.808 Y148.275 E0.05048
G1 X113.300 Y147.409 E0.03124
G1 X113.801 Y147.235 E0.01661
G1 X114.443 Y146.858 E0.02335
G1 X115.286 Y146.102 E0.03551
G1 X116.072 Y144.788 E0.04801
G1 X116.128 Y144.636 E0.00507
G1 X116.545 Y144.386 E0.01525
G1 X117.322 Y143.614 E0.03435
G1 X117.843 Y142.778 E0.03087
G1 X118.756 Y142.417 E0.03079
G1 X119.432 Y141.937 E0.02600
G1 X120.028 Y141.349 E0.02626
G1 X120.734 Y140.145 E0.04375
G1 X120.824 Y139.876 E0.00890
G1 X121.022 Y139.747 E0.00742
G1 X121.839 Y138.941 E0.03598
G1 X122.332 Y138.200 E0.02788
G1 X123.462 Y137.725 E0.03845
G1 X124.136 Y137.237 E0.02608
G1 X124.703 Y136.674 E0.02507
G1 X125.411 Y135.466 E0.04388
G1 X125.532 Y135.072 E0.01293
G1 X126.361 Y134.283 E0.03589
G1 X126.794 Y133.543 E0.02687
G1 X127.655 Y133.269 E0.02834
G1 X128.696 Y132.631 E0.03830
G1 X129.487 Y131.804 E0.03585
G1 X129.883 Y131.168 E0.02351
G1 X129.973 Y130.947 E0.00747
G1 X130.165 Y130.872 E0.00647
G1 X130.975 Y130.366 E0.02994
G1 X131.874 Y129.449 E0.04027
G1 X132.236 Y128.784 E0.02371
G1 X133.026 Y128.096 F9000.000
G1 F1200.000
G1 X133.158 Y128.006 E0.00500
G1 X133.389 Y127.779 E0.01017
G1 E-3.50000 F3600.000
;WIPE_START
G1 F7200.000
G1 X133.158 Y128.006 E-0.15415
G1 X133.026 Y128.096 E-0.07568
;WIPE_END
G1 E-1.27018 F3600.000
G1 X136.861 Y124.252 F9000.000
G1 E5.00000 F2400.000
G1 F1200.000
G1 X136.948 Y124.120 E0.00497
G1 X137.115 Y123.683 E0.01466
G1 X137.583 Y123.412 E0.01698
G1 X138.304 Y122.736 E0.03096
G1 X138.876 Y121.937 E0.03082
G1 X139.536 Y121.920 E0.02070
G1 X140.127 Y121.904 F9000.000
G1 F1200.000
G1 X141.235 Y121.581 E0.03618
G1 X142.177 Y121.021 E0.03437
G1 X143.004 Y120.192 E0.03670
G1 X143.485 Y119.441 E0.02796
G1 X144.235 Y119.166 E0.02507
G1 X144.855 Y118.791 E0.02271
G1 X145.658 Y118.067 E0.03389
G1 X146.433 Y116.796 E0.04669
G1 X146.542 Y116.458 E0.01112
G1 X146.686 Y116.361 E0.00546
G1 X147.439 Y115.628 E0.03295
G1 X147.600 Y115.388 E0.00905
G1 X148.118 Y114.937 F9000.000
G1 F1200.000
G1 X148.791 Y114.937 E0.02112
G1 X149.062 Y114.907 E0.00854
G1 X150.020 Y114.899 E0.03002
G1 X150.879 Y114.694 E0.02768
G1 X151.865 Y114.179 E0.03490
G1 X153.066 Y112.962 E0.05362
G1 X153.452 Y112.202 E0.02670
G1 X153.734 Y111.068 E0.03665
G1 X153.734 Y97.010 E0.44080
G1 X153.387 Y95.659 E0.04371
G1 X152.938 Y94.843 E0.02920
G1 X152.021 Y93.879 E0.04173
G1 X151.047 Y93.287 E0.03572
G1 X149.806 Y92.937 E0.04044
G1 X149.120 Y92.936 E0.02149
G1 X148.654 Y92.934 F9000.000
G1 F1200.000
G1 X141.946 Y92.917 E0.21034
G1 X142.444 Y91.942 E0.03433
G1 X142.628 Y91.083 E0.02756
G1 X142.599 Y84.549 E0.20487
G1 X142.596 Y83.900 F9000.000
G1 F1200.000
G1 X142.584 Y81.237 E0.08351
G1 X142.372 Y80.485 E0.02449
G1 X142.051 Y79.792 E0.02397
G1 X141.126 Y78.677 E0.04543
G1 X139.920 Y77.909 E0.04481
G1 X138.494 Y77.552 E0.04609
G1 X127.975 Y77.552 E0.32981
G1 X127.730 Y77.579 E0.00773
G1 X126.980 Y77.569 E0.02353
G1 X125.791 Y77.832 E0.03819
G1 X124.691 Y78.465 E0.03979
G1 X123.687 Y79.551 E0.04637
G1 X123.315 Y80.284 E0.02577
G1 X123.051 Y81.275 E0.03216
G1 X123.047 Y82.847 E0.04928
G1 X123.419 Y83.006 F9000.000
G1 F1200.000
G1 X123.409 Y88.999 E0.18789
G1 X121.321 Y90.444 E0.07963
G1 X119.623 Y91.666 E0.06559
G1 X117.962 Y92.894 E0.06478
G1 X116.327 Y94.136 E0.06437
G1 X114.649 Y95.447 E0.06674
G1 X111.442 Y98.062 E0.12978
G1 X108.300 Y100.774 E0.13012
G1 X106.705 Y102.212 E0.06733
G1 X105.172 Y103.635 E0.06559
G1 X103.653 Y105.088 E0.06589
G1 X102.113 Y106.605 E0.06779
G1 X99.184 Y109.617 E0.13172
G1 X96.314 Y112.732 E0.13281
G1 X93.533 Y115.911 E0.13244
G1 X90.822 Y119.162 E0.13272
G1 X89.462 Y120.851 E0.06800
G1 X87.015 Y124.013 E0.12535
G1 X86.193 Y123.252 E0.03513
G1 X85.262 Y122.796 E0.03251
G1 X84.594 Y122.664 E0.02137
G1 X84.100 Y122.629 F9000.000
G1 F1200.000
G1 X83.240 Y122.627 E0.02698
G1 X82.258 Y122.837 E0.03148
G1 X81.225 Y123.406 E0.03697
G1 X80.269 Y124.426 E0.04384
G1 X79.933 Y125.081 E0.02307
G1 X79.668 Y126.124 E0.03376
G1 X79.668 Y137.460 E0.35542
G1 X79.840 Y138.374 E0.02915
G1 X80.526 Y139.668 E0.04592
G1 X81.442 Y140.549 E0.03984
G1 X81.541 Y140.912 E0.01181
G1 X82.040 Y141.855 E0.03344
G1 X83.012 Y142.836 E0.04330
G1 X83.897 Y143.322 E0.03166
G1 X84.910 Y143.580 E0.03279
G1 X85.391 Y143.582 E0.01507
G1 X85.869 Y143.584 F9000.000
G1 F1200.000
G1 X87.748 Y143.594 E0.05891
G1 X87.768 Y146.043 E0.07681
G1 X87.773 Y146.667 F9000.000
G1 F1200.000
G1 X87.787 Y148.496 E0.05735
G1 X88.339 Y149.998 E0.05019
G1 X88.813 Y150.595 E0.02388
G1 X89.621 Y151.299 E0.03363
G1 X90.527 Y151.743 E0.03162
G1 X91.546 Y151.954 E0.03264
G1 X92.972 Y151.954 E0.04470
G1 X93.206 Y151.926 E0.00740
G1 X93.846 Y151.954 E0.02009
G1 X99.760 Y151.954 E0.18540
G1 X100.008 Y151.924 E0.00785
G1 X100.864 Y151.928 E0.02684
G1 X101.817 Y151.700 E0.03072
G1 X102.656 Y151.247 E0.02990
G1 X103.637 Y150.268 E0.04345
G1 X103.996 Y149.616 E0.02332
G1 X109.648 Y149.616 E0.17721
G1 X110.788 Y149.331 E0.03685
G1 X111.422 Y149.025 E0.02208
G1 X112.531 Y148.018 E0.04696
G1 X113.041 Y147.098 E0.03297
G1 X113.627 Y146.899 E0.01941
G1 X114.235 Y146.543 E0.02211
G1 X115.011 Y145.842 E0.03280
G1 X115.734 Y144.618 E0.04455
G1 X115.809 Y144.384 E0.00772
G1 X116.297 Y144.101 E0.01770
G1 X117.040 Y143.363 E0.03283
G1 X117.588 Y142.472 E0.03278
G1 X118.557 Y142.096 E0.03261
G1 X119.200 Y141.639 E0.02475
G1 X119.744 Y141.099 E0.02402
G1 X120.396 Y139.976 E0.04071
G1 X120.505 Y139.627 E0.01146
G1 X120.774 Y139.461 E0.00992
G1 X121.560 Y138.686 E0.03460
G1 X122.011 Y138.001 E0.02573
G1 X122.080 Y137.840 E0.00549
G1 X122.322 Y137.801 E0.00770
G1 X123.259 Y137.406 E0.03188
G1 X123.881 Y136.959 E0.02401
G1 X124.419 Y136.424 E0.02380
G1 X125.073 Y135.299 E0.04080
G1 X125.177 Y134.939 E0.01175
G1 E-3.50000 F3600.000
;WIPE_START
G1 F7200.000
G1 X125.073 Y135.299 E-0.17799
G1 X124.419 Y136.424 E-0.61805
G1 X123.881 Y136.959 E-0.36055
G1 X123.422 Y137.289 E-0.26840
;WIPE_END
G1 E-0.07500 F3600.000
G1 X126.513 Y133.274 F9000.000
G1 E5.00000 F2400.000
G1 F1200.000
G1 X126.540 Y133.227 E0.00169
G1 X126.581 Y133.214 E0.00138
G1 X127.474 Y132.936 F9000.000
G1 F1200.000
G1 X128.442 Y132.351 E0.03546
G1 X129.177 Y131.588 E0.03322
G1 X129.363 Y131.289 E0.01105
G1 E-3.50000 F3600.000
;WIPE_START
G1 F7200.000
G1 X129.177 Y131.588 E-0.16738
G1 X128.442 Y132.351 E-0.50320
G1 X127.474 Y132.936 E-0.53719
;WIPE_END
G1 E-0.29223 F3600.000
G1 X131.940 Y128.542 F9000.000
G1 E5.00000 F2400.000
G1 F1200.000
G1 X132.127 Y128.192 E0.01244
G1 X132.351 Y128.096 E0.00763
G1 X132.781 Y127.809 E0.01623
G1 X133.133 Y127.502 F9000.000
G1 F1200.000
G1 X133.606 Y127.036 E0.02084
G1 X134.112 Y126.237 E0.02964
G1 X134.191 Y126.039 E0.00666
G1 X134.973 Y125.705 E0.02668
G1 X135.539 Y125.297 E0.02189
G1 X136.058 Y124.785 E0.02284
G1 X136.621 Y123.932 E0.03206
G1 X136.808 Y123.422 E0.01701
G1 X137.343 Y123.120 E0.01926
G1 X138.032 Y122.474 E0.02962
G1 X138.543 Y121.754 E0.02771
G1 X138.628 Y121.564 E0.00650
G1 X139.975 Y121.537 E0.04226
G1 X140.793 Y121.324 F9000.000
G1 F1200.000
G1 X141.065 Y121.243 E0.00889
